fexer/Resources/LUTs/agfa_vista_200.cube
TITLE "Agfa Vista"
LUT_3D_SIZE 33
DOMAIN_MIN 0.0 0.0 0.0
DOMAIN_MAX 1.0 1.0 1.0
0.068400 0.073062 0.056708
0.098931 0.072375 0.056146
0.129463 0.071688 0.055584
0.159994 0.071002 0.055022
0.190526 0.070315 0.054460
0.221057 0.069628 0.053898
0.251589 0.068941 0.053336
0.282120 0.068254 0.052774
0.312652 0.067567 0.052212
0.343183 0.066880 0.051650
0.373715 0.066193 0.051088
0.404246 0.065506 0.050526
0.434778 0.064819 0.049964
0.465309 0.064132 0.049401
0.495841 0.063445 0.048839
0.526372 0.062758 0.048277
0.556904 0.062071 0.047715
0.587435 0.061384 0.047153
0.617967 0.060697 0.046591
0.648498 0.060010 0.046029
0.679030 0.059323 0.045467
0.709561 0.058636 0.044905
0.740093 0.057949 0.044343
0.770624 0.057262 0.043781
0.801156 0.056575 0.043219
0.831687 0.055888 0.042657
0.862219 0.055201 0.042095
0.892750 0.054514 0.041533
0.923282 0.053827 0.040971
0.953813 0.053140 0.040408
0.984345 0.052453 0.039846
1.000000 0.052120 0.039520
1.000000 0.051808 0.039208
0.067350 0.101595 0.054817
0.097881 0.100908 0.054255
0.128413 0.100221 0.053693
0.158944 0.099534 0.053131
0.189476 0.098847 0.052569
0.220007 0.098160 0.052007
0.250539 0.097473 0.051445
0.281070 0.096786 0.050883
0.311602 0.096099 0.050321
0.342133 0.095412 0.049759
0.372664 0.094726 0.049197
0.403196 0.094039 0.048635
0.433727 0.093352 0.048073
0.464259 0.092665 0.047511
0.494790 0.091978 0.046949
0.525322 0.091291 0.046387
0.555853 0.090604 0.045824
0.586385 0.089917 0.045262
0.616916 0.089230 0.044700
0.647448 0.088543 0.044138
0.677979 0.087856 0.043576
0.708511 0.087169 0.043014
0.739042 0.086482 0.042452
0.769574 0.085795 0.041890
0.800105 0.085108 0.041328
0.830637 0.084421 0.040766
0.861168 0.083734 0.040204
0.891700 0.083162 0.039719
0.922231 0.082850 0.039406
0.952763 0.082538 0.039094
0.983294 0.082226 0.038782
1.000000 0.081913 0.038470
1.000000 0.081601 0.038157
0.066299 0.130128 0.052927
0.096831 0.129441 0.052365
0.127362 0.128754 0.051803
0.157894 0.128067 0.051240
0.188425 0.127380 0.050678
0.218957 0.126693 0.050116
0.249488 0.126006 0.049554
0.280020 0.125319 0.048992
0.310551 0.124632 0.048430
0.341083 0.123945 0.047868
0.371614 0.123258 0.047306
0.402146 0.122571 0.046744
0.432677 0.121884 0.046182
0.463209 0.121197 0.045620
0.493740 0.120510 0.045058
0.524272 0.119823 0.044496
0.554803 0.119136 0.043934
0.585334 0.118450 0.043372
0.615866 0.117763 0.042810
0.646397 0.117076 0.042247
0.676929 0.116389 0.041685
0.707460 0.115702 0.041123
0.737992 0.115015 0.040561
0.768523 0.114328 0.039999
0.799055 0.113892 0.039605
0.829586 0.113580 0.039293
0.860118 0.113268 0.038980
0.890649 0.112956 0.038668
0.921181 0.112643 0.038356
0.951712 0.112331 0.038044
0.982244 0.112019 0.037731
1.000000 0.111707 0.037419
1.000000 0.111394 0.037107
0.065249 0.158661 0.051036
0.095780 0.157974 0.050474
0.126312 0.157287 0.049912
0.156843 0.156600 0.049350
0.187375 0.155913 0.048788
0.217906 0.155226 0.048226
0.248438 0.154539 0.047663
0.278969 0.153852 0.047101
0.309501 0.153165 0.046539
0.340032 0.152478 0.045977
0.370564 0.151791 0.045415
0.401095 0.151104 0.044853
0.431627 0.150417 0.044291
0.462158 0.149730 0.043729
0.492690 0.149043 0.043167
0.523221 0.148356 0.042605
0.553753 0.147669 0.042043
0.584284 0.146982 0.041481
0.614816 0.146295 0.040919
0.645347 0.145608 0.040357
0.675879 0.144935 0.039804
0.706410 0.144623 0.039491
0.736942 0.144310 0.039179
0.767473 0.143998 0.038867
0.798004 0.143686 0.038554
0.828536 0.143373 0.038242
0.859067 0.143061 0.037930
0.889599 0.142749 0.037618
0.920130 0.142437 0.037305
0.950662 0.142124 0.036993
0.981193 0.141812 0.036681
1.000000 0.141500 0.036369
1.000000 0.141188 0.036056
0.064198 0.187193 0.049145
0.094730 0.186506 0.048583
0.125261 0.185820 0.048021
0.155793 0.185133 0.047459
0.186324 0.184446 0.046897
0.216856 0.183759 0.046335
0.247387 0.183072 0.045773
0.277919 0.182385 0.045211
0.308450 0.181698 0.044649
0.338982 0.181011 0.044086
0.369513 0.180324 0.043524
0.400045 0.179637 0.042962
0.430576 0.178950 0.042400
0.461108 0.178263 0.041838
0.491639 0.177576 0.041276
0.522171 0.176889 0.040714
0.552702 0.176202 0.040152
0.583234 0.175665 0.039690
0.613765 0.175353 0.039378
0.644297 0.175040 0.039065
0.674828 0.174728 0.038753
0.705360 0.174416 0.038441
0.735891 0.174104 0.038129
0.766423 0.173791 0.037816
0.796954 0.173479 0.037504
0.827486 0.173167 0.037192
0.858017 0.172855 0.036880
0.888549 0.172542 0.036567
0.919080 0.172230 0.036255
0.949612 0.171918 0.035943
0.980143 0.171606 0.035631
1.000000 0.171293 0.035318
1.000000 0.170981 0.035006
0.063148 0.215726 0.047254
0.093679 0.215039 0.046692
0.124211 0.214352 0.046130
0.154742 0.213665 0.045568
0.185274 0.212978 0.045006
0.215805 0.212291 0.044444
0.246337 0.211604 0.043882
0.276868 0.210917 0.043320
0.307400 0.210230 0.042758
0.337931 0.209544 0.042196
0.368463 0.208857 0.041634
0.398994 0.208170 0.041072
0.429526 0.207483 0.040509
0.460057 0.206796 0.039947
0.490589 0.206395 0.039576
0.521120 0.206083 0.039264
0.551652 0.205770 0.038952
0.582183 0.205458 0.038639
0.612715 0.205146 0.038327
0.643246 0.204834 0.038015
0.673778 0.204521 0.037703
0.704309 0.204209 0.037390
0.734841 0.203897 0.037078
0.765372 0.203585 0.036766
0.795904 0.203272 0.036454
0.826435 0.202960 0.036141
0.856967 0.202648 0.035829
0.887498 0.202336 0.035517
0.918030 0.202023 0.035205
0.948561 0.201711 0.034892
0.979093 0.201399 0.034580
1.000000 0.201087 0.034268
1.000000 0.200774 0.033956
0.062097 0.244259 0.045363
0.092629 0.243572 0.044801
0.123160 0.242885 0.044239
0.153692 0.242198 0.043677
0.184223 0.241511 0.043115
0.214755 0.240824 0.042553
0.245286 0.240137 0.041991
0.275818 0.239450 0.041429
0.306349 0.238763 0.040867
0.336881 0.238076 0.040305
0.367412 0.237437 0.039775
0.397944 0.237125 0.039462
0.428475 0.236813 0.039150
0.459007 0.236500 0.038838
0.489538 0.236188 0.038526
0.520070 0.235876 0.038213
0.550601 0.235564 0.037901
0.581133 0.235251 0.037589
0.611664 0.234939 0.037277
0.642196 0.234627 0.036964
0.672727 0.234315 0.036652
0.703259 0.234002 0.036340
0.733790 0.233690 0.036028
0.764322 0.233378 0.035715
0.794853 0.233066 0.035403
0.825385 0.232753 0.035091
0.855916 0.232441 0.034779
0.886448 0.232129 0.034466
0.916979 0.231817 0.034154
0.947511 0.231504 0.033842
0.978042 0.231192 0.033530
1.000000 0.230880 0.033217
1.000000 0.230568 0.032905
0.061047 0.272792 0.043473
0.091578 0.272105 0.042911
0.122110 0.271418 0.042348
0.152641 0.270731 0.041786
0.183173 0.270044 0.041224
0.213704 0.269357 0.040662
0.244236 0.268670 0.040100
0.274767 0.268167 0.039661
0.305299 0.267855 0.039349
0.335830 0.267543 0.039037
0.366362 0.267231 0.038724
0.396893 0.266918 0.038412
0.427425 0.266606 0.038100
0.457956 0.266294 0.037788
0.488488 0.265982 0.037475
0.519019 0.265669 0.037163
0.549551 0.265357 0.036851
0.580082 0.265045 0.036538
0.610614 0.264732 0.036226
0.641145 0.264420 0.035914
0.671677 0.264108 0.035602
0.702208 0.263796 0.035289
0.732740 0.263483 0.034977
0.763271 0.263171 0.034665
0.793803 0.262859 0.034353
0.824334 0.262547 0.034040
0.854866 0.262234 0.033728
0.885397 0.261922 0.033416
0.915929 0.261610 0.033104
0.946460 0.261298 0.032791
0.976992 0.260985 0.032479
1.000000 0.260673 0.032167
1.000000 0.260361 0.031855
0.059996 0.301324 0.041582
0.090528 0.300638 0.041020
0.121059 0.299951 0.040458
0.151591 0.299264 0.039896
0.182122 0.298897 0.039547
0.212654 0.298585 0.039235
0.243185 0.298273 0.038923
0.273717 0.297961 0.038611
0.304248 0.297648 0.038298
0.334780 0.297336 0.037986
0.365311 0.297024 0.037674
0.395843 0.296712 0.037362
0.426374 0.296399 0.037049
0.456906 0.296087 0.036737
0.487437 0.295775 0.036425
0.517969 0.295463 0.036113
0.548500 0.295150 0.035800
0.579032 0.294838 0.035488
0.609563 0.294526 0.035176
0.640095 0.294214 0.034864
0.670626 0.293901 0.034551
0.701158 0.293589 0.034239
0.731689 0.293277 0.033927
0.762221 0.292965 0.033615
0.792752 0.292652 0.033302
0.823284 0.292340 0.032990
0.853815 0.292028 0.032678
0.884347 0.291715 0.032365
0.914878 0.291403 0.032053
0.945410 0.291091 0.031741
0.975941 0.290779 0.031429
1.000000 0.290466 0.031116
1.000000 0.290154 0.030804
0.058946 0.329940 0.039746
0.089477 0.329627 0.039434
0.120009 0.329315 0.039121
0.150540 0.329003 0.038809
0.181072 0.328691 0.038497
0.211603 0.328378 0.038185
0.242135 0.328066 0.037872
0.272666 0.327754 0.037560
0.303198 0.327442 0.037248
0.333729 0.327129 0.036936
0.364261 0.326817 0.036623
0.394792 0.326505 0.036311
0.425324 0.326193 0.035999
0.455855 0.325880 0.035687
0.486387 0.325568 0.035374
0.516918 0.325256 0.035062
0.547450 0.324944 0.034750
0.577981 0.324631 0.034438
0.608513 0.324319 0.034125
0.639044 0.324007 0.033813
0.669576 0.323695 0.033501
0.700107 0.323382 0.033189
0.730639 0.323070 0.032876
0.761170 0.322758 0.032564
0.791702 0.322446 0.032252
0.822233 0.322133 0.031940
0.852765 0.321821 0.031627
0.883296 0.321509 0.031315
0.913828 0.321197 0.031003
0.944359 0.320884 0.030691
0.974891 0.320572 0.030378
1.000000 0.320260 0.030066
1.000000 0.319947 0.029754
0.057896 0.359733 0.038696
0.088427 0.359421 0.038383
0.118958 0.359108 0.038071
0.149490 0.358796 0.037759
0.180021 0.358484 0.037446
0.210553 0.358172 0.037134
0.241084 0.357859 0.036822
0.271616 0.357547 0.036510
0.302147 0.357235 0.036197
0.332679 0.356923 0.035885
0.363210 0.356610 0.035573
0.393742 0.356298 0.035261
0.424273 0.355986 0.034948
0.454805 0.355674 0.034636
0.485336 0.355361 0.034324
0.515868 0.355049 0.034012
0.546399 0.354737 0.033699
0.576931 0.354425 0.033387
0.607462 0.354112 0.033075
0.637994 0.353800 0.032763
0.668525 0.353488 0.032450
0.699057 0.353176 0.032138
0.729588 0.352863 0.031826
0.760120 0.352551 0.031514
0.790651 0.352239 0.031201
0.821183 0.351927 0.030889
0.851714 0.351614 0.030577
0.882246 0.351302 0.030265
0.912777 0.350990 0.029952
0.943309 0.350678 0.029640
0.973840 0.350365 0.029328
1.000000 0.350053 0.029016
1.000000 0.349741 0.028703
0.056845 0.389526 0.037645
0.087377 0.389214 0.037333
0.117908 0.388902 0.037021
0.148440 0.388590 0.036708
0.178971 0.388277 0.036396
0.209503 0.387965 0.036084
0.240034 0.387653 0.035772
0.270566 0.387341 0.035459
0.301097 0.387028 0.035147
0.331628 0.386716 0.034835
0.362160 0.386404 0.034522
0.392691 0.386091 0.034210
0.423223 0.385779 0.033898
0.453754 0.385467 0.033586
0.484286 0.385155 0.033273
0.514817 0.384842 0.032961
0.545349 0.384530 0.032649
0.575880 0.384218 0.032337
0.606412 0.383906 0.032024
0.636943 0.383593 0.031712
0.667475 0.383281 0.031400
0.698006 0.382969 0.031088
0.728538 0.382657 0.030775
0.759069 0.382344 0.030463
0.789601 0.382032 0.030151
0.820132 0.381720 0.029839
0.850664 0.381408 0.029526
0.881195 0.381095 0.029214
0.911727 0.380783 0.028902
0.942258 0.380471 0.028590
0.972790 0.380159 0.028277
1.000000 0.379846 0.027965
1.000000 0.379534 0.027653
0.055795 0.419320 0.036595
0.086326 0.419007 0.036282
0.116858 0.418695 0.035970
0.147389 0.418383 0.035658
0.177921 0.418071 0.035346
0.208452 0.417758 0.035033
0.238984 0.417446 0.034721
0.269515 0.417134 0.034409
0.300047 0.416822 0.034097
0.330578 0.416509 0.033784
0.361110 0.416197 0.033472
0.391641 0.415885 0.033160
0.422173 0.415573 0.032848
0.452704 0.415260 0.032535
0.483236 0.414948 0.032223
0.513767 0.414636 0.031911
0.544299 0.414324 0.031599
0.574830 0.414011 0.031286
0.605361 0.413699 0.030974
0.635893 0.413387 0.030662
0.666424 0.413074 0.030349
0.696956 0.412762 0.030037
0.727487 0.412450 0.029725
0.758019 0.412138 0.029413
0.788550 0.411825 0.029100
0.819082 0.411513 0.028788
0.849613 0.411201 0.028476
0.880145 0.410889 0.028164
0.910676 0.410576 0.027851
0.941208 0.410264 0.027539
0.971739 0.409952 0.027227
1.000000 0.409640 0.026915
1.000000 0.409327 0.026602
0.054744 0.449113 0.035544
0.085276 0.448801 0.035232
0.115807 0.448488 0.034920
0.146339 0.448176 0.034607
0.176870 0.447864 0.034295
0.207402 0.447552 0.033983
0.237933 0.447239 0.033671
0.268465 0.446927 0.033358
0.298996 0.446615 0.033046
0.329528 0.446303 0.032734
0.360059 0.445990 0.032422
0.390591 0.445678 0.032109
0.421122 0.445366 0.031797
0.451654 0.445054 0.031485
0.482185 0.444741 0.031173
0.512717 0.444429 0.030860
0.543248 0.444117 0.030548
0.573780 0.443805 0.030236
0.604311 0.443492 0.029924
0.634843 0.443180 0.029611
0.665374 0.442868 0.029299
0.695906 0.442556 0.028987
0.726437 0.442243 0.028675
0.756969 0.441931 0.028362
0.787500 0.441619 0.028050
0.818031 0.441306 0.027738
0.848563 0.440994 0.027425
0.879094 0.440682 0.027113
0.909626 0.440370 0.026801
0.940157 0.440057 0.026489
0.970689 0.439745 0.026176
1.000000 0.439433 0.025864
1.000000 0.439121 0.025552
0.053694 0.478906 0.034494
0.084225 0.478594 0.034181
0.114757 0.478282 0.033869
0.145288 0.477969 0.033557
0.175820 0.477657 0.033245
0.206351 0.477345 0.032932
0.236883 0.477033 0.032620
0.267414 0.476720 0.032308
0.297946 0.476408 0.031996
0.328477 0.476096 0.031683
0.359009 0.475784 0.031371
0.389540 0.475471 0.031059
0.420072 0.475159 0.030747
0.450603 0.474847 0.030434
0.481135 0.474535 0.030122
0.511666 0.474222 0.029810
0.542198 0.473910 0.029498
0.572729 0.473598 0.029185
0.603261 0.473286 0.028873
0.633792 0.472973 0.028561
0.664324 0.472661 0.028249
0.694855 0.472349 0.027936
0.725387 0.472037 0.027624
0.755918 0.471724 0.027312
0.786450 0.471412 0.027000
0.816981 0.471100 0.026687
0.847513 0.470788 0.026375
0.878044 0.470475 0.026063
0.908576 0.470163 0.025751
0.939107 0.469851 0.025438
0.969639 0.469539 0.025126
1.000000 0.469226 0.024814
1.000000 0.468914 0.024501
0.052643 0.508700 0.033443
0.083175 0.508387 0.033131
0.113706 0.508075 0.032819
0.144238 0.507763 0.032506
0.174769 0.507450 0.032194
0.205301 0.507138 0.031882
0.235832 0.506826 0.031570
0.266364 0.506514 0.031257
0.296895 0.506201 0.030945
0.327427 0.505889 0.030633
0.357958 0.505577 0.030321
0.388490 0.505265 0.030008
0.419021 0.504952 0.029696
0.449553 0.504640 0.029384
0.480084 0.504328 0.029072
0.510616 0.504016 0.028759
0.541147 0.503703 0.028447
0.571679 0.503391 0.028135
0.602210 0.503079 0.027823
0.632742 0.502767 0.027510
0.663273 0.502454 0.027198
0.693805 0.502142 0.026886
0.724336 0.501830 0.026574
0.754868 0.501518 0.026261
0.785399 0.501205 0.025949
0.815931 0.500893 0.025637
0.846462 0.500581 0.025325
0.876994 0.500269 0.025012
0.907525 0.499956 0.024700
0.938057 0.499644 0.024388
0.968588 0.499332 0.024076
0.999120 0.499020 0.023763
1.000000 0.498707 0.023451
0.051593 0.538493 0.032393
0.082124 0.538181 0.032081
0.112656 0.537868 0.031768
0.143187 0.537556 0.031456
0.173719 0.537244 0.031144
0.204250 0.536932 0.030832
0.234782 0.536619 0.030519
0.265313 0.536307 0.030207
0.295845 0.535995 0.029895
0.326376 0.535682 0.029582
0.356908 0.535370 0.029270
0.387439 0.535058 0.028958
0.417971 0.534746 0.028646
0.448502 0.534433 0.028333
0.479034 0.534121 0.028021
0.509565 0.533809 0.027709
0.540097 0.533497 0.027397
0.570628 0.533184 0.027084
0.601160 0.532872 0.026772
0.631691 0.532560 0.026460
0.662223 0.532248 0.026148
0.692754 0.531935 0.025835
0.723286 0.531623 0.025523
0.753817 0.531311 0.025211
0.784349 0.530999 0.024899
0.814880 0.530686 0.024586
0.845412 0.530374 0.024274
0.875943 0.530062 0.023962
0.906475 0.529750 0.023650
0.937006 0.529437 0.023337
0.967538 0.529125 0.023025
0.998069 0.528813 0.022713
1.000000 0.528501 0.022401
0.050542 0.568286 0.031342
0.081074 0.567974 0.031030
0.111605 0.567662 0.030718
0.142137 0.567349 0.030406
0.172668 0.567037 0.030093
0.203200 0.566725 0.029781
0.233731 0.566413 0.029469
0.264263 0.566100 0.029157
0.294794 0.565788 0.028844
0.325326 0.565476 0.028532
0.355857 0.565164 0.028220
0.386389 0.564851 0.027908
0.416920 0.564539 0.027595
0.447452 0.564227 0.027283
0.477983 0.563915 0.026971
0.508515 0.563602 0.026659
0.539046 0.563290 0.026346
0.569578 0.562978 0.026034
0.600109 0.562665 0.025722
0.630641 0.562353 0.025409
0.661172 0.562041 0.025097
0.691704 0.561729 0.024785
0.722235 0.561416 0.024473
0.752767 0.561104 0.024160
0.783298 0.560792 0.023848
0.813830 0.560480 0.023536
0.844361 0.560167 0.023224
0.874893 0.559855 0.022911
0.905424 0.559543 0.022599
0.935956 0.559231 0.022287
0.966487 0.558918 0.021975
0.997019 0.558606 0.021662
1.000000 0.558294 0.021350
0.049492 0.598079 0.030292
0.080023 0.597767 0.029980
0.110555 0.597455 0.029667
0.141086 0.597143 0.029355
0.171618 0.596830 0.029043
0.202149 0.596518 0.028731
0.232681 0.596206 0.028418
0.263212 0.595894 0.028106
0.293744 0.595581 0.027794
0.324275 0.595269 0.027482
0.354807 0.594957 0.027169
0.385338 0.594645 0.026857
0.415870 0.594332 0.026545
0.446401 0.594020 0.026233
0.476933 0.593708 0.025920
0.507464 0.593396 0.025608
0.537996 0.593083 0.025296
0.568527 0.592771 0.024984
0.599059 0.592459 0.024671
0.629590 0.592147 0.024359
0.660122 0.591834 0.024047
0.690653 0.591522 0.023735
0.721185 0.591210 0.023422
0.751716 0.590898 0.023110
0.782248 0.590585 0.022798
0.812779 0.590273 0.022485
0.843311 0.589961 0.022173
0.873842 0.589648 0.021861
0.904374 0.589336 0.021549
0.934905 0.589024 0.021236
0.965437 0.588712 0.020924
0.995968 0.588399 0.020612
1.000000 0.588087 0.020300
0.048441 0.627873 0.029241
0.078973 0.627560 0.028929
0.109504 0.627248 0.028617
0.140036 0.626936 0.028305
0.170567 0.626624 0.027992
0.201099 0.626311 0.027680
0.231630 0.625999 0.027368
0.262162 0.625687 0.027056
0.292693 0.625375 0.026743
0.323225 0.625062 0.026431
0.353756 0.624750 0.026119
0.384288 0.624438 0.025807
0.414819 0.624126 0.025494
0.445351 0.623813 0.025182
0.475882 0.623501 0.024870
0.506414 0.623189 0.024558
0.536945 0.622877 0.024245
0.567477 0.622564 0.023933
0.598008 0.622252 0.023621
0.628540 0.621940 0.023309
0.659071 0.621628 0.022996
0.689603 0.621315 0.022684
0.720134 0.621003 0.022372
0.750666 0.620691 0.022060
0.781197 0.620379 0.021747
0.811729 0.620066 0.021435
0.842260 0.619754 0.021123
0.872792 0.619442 0.020811
0.903323 0.619130 0.020498
0.933855 0.618817 0.020186
0.964386 0.618505 0.019874
0.994918 0.618193 0.019562
1.000000 0.617881 0.019249
0.047391 0.657666 0.028191
0.077922 0.657354 0.027879
0.108454 0.657041 0.027566
0.138985 0.656729 0.027254
0.169517 0.656417 0.026942
0.200048 0.656105 0.026630
0.230580 0.655792 0.026317
0.261111 0.655480 0.026005
0.291643 0.655168 0.025693
0.322174 0.654856 0.025381
0.352706 0.654543 0.025068
0.383237 0.654231 0.024756
0.413769 0.653919 0.024444
0.444300 0.653607 0.024132
0.474832 0.653294 0.023819
0.505363 0.652982 0.023507
0.535895 0.652670 0.023195
0.566426 0.652358 0.022883
0.596958 0.652045 0.022570
0.627489 0.651733 0.022258
0.658021 0.651421 0.021946
0.688552 0.651109 0.021634
0.719084 0.650796 0.021321
0.749615 0.650484 0.021009
0.780147 0.650172 0.020697
0.810678 0.649860 0.020385
0.841210 0.649547 0.020072
0.871741 0.649235 0.019760
0.902273 0.648923 0.019448
0.932804 0.648611 0.019136
0.963336 0.648298 0.018823
0.993867 0.647986 0.018511
1.000000 0.647674 0.018199
0.046341 0.687459 0.027141
0.076872 0.687147 0.026828
0.107404 0.686835 0.026516
0.137935 0.686523 0.026204
0.168467 0.686210 0.025892
0.198998 0.685898 0.025579
0.229530 0.685586 0.025267
0.260061 0.685274 0.024955
0.290592 0.684961 0.024642
0.321124 0.684649 0.024330
0.351655 0.684337 0.024018
0.382187 0.684024 0.023706
0.412718 0.683712 0.023393
0.443250 0.683400 0.023081
0.473781 0.683088 0.022769
0.504313 0.682775 0.022457
0.534844 0.682463 0.022144
0.565376 0.682151 0.021832
0.595907 0.681839 0.021520
0.626439 0.681526 0.021208
0.656970 0.681214 0.020895
0.687502 0.680902 0.020583
0.718033 0.680590 0.020271
0.748565 0.680277 0.019959
0.779096 0.679965 0.019646
0.809628 0.679653 0.019334
0.840159 0.679341 0.019022
0.870691 0.679028 0.018710
0.901222 0.678716 0.018397
0.931754 0.678404 0.018085
0.962285 0.678092 0.017773
0.992817 0.677779 0.017461
1.000000 0.677467 0.017148
0.045290 0.717253 0.026090
0.075822 0.716940 0.025778
0.106353 0.716628 0.025466
0.136885 0.716316 0.025153
0.167416 0.716004 0.024841
0.197948 0.715691 0.024529
0.228479 0.715379 0.024217
0.259011 0.715067 0.023904
0.289542 0.714755 0.023592
0.320074 0.714442 0.023280
0.350605 0.714130 0.022968
0.381137 0.713818 0.022655
0.411668 0.713506 0.022343
0.442200 0.713193 0.022031
0.472731 0.712881 0.021719
0.503263 0.712569 0.021406
0.533794 0.712257 0.021094
0.564325 0.711944 0.020782
0.594857 0.711632 0.020469
0.625388 0.711320 0.020157
0.655920 0.711007 0.019845
0.686451 0.710695 0.019533
0.716983 0.710383 0.019220
0.747514 0.710071 0.018908
0.778046 0.709758 0.018596
0.808577 0.709446 0.018284
0.839109 0.709134 0.017971
0.869640 0.708822 0.017659
0.900172 0.708509 0.017347
0.930703 0.708197 0.017035
0.961235 0.707885 0.016722
0.991766 0.707573 0.016410
1.000000 0.707260 0.016098
0.044240 0.747046 0.025040
0.074771 0.746734 0.024727
0.105303 0.746421 0.024415
0.135834 0.746109 0.024103
0.166366 0.745797 0.023791
0.196897 0.745485 0.023478
0.227429 0.745172 0.023166
0.257960 0.744860 0.022854
0.288492 0.744548 0.022542
0.319023 0.744236 0.022229
0.349555 0.743923 0.021917
0.380086 0.743611 0.021605
0.410618 0.743299 0.021293
0.441149 0.742987 0.020980
0.471681 0.742674 0.020668
0.502212 0.742362 0.020356
0.532744 0.742050 0.020044
0.563275 0.741738 0.019731
0.593807 0.741425 0.019419
0.624338 0.741113 0.019107
0.654870 0.740801 0.018795
0.685401 0.740489 0.018482
0.715933 0.740176 0.018170
0.746464 0.739864 0.017858
0.776995 0.739552 0.017545
0.807527 0.739239 0.017233
0.838058 0.738927 0.016921
0.868590 0.738615 0.016609
0.899121 0.738303 0.016296
0.929653 0.737990 0.015984
0.960184 0.737678 0.015672
0.990716 0.737366 0.015360
1.000000 0.737054 0.015047
0.043189 0.776839 0.023989
0.073721 0.776527 0.023677
0.104252 0.776215 0.023365
0.134784 0.775902 0.023052
0.165315 0.775590 0.022740
0.195847 0.775278 0.022428
0.226378 0.774966 0.022116
0.256910 0.774653 0.021803
0.287441 0.774341 0.021491
0.317973 0.774029 0.021179
0.348504 0.773717 0.020867
0.379036 0.773404 0.020554
0.409567 0.773092 0.020242
0.440099 0.772780 0.019930
0.470630 0.772468 0.019618
0.501162 0.772155 0.019305
0.531693 0.771843 0.018993
0.562225 0.771531 0.018681
0.592756 0.771219 0.018369
0.623288 0.770906 0.018056
0.653819 0.770594 0.017744
0.684351 0.770282 0.017432
0.714882 0.769970 0.017120
0.745414 0.769657 0.016807
0.775945 0.769345 0.016495
0.806477 0.769033 0.016183
0.837008 0.768721 0.015871
0.867540 0.768408 0.015558
0.898071 0.768096 0.015246
0.928603 0.767784 0.014934
0.959134 0.767472 0.014622
0.989666 0.767159 0.014309
1.000000 0.766847 0.013997
0.042139 0.806633 0.022939
0.072670 0.806320 0.022626
0.103202 0.806008 0.022314
0.133733 0.805696 0.022002
0.164265 0.805383 0.021690
0.194796 0.805071 0.021377
0.225328 0.804759 0.021065
0.255859 0.804447 0.020753
0.286391 0.804134 0.020441
0.316922 0.803822 0.020128
0.347454 0.803510 0.019816
0.377985 0.803198 0.019504
0.408517 0.802885 0.019192
0.439048 0.802573 0.018879
0.469580 0.802261 0.018567
0.500111 0.801949 0.018255
0.530643 0.801636 0.017943
0.561174 0.801324 0.017630
0.591706 0.801012 0.017318
0.622237 0.800700 0.017006
0.652769 0.800387 0.016694
0.683300 0.800075 0.016381
0.713832 0.799763 0.016069
0.744363 0.799451 0.015757
0.774895 0.799138 0.015445
0.805426 0.798826 0.015132
0.835958 0.798514 0.014820
0.866489 0.798202 0.014508
0.897021 0.797889 0.014196
0.927552 0.797577 0.013883
0.958084 0.797265 0.013571
0.988615 0.796953 0.013259
1.000000 0.796640 0.012947
0.041088 0.836426 0.021888
0.071620 0.836114 0.021576
0.102151 0.835801 0.021264
0.132683 0.835489 0.020952
0.163214 0.835177 0.020639
0.193746 0.834865 0.020327
0.224277 0.834552 0.020015
0.254809 0.834240 0.019703
0.285340 0.833928 0.019390
0.315872 0.833615 0.019078
0.346403 0.833303 0.018766
0.376935 0.832991 0.018453
0.407466 0.832679 0.018141
0.437998 0.832366 0.017829
0.468529 0.832054 0.017517
0.499061 0.831742 0.017204
0.529592 0.831430 0.016892
0.560124 0.831117 0.016580
0.590655 0.830805 0.016268
0.621187 0.830493 0.015955
0.651718 0.830181 0.015643
0.682250 0.829868 0.015331
0.712781 0.829556 0.015019
0.743313 0.829244 0.014706
0.773844 0.828932 0.014394
0.804376 0.828619 0.014082
0.834907 0.828307 0.013770
