fexer/Resources/LUTs/agfa_vista_200.cube
TITLE "Agfa Vista"
LUT_3D_SIZE 9
DOMAIN_MIN 0.0 0.0 0.0
DOMAIN_MAX 1.0 1.0 1.0
0.068400 0.073062 0.056708
0.190526 0.070315 0.054460
0.312652 0.067567 0.052212
0.434778 0.064819 0.049964
0.556904 0.062071 0.047715
0.679030 0.059323 0.045467
0.801156 0.056575 0.043219
0.923282 0.053827 0.040971
1.000000 0.051808 0.039208
0.064198 0.187193 0.049145
0.186324 0.184446 0.046897
0.308450 0.181698 0.044649
0.430576 0.178950 0.042400
0.552702 0.176202 0.040152
0.674828 0.174728 0.038753
0.796954 0.173479 0.037504
0.919080 0.172230 0.036255
1.000000 0.170981 0.035006
0.059996 0.301324 0.041582
0.182122 0.298897 0.039547
0.304248 0.297648 0.038298
0.426374 0.296399 0.037049
0.548500 0.295150 0.035800
0.670626 0.293901 0.034551
0.792752 0.292652 0.033302
0.914878 0.291403 0.032053
1.000000 0.290154 0.030804
0.055795 0.419320 0.036595
0.177921 0.418071 0.035346
0.300047 0.416822 0.034097
0.422173 0.415573 0.032848
0.544299 0.414324 0.031599
0.666424 0.413074 0.030349
0.788550 0.411825 0.029100
0.910676 0.410576 0.027851
1.000000 0.409327 0.026602
0.051593 0.538493 0.032393
0.173719 0.537244 0.031144
0.295845 0.535995 0.029895
0.417971 0.534746 0.028646
0.540097 0.533497 0.027397
0.662223 0.532248 0.026148
0.784349 0.530999 0.024899
0.906475 0.529750 0.023650
1.000000 0.528501 0.022401
0.047391 0.657666 0.028191
0.169517 0.656417 0.026942
0.291643 0.655168 0.025693
0.413769 0.653919 0.024444
0.535895 0.652670 0.023195
0.658021 0.651421 0.021946
0.780147 0.650172 0.020697
0.902273 0.648923 0.019448
1.000000 0.647674 0.018199
0.043189 0.776839 0.023989
0.165315 0.775590 0.022740
0.287441 0.774341 0.021491
0.409567 0.773092 0.020242
0.531693 0.771843 0.018993
0.653819 0.770594 0.017744
0.775945 0.769345 0.016495
0.898071 0.768096 0.015246
1.000000 0.766847 0.013997
0.038987 0.896012 0.019787
0.161113 0.894763 0.018538
0.283239 0.893514 0.017289
0.405365 0.892265 0.016040
0.527491 0.891016 0.014791
0.649617 0.889767 0.013542
0.771743 0.888518 0.012293
0.893869 0.887269 0.011044
1.000000 0.886020 0.009795
0.034786 1.000000 0.015586
0.156912 1.000000 0.014337
0.279038 1.000000 0.013088
0.401164 1.000000 0.011839
0.523289 1.000000 0.010589
0.645415 1.000000 0.009340
0.767541 1.000000 0.008091
0.889667 1.000000 0.006842
1.000000 1.000000 0.005593
0.067976 0.072129 0.179320
0.190102 0.069381 0.177072
0.312228 0.066633 0.174823
0.434354 0.063886 0.172575
0.556480 0.061138 0.170327
0.678606 0.058390 0.168079
0.800732 0.055642 0.165830
0.922858 0.052894 0.163582
1.000000 0.051384 0.162159
0.063774 0.186260 0.171757
0.185900 0.183512 0.169508
0.308026 0.180765 0.167260
0.430152 0.178017 0.165012
0.552278 0.175553 0.162953
0.674404 0.174304 0.161704
0.796530 0.173055 0.160455
0.918656 0.171806 0.159206
1.000000 0.170557 0.157957
0.059572 0.300391 0.164193
0.181698 0.298473 0.162498
0.303824 0.297224 0.161249
0.425950 0.295975 0.160000
0.548076 0.294726 0.158751
0.670202 0.293477 0.157502
0.792328 0.292228 0.156253
0.914454 0.290979 0.155004
1.000000 0.289730 0.153755
0.055370 0.418895 0.159545
0.177496 0.417646 0.158296
0.299622 0.416397 0.157047
0.421748 0.415148 0.155798
0.543874 0.413899 0.154549
0.666000 0.412650 0.153300
0.788126 0.411401 0.152051
0.910252 0.410152 0.150802
1.000000 0.408903 0.149553
0.051169 0.538069 0.155344
0.173295 0.536820 0.154095
0.295421 0.535571 0.152846
0.417547 0.534322 0.151597
0.539673 0.533073 0.150348
0.661798 0.531824 0.149098
0.783924 0.530574 0.147849
0.906050 0.529325 0.146600
1.000000 0.528076 0.145351
0.046967 0.657242 0.151142
0.169093 0.655993 0.149893
0.291219 0.654744 0.148644
0.413345 0.653495 0.147395
0.535471 0.652246 0.146146
0.657597 0.650997 0.144897
0.779723 0.649748 0.143648
0.901849 0.648499 0.142399
1.000000 0.647250 0.141150
0.042765 0.776415 0.146940
0.164891 0.775166 0.145691
0.287017 0.773917 0.144442
0.409143 0.772668 0.143193
0.531269 0.771419 0.141944
0.653395 0.770170 0.140695
0.775521 0.768921 0.139446
0.897647 0.767672 0.138197
1.000000 0.766423 0.136948
0.038563 0.895588 0.142738
0.160689 0.894339 0.141489
0.282815 0.893090 0.140240
0.404941 0.891841 0.138991
0.527067 0.890592 0.137742
0.649193 0.889343 0.136493
0.771319 0.888094 0.135244
0.893445 0.886845 0.133995
1.000000 0.885596 0.132746
0.034361 1.000000 0.138536
0.156487 1.000000 0.137287
0.278613 1.000000 0.136038
0.400739 1.000000 0.134789
0.522865 1.000000 0.133540
0.644991 1.000000 0.132291
0.767117 1.000000 0.131042
0.889243 1.000000 0.129793
1.000000 1.000000 0.128544
0.067552 0.071196 0.301931
0.189678 0.068448 0.299683
0.311804 0.065700 0.297435
0.433930 0.062952 0.295186
0.556056 0.060205 0.292938
0.678182 0.057457 0.290690
0.800307 0.054709 0.288442
0.922433 0.052208 0.286358
1.000000 0.050959 0.285109
0.063350 0.185327 0.294368
0.185476 0.182579 0.292120
0.307602 0.179831 0.289872
0.429728 0.177083 0.287623
0.551854 0.175129 0.285904
0.673980 0.173880 0.284655
0.796106 0.172631 0.283406
0.918232 0.171382 0.282157
1.000000 0.170133 0.280908
0.059148 0.299458 0.286805
0.181274 0.298049 0.285449
0.303400 0.296800 0.284200
0.425526 0.295551 0.282951
0.547652 0.294302 0.281702
0.669778 0.293053 0.280453
0.791904 0.291804 0.279204
0.914030 0.290555 0.277955
1.000000 0.289306 0.276706
0.054946 0.418471 0.282496
0.177072 0.417222 0.281247
0.299198 0.415973 0.279998
0.421324 0.414724 0.278749
0.543450 0.413475 0.277500
0.665576 0.412226 0.276251
0.787702 0.410977 0.275002
0.909828 0.409728 0.273753
1.000000 0.408479 0.272504
0.050744 0.537644 0.278294
0.172870 0.536395 0.277045
0.294996 0.535146 0.275796
0.417122 0.533897 0.274547
0.539248 0.532648 0.273298
0.661374 0.531399 0.272049
0.783500 0.530150 0.270800
0.905626 0.528901 0.269551
1.000000 0.527652 0.268302
0.046543 0.656818 0.274093
0.168669 0.655569 0.272844
0.290795 0.654320 0.271595
0.412921 0.653071 0.270346
0.535047 0.651822 0.269097
0.657173 0.650573 0.267848
0.779298 0.649323 0.266599
0.901424 0.648074 0.265349
1.000000 0.646825 0.264100
0.042341 0.775991 0.269891
0.164467 0.774742 0.268642
0.286593 0.773493 0.267393
0.408719 0.772244 0.266144
0.530845 0.770995 0.264895
0.652971 0.769746 0.263646
0.775097 0.768497 0.262397
0.897223 0.767248 0.261148
1.000000 0.765999 0.259899
0.038139 0.895164 0.265689
0.160265 0.893915 0.264440
0.282391 0.892666 0.263191
0.404517 0.891417 0.261942
0.526643 0.890168 0.260693
0.648769 0.888919 0.259444
0.770895 0.887670 0.258195
0.893021 0.886421 0.256946
1.000000 0.885172 0.255697
0.033937 1.000000 0.261487
0.156063 1.000000 0.260238
0.278189 1.000000 0.258989
0.400315 1.000000 0.257740
0.522441 1.000000 0.256491
0.644567 1.000000 0.255242
0.766693 1.000000 0.253993
0.888819 1.000000 0.252744
1.000000 1.000000 0.251495
0.067127 0.070263 0.424543
0.189253 0.067515 0.422294
0.311379 0.064767 0.420046
0.433505 0.062019 0.417798
0.555631 0.059271 0.415550
0.677757 0.056524 0.413301
0.799883 0.053776 0.411053
0.922009 0.051784 0.409309
1.000000 0.050535 0.408060
0.062926 0.184394 0.416979
0.185052 0.181646 0.414731
0.307178 0.178898 0.412483
0.429304 0.176150 0.410235
0.551430 0.174705 0.408855
0.673556 0.173456 0.407606
0.795682 0.172207 0.406357
0.917808 0.170957 0.405108
1.000000 0.169708 0.403858
0.058724 0.298874 0.409649
0.180850 0.297625 0.408400
0.302976 0.296376 0.407151
0.425102 0.295127 0.405902
0.547228 0.293878 0.404653
0.669354 0.292629 0.403404
0.791480 0.291380 0.402155
0.913606 0.290131 0.400906
1.000000 0.288882 0.399657
0.054522 0.418047 0.405447
0.176648 0.416798 0.404198
0.298774 0.415549 0.402949
0.420900 0.414300 0.401700
0.543026 0.413051 0.400451
0.665152 0.411802 0.399202
0.787278 0.410553 0.397953
0.909404 0.409304 0.396704
1.000000 0.408055 0.395455
0.050320 0.537220 0.401245
0.172446 0.535971 0.399996
0.294572 0.534722 0.398747
0.416698 0.533473 0.397498
0.538824 0.532224 0.396249
0.660950 0.530975 0.395000
0.783076 0.529726 0.393751
0.905202 0.528477 0.392502
1.000000 0.527228 0.391253
0.046118 0.656393 0.397043
0.168244 0.655144 0.395794
0.290370 0.653895 0.394545
0.412496 0.652646 0.393296
0.534622 0.651397 0.392047
0.656748 0.650148 0.390798
0.778874 0.648899 0.389549
0.901000 0.647650 0.388300
1.000000 0.646401 0.387051
0.041917 0.775567 0.392842
0.164043 0.774318 0.391593
0.286169 0.773069 0.390344
0.408295 0.771820 0.389095
0.530421 0.770571 0.387846
0.652547 0.769322 0.386597
0.774673 0.768073 0.385348
0.896799 0.766823 0.384099
1.000000 0.765574 0.382849
0.037715 0.894740 0.388640
0.159841 0.893491 0.387391
0.281967 0.892242 0.386142
0.404093 0.890993 0.384893
0.526219 0.889744 0.383644
0.648345 0.888495 0.382395
0.770471 0.887246 0.381146
0.892597 0.885997 0.379897
1.000000 0.884748 0.378648
0.033513 1.000000 0.384438
0.155639 1.000000 0.383189
0.277765 1.000000 0.381940
0.399891 1.000000 0.380691
0.522017 1.000000 0.379442
0.644143 1.000000 0.378193
0.766269 1.000000 0.376944
0.888395 1.000000 0.375695
1.000000 1.000000 0.374446
0.066703 0.069330 0.547154
0.188829 0.066582 0.544906
0.310955 0.063834 0.542658
0.433081 0.061086 0.540409
0.555207 0.058338 0.538161
0.677333 0.055590 0.535913
0.799459 0.052843 0.533665
0.921585 0.051360 0.532260
1.000000 0.050111 0.531011
0.062502 0.183461 0.539591
0.184627 0.180713 0.537343
0.306753 0.177965 0.535094
0.428879 0.175529 0.533054
0.551005 0.174280 0.531805
0.673131 0.173031 0.530556
0.795257 0.171782 0.529307
0.917383 0.170533 0.528058
1.000000 0.169284 0.526809
0.058300 0.298450 0.532600
0.180426 0.297201 0.531351
0.302552 0.295952 0.530102
0.424678 0.294703 0.528853
0.546804 0.293454 0.527604
0.668930 0.292205 0.526355
0.791056 0.290956 0.525106
0.913182 0.289707 0.523857
1.000000 0.288458 0.522608
0.054098 0.417623 0.528398
0.176224 0.416374 0.527149
0.298350 0.415125 0.525900
0.420476 0.413876 0.524651
0.542602 0.412627 0.523402
0.664728 0.411378 0.522153
0.786854 0.410129 0.520904
0.908980 0.408880 0.519655
1.000000 0.407631 0.518406
0.049896 0.536796 0.524196
0.172022 0.535547 0.522947
0.294148 0.534298 0.521698
0.416274 0.533049 0.520449
0.538400 0.531800 0.519200
0.660526 0.530551 0.517951
0.782652 0.529302 0.516702
0.904778 0.528053 0.515453
1.000000 0.526804 0.514204
0.045694 0.655969 0.519994
0.167820 0.654720 0.518745
0.289946 0.653471 0.517496
0.412072 0.652222 0.516247
0.534198 0.650973 0.514998
0.656324 0.649724 0.513749
0.778450 0.648475 0.512500
0.900576 0.647226 0.511251
1.000000 0.645977 0.510002
0.041492 0.775142 0.515792
0.163618 0.773893 0.514543
0.285744 0.772644 0.513294
0.407870 0.771395 0.512045
0.529996 0.770146 0.510796
0.652122 0.768897 0.509547
0.774248 0.767648 0.508298
0.896374 0.766399 0.507049
1.000000 0.765150 0.505800
0.037291 0.894316 0.511591
0.159417 0.893067 0.510342
0.281543 0.891818 0.509093
0.403669 0.890569 0.507844
0.525795 0.889320 0.506595
0.647921 0.888071 0.505346
0.770047 0.886822 0.504097
0.892173 0.885573 0.502848
1.000000 0.884324 0.501598
0.033089 1.000000 0.507389
0.155215 1.000000 0.506140
0.277341 1.000000 0.504891
0.399467 1.000000 0.503642
0.521593 1.000000 0.502393
0.643719 1.000000 0.501144
0.765845 1.000000 0.499895
0.887971 1.000000 0.498646
1.000000 1.000000 0.497397
0.066279 0.068396 0.669766
0.188405 0.065649 0.667517
0.310531 0.062901 0.665269
0.432657 0.060153 0.663021
0.554783 0.057405 0.660773
0.676909 0.054657 0.658524
0.799035 0.052185 0.656460
0.921161 0.050936 0.655211
1.000000 0.049687 0.653962
0.062077 0.182528 0.662202
0.184203 0.179780 0.659954
0.306329 0.177032 0.657706
0.428455 0.175105 0.656005
0.550581 0.173856 0.654756
0.672707 0.172607 0.653507
0.794833 0.171358 0.652258
0.916959 0.170109 0.651009
1.000000 0.168860 0.649760
0.057876 0.298026 0.655551
0.180001 0.296776 0.654301
0.302127 0.295527 0.653052
0.424253 0.294278 0.651803
0.546379 0.293029 0.650554
0.668505 0.291780 0.649305
0.790631 0.290531 0.648056
0.912757 0.289282 0.646807
1.000000 0.288033 0.645558
0.053674 0.417199 0.651349
0.175800 0.415950 0.650100
0.297926 0.414701 0.648851
0.420052 0.413452 0.647602
0.542178 0.412203 0.646353
0.664304 0.410954 0.645104
0.786430 0.409705 0.643855
0.908556 0.408456 0.642606
1.000000 0.407207 0.641357
0.049472 0.536372 0.647147
0.171598 0.535123 0.645898
0.293724 0.533874 0.644649
0.415850 0.532625 0.643400
0.537976 0.531376 0.642151
0.660102 0.530127 0.640902
0.782228 0.528878 0.639653
0.904354 0.527629 0.638404
1.000000 0.526380 0.637155
0.045270 0.655545 0.642945
0.167396 0.654296 0.641696
0.289522 0.653047 0.640447
0.411648 0.651798 0.639198
0.533774 0.650549 0.637949
0.655900 0.649300 0.636700
0.778026 0.648051 0.635451
0.900152 0.646802 0.634202
1.000000 0.645553 0.632953
0.041068 0.774718 0.638743
0.163194 0.773469 0.637494
0.285320 0.772220 0.636245
0.407446 0.770971 0.634996
0.529572 0.769722 0.633747
0.651698 0.768473 0.632498
0.773824 0.767224 0.631249
0.895950 0.765975 0.630000
1.000000 0.764726 0.628751
0.036867 0.893892 0.634542
0.158993 0.892643 0.633292
0.281118 0.891393 0.632043
0.403244 0.890144 0.630794
0.525370 0.888895 0.629545
0.647496 0.887646 0.628296
0.769622 0.886397 0.627047
0.891748 0.885148 0.625798
1.000000 0.883899 0.624549
0.032665 1.000000 0.630340
0.154791 1.000000 0.629091
0.276917 1.000000 0.627842
0.399043 1.000000 0.626593
0.521169 1.000000 0.625344
0.643295 1.000000 0.624095
0.765421 1.000000 0.622846
0.887547 1.000000 0.621597
1.000000 1.000000 0.620348
0.065855 0.067463 0.792377
0.187981 0.064715 0.790129
0.310107 0.061968 0.787881
0.432233 0.059220 0.785632
0.554359 0.056472 0.783384
0.676485 0.053724 0.781136
0.798611 0.051761 0.779411
0.920737 0.050512 0.778162
1.000000 0.049263 0.776913
0.061653 0.181594 0.784814
0.183779 0.178846 0.782566
0.305905 0.176099 0.780317
0.428031 0.174681 0.778956
0.550157 0.173432 0.777707
0.672283 0.172183 0.776458
0.794409 0.170934 0.775209
0.916535 0.169685 0.773960
1.000000 0.168436 0.772711
0.057451 0.297601 0.778501
0.179577 0.296352 0.777252
0.301703 0.295103 0.776003
0.423829 0.293854 0.774754
0.545955 0.292605 0.773505
0.668081 0.291356 0.772256
0.790207 0.290107 0.771007
0.912333 0.288858 0.769758
1.000000 0.287609 0.768509
0.053250 0.416775 0.774300
0.175376 0.415526 0.773051
0.297502 0.414276 0.771801
0.419627 0.413027 0.770552
0.541753 0.411778 0.769303
0.663879 0.410529 0.768054
0.786005 0.409280 0.766805
0.908131 0.408031 0.765556
1.000000 0.406782 0.764307
0.049048 0.535948 0.770098
0.171174 0.534699 0.768849
0.293300 0.533450 0.767600
0.415426 0.532201 0.766351
0.537552 0.530952 0.765102
0.659678 0.529703 0.763853
0.781804 0.528454 0.762604
0.903930 0.527205 0.761355
1.000000 0.525956 0.760106
0.044846 0.655121 0.765896
0.166972 0.653872 0.764647
0.289098 0.652623 0.763398
0.411224 0.651374 0.762149
0.533350 0.650125 0.760900
0.655476 0.648876 0.759651
0.777602 0.647627 0.758402
0.899728 0.646378 0.757153
1.000000 0.645129 0.755904
0.040644 0.774294 0.761694
0.162770 0.773045 0.760445
0.284896 0.771796 0.759196
0.407022 0.770547 0.757947
0.529148 0.769298 0.756698
0.651274 0.768049 0.755449
0.773400 0.766800 0.754200
0.895526 0.765551 0.752951
1.000000 0.764302 0.751702
0.036442 0.893467 0.757492
0.158568 0.892218 0.756243
0.280694 0.890969 0.754994
0.402820 0.889720 0.753745
0.524946 0.888471 0.752496
0.647072 0.887222 0.751247
0.769198 0.885973 0.749998
0.891324 0.884724 0.748749
1.000000 0.883475 0.747500
0.032241 1.000000 0.753291
0.154367 1.000000 0.752042
0.276493 1.000000 0.750792
0.398618 1.000000 0.749543
0.520744 1.000000 0.748294
0.642870 1.000000 0.747045
0.764996 1.000000 0.745796
0.887122 1.000000 0.744547
1.000000 1.000000 0.743298
0.065431 0.066530 0.914989
0.187557 0.063782 0.912740
0.309683 0.061034 0.910492
0.431809 0.058287 0.908244
0.553935 0.055539 0.905996
0.676061 0.052791 0.903747
0.798187 0.051337 0.902362
0.920313 0.050088 0.901113
1.000000 0.048839 0.899864
0.061229 0.180661 0.907425
0.183355 0.177913 0.905177
0.305481 0.175506 0.903156
0.427607 0.174257 0.901907
0.549733 0.173008 0.900658
0.671859 0.171759 0.899409
0.793985 0.170510 0.898160
0.916111 0.169261 0.896911
1.000000 0.168012 0.895662
0.057027 0.297177 0.901452
0.179153 0.295928 0.900203
0.301279 0.294679 0.898954
0.423405 0.293430 0.897705
0.545531 0.292181 0.896456
0.667657 0.290932 0.895207
0.789783 0.289683 0.893958
0.911909 0.288434 0.892709
1.000000 0.287185 0.891460
0.052825 0.416350 0.897250
0.174951 0.415101 0.896001
0.297077 0.413852 0.894752
0.419203 0.412603 0.893503
0.541329 0.411354 0.892254
0.663455 0.410105 0.891005
0.785581 0.408856 0.889756
0.907707 0.407607 0.888507
1.000000 0.406358 0.887258
0.048624 0.535524 0.893049
0.170750 0.534275 0.891800
0.292876 0.533026 0.890551
0.415001 0.531777 0.889302
0.537127 0.530527 0.888052
0.659253 0.529278 0.886803
0.781379 0.528029 0.885554
0.903505 0.526780 0.884305
1.000000 0.525531 0.883056
0.044422 0.654697 0.888847
0.166548 0.653448 0.887598
0.288674 0.652199 0.886349
0.410800 0.650950 0.885100
0.532926 0.649701 0.883851
0.655052 0.648452 0.882602
0.777178 0.647203 0.881353
0.899304 0.645954 0.880104
1.000000 0.644705 0.878855
0.040220 0.773870 0.884645
0.162346 0.772621 0.883396
0.284472 0.771372 0.882147
0.406598 0.770123 0.880898
0.528724 0.768874 0.879649
0.650850 0.767625 0.878400
0.772976 0.766376 0.877151
0.895102 0.765127 0.875902
1.000000 0.763878 0.874653
0.036018 0.893043 0.880443
0.158144 0.891794 0.879194
0.280270 0.890545 0.877945
0.402396 0.889296 0.876696
0.524522 0.888047 0.875447
0.646648 0.886798 0.874198
0.768774 0.885549 0.872949
0.890900 0.884300 0.871700
1.000000 0.883051 0.870451
0.031816 1.000000 0.876241
0.153942 1.000000 0.874992
0.276068 1.000000 0.873743
0.398194 1.000000 0.872494
0.520320 1.000000 0.871245
0.642446 1.000000 0.869996
0.764572 1.000000 0.868747
0.886698 1.000000 0.867498
1.000000 1.000000 0.866249
0.065007 0.065597 1.000000
0.187133 0.062849 1.000000
0.309259 0.060101 1.000000
0.431385 0.057353 1.000000
0.553511 0.054605 1.000000
0.675636 0.052161 1.000000
0.797762 0.050912 1.000000
0.919888 0.049663 1.000000
1.000000 0.048414 1.000000
0.060805 0.179728 1.000000
0.182931 0.176980 1.000000
0.305057 0.175082 1.000000
0.427183 0.173833 1.000000
0.549309 0.172584 1.000000
0.671435 0.171335 1.000000
0.793561 0.170086 1.000000
0.915687 0.168837 1.000000
1.000000 0.167588 1.000000
0.056603 0.296753 1.000000
0.178729 0.295504 1.000000
0.300855 0.294255 1.000000
0.422981 0.293006 1.000000
0.545107 0.291757 1.000000
0.667233 0.290508 1.000000
0.789359 0.289259 1.000000
0.911485 0.288010 1.000000
1.000000 0.286761 1.000000
0.052401 0.415926 1.000000
0.174527 0.414677 1.000000
0.296653 0.413428 1.000000
0.418779 0.412179 1.000000
0.540905 0.410930 1.000000
0.663031 0.409681 1.000000
0.785157 0.408432 1.000000
0.907283 0.407183 1.000000
1.000000 0.405934 1.000000
0.048199 0.535099 1.000000
0.170325 0.533850 1.000000
0.292451 0.532601 1.000000
0.414577 0.531352 1.000000
0.536703 0.530103 1.000000
0.658829 0.528854 1.000000
0.780955 0.527605 1.000000
0.903081 0.526356 1.000000
1.000000 0.525107 1.000000
0.043998 0.654273 1.000000
0.166124 0.653024 1.000000
0.288250 0.651775 1.000000
0.410376 0.650526 1.000000
0.532501 0.649277 1.000000
0.654627 0.648027 1.000000
0.776753 0.646778 1.000000
0.898879 0.645529 1.000000
1.000000 0.644280 1.000000
0.039796 0.773446 1.000000
0.161922 0.772197 1.000000
0.284048 0.770948 1.000000
0.406174 0.769699 1.000000
0.528300 0.768450 1.000000
0.650426 0.767201 1.000000
0.772552 0.765952 1.000000
0.894678 0.764703 0.998853
1.000000 0.763454 0.997604
0.035594 0.892619 1.000000
0.157720 0.891370 1.000000
0.279846 0.890121 1.000000
0.401972 0.888872 0.999647
0.524098 0.887623 0.998398
0.646224 0.886374 0.997149
0.768350 0.885125 0.995900
0.890476 0.883876 0.994651
1.000000 0.882627 0.993402
0.031392 1.000000 0.999192
0.153518 1.000000 0.997943
0.275644 1.000000 0.996694
0.397770 1.000000 0.995445
0.519896 1.000000 0.994196
0.642022 1.000000 0.992947
0.764148 1.000000 0.991698
0.886274 1.000000 0.990449
1.000000 1.000000 0.989200
