fexer/Resources/LUTs/agfa_vista_200.cube
TITLE "Agfa Vista"
LUT_3D_SIZE 5
DOMAIN_MIN 0.0 0.0 0.0
DOMAIN_MAX 1.0 1.0 1.0
0.068400 0.073062 0.056708
0.312652 0.067567 0.052212
0.556904 0.062071 0.047715
0.801156 0.056575 0.043219
1.000000 0.051808 0.039208
0.059996 0.301324 0.041582
0.304248 0.297648 0.038298
0.548500 0.295150 0.035800
0.792752 0.292652 0.033302
1.000000 0.290154 0.030804
0.051593 0.538493 0.032393
0.295845 0.535995 0.029895
0.540097 0.533497 0.027397
0.784349 0.530999 0.024899
1.000000 0.528501 0.022401
0.043189 0.776839 0.023989
0.287441 0.774341 0.021491
0.531693 0.771843 0.018993
0.775945 0.769345 0.016495
1.000000 0.766847 0.013997
0.034786 1.000000 0.015586
0.279038 1.000000 0.013088
0.523289 1.000000 0.010589
0.767541 1.000000 0.008091
1.000000 1.000000 0.005593
0.067552 0.071196 0.301931
0.311804 0.065700 0.297435
0.556056 0.060205 0.292938
0.800307 0.054709 0.288442
1.000000 0.050959 0.285109
0.059148 0.299458 0.286805
0.303400 0.296800 0.284200
0.547652 0.294302 0.281702
0.791904 0.291804 0.279204
1.000000 0.289306 0.276706
0.050744 0.537644 0.278294
0.294996 0.535146 0.275796
0.539248 0.532648 0.273298
0.783500 0.530150 0.270800
1.000000 0.527652 0.268302
0.042341 0.775991 0.269891
0.286593 0.773493 0.267393
0.530845 0.770995 0.264895
0.775097 0.768497 0.262397
1.000000 0.765999 0.259899
0.033937 1.000000 0.261487
0.278189 1.000000 0.258989
0.522441 1.000000 0.256491
0.766693 1.000000 0.253993
1.000000 1.000000 0.251495
0.066703 0.069330 0.547154
0.310955 0.063834 0.542658
0.555207 0.058338 0.538161
0.799459 0.052843 0.533665
1.000000 0.050111 0.531011
0.058300 0.298450 0.532600
0.302552 0.295952 0.530102
0.546804 0.293454 0.527604
0.791056 0.290956 0.525106
1.000000 0.288458 0.522608
0.049896 0.536796 0.524196
0.294148 0.534298 0.521698
0.538400 0.531800 0.519200
0.782652 0.529302 0.516702
1.000000 0.526804 0.514204
0.041492 0.775142 0.515792
0.285744 0.772644 0.513294
0.529996 0.770146 0.510796
0.774248 0.767648 0.508298
1.000000 0.765150 0.505800
0.033089 1.000000 0.507389
0.277341 1.000000 0.504891
0.521593 1.000000 0.502393
0.765845 1.000000 0.499895
1.000000 1.000000 0.497397
0.065855 0.067463 0.792377
0.310107 0.061968 0.787881
0.554359 0.056472 0.783384
0.798611 0.051761 0.779411
1.000000 0.049263 0.776913
0.057451 0.297601 0.778501
0.301703 0.295103 0.776003
0.545955 0.292605 0.773505
0.790207 0.290107 0.771007
1.000000 0.287609 0.768509
0.049048 0.535948 0.770098
0.293300 0.533450 0.767600
0.537552 0.530952 0.765102
0.781804 0.528454 0.762604
1.000000 0.525956 0.760106
0.040644 0.774294 0.761694
0.284896 0.771796 0.759196
0.529148 0.769298 0.756698
0.773400 0.766800 0.754200
1.000000 0.764302 0.751702
0.032241 1.000000 0.753291
0.276493 1.000000 0.750792
0.520744 1.000000 0.748294
0.764996 1.000000 0.745796
1.000000 1.000000 0.743298
0.065007 0.065597 1.000000
0.309259 0.060101 1.000000
0.553511 0.054605 1.000000
0.797762 0.050912 1.000000
1.000000 0.048414 1.000000
0.056603 0.296753 1.000000
0.300855 0.294255 1.000000
0.545107 0.291757 1.000000
0.789359 0.289259 1.000000
1.000000 0.286761 1.000000
0.048199 0.535099 1.000000
0.292451 0.532601 1.000000
0.536703 0.530103 1.000000
0.780955 0.527605 1.000000
1.000000 0.525107 1.000000
0.039796 0.773446 1.000000
0.284048 0.770948 1.000000
0.528300 0.768450 1.000000
0.772552 0.765952 1.000000
1.000000 0.763454 0.997604
0.031392 1.000000 0.999192
0.275644 1.000000 0.996694
0.519896 1.000000 0.994196
0.764148 1.000000 0.991698
1.000000 1.000000 0.989200
