fexer/Resources/LUTs/architecture_cool.cube
TITLE "Architecture"
LUT_3D_SIZE 9
DOMAIN_MIN 0.0 0.0 0.0
DOMAIN_MAX 1.0 1.0 1.0
0.000000 0.000000 0.022672
0.089390 0.000000 0.026570
0.201780 0.000000 0.030467
0.314171 0.004134 0.034365
0.426561 0.009145 0.038263
0.538951 0.014156 0.042160
0.651341 0.019167 0.046058
0.763731 0.024178 0.049955
0.876122 0.029190 0.053853
0.000000 0.113337 0.035784
0.106248 0.118348 0.039682
0.218638 0.123359 0.043579
0.331029 0.128371 0.047477
0.443419 0.133382 0.051374
0.555809 0.138393 0.055272
0.668199 0.143404 0.059170
0.780589 0.148415 0.064136
0.892980 0.153427 0.069148
0.010716 0.237574 0.048896
0.123106 0.242585 0.052793
0.235496 0.247596 0.056691
0.347887 0.252608 0.060950
0.460277 0.257619 0.065961
0.572667 0.262630 0.070972
0.685057 0.267641 0.075983
0.797447 0.272652 0.080994
0.909838 0.277664 0.086006
0.027574 0.361811 0.062774
0.139964 0.366822 0.067785
0.252354 0.371833 0.072796
0.364745 0.376845 0.077808
0.477135 0.381856 0.082819
0.589525 0.386867 0.087830
0.701915 0.391878 0.092841
0.814305 0.396889 0.097852
0.926695 0.401900 0.102863
0.044432 0.486048 0.079632
0.156822 0.491059 0.084643
0.269212 0.496070 0.089654
0.381603 0.501082 0.094666
0.493993 0.506093 0.099677
0.606383 0.511104 0.104688
0.718773 0.516115 0.109699
0.831163 0.521126 0.114710
0.943553 0.526137 0.119721
0.061290 0.610285 0.096490
0.173680 0.615296 0.101501
0.286070 0.620307 0.106512
0.398460 0.625318 0.111523
0.510851 0.630330 0.116535
0.623241 0.635341 0.121546
0.735631 0.640352 0.126557
0.848021 0.645363 0.131568
0.960411 0.650374 0.136579
0.078148 0.734522 0.113348
0.190538 0.739533 0.118359
0.302928 0.744544 0.123370
0.415318 0.749555 0.128381
0.527709 0.754567 0.133393
0.640099 0.759578 0.138404
0.752489 0.764589 0.143415
0.864879 0.769600 0.148426
0.977269 0.774611 0.153894
0.095006 0.858759 0.130206
0.207396 0.863770 0.135217
0.319786 0.868781 0.140228
0.432176 0.873792 0.145239
0.544567 0.878804 0.150353
0.656957 0.883815 0.155921
0.769347 0.888826 0.161489
0.881737 0.893837 0.167057
0.994127 0.898848 0.172625
0.111864 0.982996 0.147064
0.224254 0.988007 0.152381
0.336644 0.993018 0.157949
0.449034 0.998029 0.163517
0.561425 1.000000 0.169085
0.673815 1.000000 0.174653
0.786205 1.000000 0.180221
0.898595 1.000000 0.185789
1.000000 1.000000 0.191357
0.000000 0.000000 0.131375
0.091092 0.000000 0.135272
0.203482 0.000824 0.139170
0.315872 0.005835 0.143068
0.428263 0.010847 0.146965
0.540653 0.015858 0.150863
0.653043 0.020869 0.154760
0.765433 0.025880 0.158658
0.877823 0.030891 0.162556
0.000000 0.115039 0.144487
0.107950 0.120050 0.148384
0.220340 0.125061 0.152282
0.332730 0.130072 0.156179
0.445121 0.135084 0.160077
0.557511 0.140095 0.163975
0.669901 0.145106 0.168206
0.782291 0.150117 0.173217
0.894681 0.155128 0.178228
0.012418 0.239276 0.157598
0.124808 0.244287 0.161496
0.237198 0.249298 0.165394
0.349588 0.254309 0.170030
0.461979 0.259321 0.175042
0.574369 0.264332 0.180053
0.686759 0.269343 0.185064
0.799149 0.274354 0.190075
0.911539 0.279365 0.195086
0.029276 0.363513 0.171855
0.141666 0.368524 0.176866
0.254056 0.373535 0.181877
0.366446 0.378546 0.186888
0.478837 0.383558 0.191900
0.591227 0.388569 0.196911
0.703617 0.393580 0.201922
0.816007 0.398591 0.206933
0.928397 0.403602 0.211944
0.046134 0.487750 0.188713
0.158524 0.492761 0.193724
0.270914 0.497772 0.198735
0.383304 0.502783 0.203746
0.495695 0.507795 0.208758
0.608085 0.512806 0.213769
0.720475 0.517817 0.218780
0.832865 0.522828 0.223791
0.945255 0.527839 0.228802
0.062992 0.611987 0.205571
0.175382 0.616998 0.210582
0.287772 0.622009 0.215593
0.400162 0.627020 0.220604
0.512553 0.632032 0.225616
0.624943 0.637043 0.230627
0.737333 0.642054 0.235638
0.849723 0.647065 0.240649
0.962113 0.652076 0.245660
0.079850 0.736224 0.222429
0.192240 0.741235 0.227440
0.304630 0.746246 0.232451
0.417020 0.751257 0.237462
0.529410 0.756268 0.242473
0.641801 0.761280 0.247485
0.754191 0.766291 0.252496
0.866581 0.771302 0.257596
0.978971 0.776313 0.263164
0.096708 0.860461 0.239287
0.209098 0.865472 0.244298
0.321488 0.870483 0.249309
0.433878 0.875494 0.254320
0.546268 0.880505 0.259623
0.658659 0.885517 0.265191
0.771049 0.890528 0.270759
0.883439 0.895539 0.276327
0.995829 0.900550 0.281895
0.113566 0.984698 0.256145
0.225956 0.989709 0.261651
0.338346 0.994720 0.267219
0.450736 0.999731 0.272787
0.563126 1.000000 0.278355
0.675517 1.000000 0.283922
0.787907 1.000000 0.289490
0.900297 1.000000 0.295058
1.000000 1.000000 0.300626
0.000000 0.000000 0.240077
0.092794 0.000000 0.243975
0.205184 0.002526 0.247873
0.317574 0.007537 0.251770
0.429964 0.012548 0.255668
0.542355 0.017560 0.259565
0.654745 0.022571 0.263463
0.767135 0.027582 0.267361
0.879525 0.032593 0.271258
0.000000 0.116741 0.253189
0.109652 0.121752 0.257087
0.222042 0.126763 0.260984
0.334432 0.131774 0.264882
0.446822 0.136785 0.268780
0.559213 0.141797 0.272677
0.671603 0.146808 0.277287
0.783993 0.151819 0.282298
0.896383 0.156830 0.287309
0.014120 0.240978 0.266301
0.126510 0.245989 0.270199
0.238900 0.251000 0.274100
0.351290 0.256011 0.279111
0.463680 0.261022 0.284122
0.576071 0.266034 0.289134
0.688461 0.271045 0.294145
0.800851 0.276056 0.299156
0.913241 0.281067 0.304167
0.030978 0.365215 0.280936
0.143368 0.370226 0.285947
0.255758 0.375237 0.290958
0.368148 0.380248 0.295969
0.480538 0.385259 0.300980
0.592929 0.390271 0.305992
0.705319 0.395282 0.311003
0.817709 0.400293 0.316014
0.930099 0.405304 0.321025
0.047836 0.489452 0.297794
0.160226 0.494463 0.302805
0.272616 0.499474 0.307816
0.385006 0.504485 0.312827
0.497396 0.509496 0.317838
0.609787 0.514508 0.322850
0.722177 0.519519 0.327861
0.834567 0.524530 0.332872
0.946957 0.529541 0.337883
0.064694 0.613689 0.314652
0.177084 0.618700 0.319663
0.289474 0.623711 0.324674
0.401864 0.628722 0.329685
0.514254 0.633733 0.334696
0.626645 0.638745 0.339708
0.739035 0.643756 0.344719
0.851425 0.648767 0.349730
0.963815 0.653778 0.354741
0.081552 0.737926 0.331510
0.193942 0.742937 0.336521
0.306332 0.747948 0.341532
0.418722 0.752959 0.346543
0.531112 0.757970 0.351554
0.643503 0.762982 0.356566
0.755893 0.767993 0.361577
0.868283 0.773004 0.366866
0.980673 0.778015 0.372434
0.098410 0.862163 0.348368
0.210800 0.867174 0.353379
0.323190 0.872185 0.358390
0.435580 0.877196 0.363401
0.547970 0.882207 0.368893
0.660360 0.887218 0.374461
0.772751 0.892230 0.380029
0.885141 0.897241 0.385597
0.997531 0.902252 0.391165
0.115267 0.986399 0.365352
0.227658 0.991411 0.370920
0.340048 0.996422 0.376488
0.452438 1.000000 0.382056
0.564828 1.000000 0.387624
0.677218 1.000000 0.393192
0.789609 1.000000 0.398760
0.901999 1.000000 0.404328
1.000000 1.000000 0.409896
0.000000 0.000000 0.348780
0.094496 0.000000 0.352678
0.206886 0.004228 0.356575
0.319276 0.009239 0.360473
0.431666 0.014250 0.364370
0.544056 0.019261 0.368268
0.656447 0.024273 0.372166
0.768837 0.029284 0.376063
0.881227 0.034295 0.379961
0.000000 0.118442 0.361892
0.111354 0.123454 0.365789
0.223744 0.128465 0.369687
0.336134 0.133476 0.373585
0.448524 0.138487 0.377482
0.560914 0.143498 0.381380
0.673305 0.148510 0.386368
0.785695 0.153521 0.391379
0.898085 0.158532 0.396390
0.015821 0.242679 0.375004
0.128212 0.247691 0.378901
0.240602 0.252702 0.383181
0.352992 0.257713 0.388192
0.465382 0.262724 0.393203
0.577772 0.267735 0.398214
0.690163 0.272747 0.403226
0.802553 0.277758 0.408237
0.914943 0.282769 0.413248
0.032679 0.366916 0.390016
0.145070 0.371928 0.395028
0.257460 0.376939 0.400039
0.369850 0.381950 0.405050
0.482240 0.386961 0.410061
0.594630 0.391972 0.415072
0.707021 0.396984 0.420084
0.819411 0.401995 0.425095
0.931801 0.407006 0.430106
0.049537 0.491153 0.406874
0.161928 0.496165 0.411886
0.274318 0.501176 0.416897
0.386708 0.506187 0.421908
0.499098 0.511198 0.426919
0.611488 0.516209 0.431930
0.723879 0.521221 0.436942
0.836269 0.526232 0.441953
0.948659 0.531243 0.446964
0.066395 0.615390 0.423732
0.178786 0.620402 0.428744
0.291176 0.625413 0.433755
0.403566 0.630424 0.438766
0.515956 0.635435 0.443777
0.628346 0.640446 0.448788
0.740737 0.645458 0.453800
0.853127 0.650469 0.458811
0.965517 0.655480 0.463822
0.083253 0.739627 0.440590
0.195644 0.744639 0.445602
0.308034 0.749650 0.450613
0.420424 0.754661 0.455624
0.532814 0.759672 0.460635
0.645204 0.764683 0.465646
0.757595 0.769695 0.470658
0.869985 0.774706 0.476136
0.982375 0.779717 0.481704
0.100111 0.863864 0.457448
0.212502 0.868876 0.462460
0.324892 0.873887 0.467471
0.437282 0.878898 0.472595
0.549672 0.883909 0.478163
0.662062 0.888920 0.483731
0.774453 0.893932 0.489299
0.886843 0.898943 0.494867
0.999233 0.903954 0.500435
0.116969 0.988101 0.474622
0.229360 0.993113 0.480190
0.341750 0.998124 0.485758
0.454140 1.000000 0.491326
0.566530 1.000000 0.496894
0.678920 1.000000 0.502462
0.791310 1.000000 0.508030
0.903701 1.000000 0.513598
1.000000 1.000000 0.519166
0.000000 0.000000 0.457483
0.096197 0.000918 0.461380
0.208588 0.005930 0.465278
0.320978 0.010941 0.469176
0.433368 0.015952 0.473073
0.545758 0.020963 0.476971
0.658148 0.025974 0.480868
0.770539 0.030986 0.484766
0.882929 0.035997 0.488664
0.000665 0.120144 0.470595
0.113055 0.125155 0.474492
0.225446 0.130167 0.478390
0.337836 0.135178 0.482287
0.450226 0.140189 0.486185
0.562616 0.145200 0.490437
0.675006 0.150211 0.495448
0.787397 0.155223 0.500460
0.899787 0.160234 0.505471
0.017523 0.244381 0.483706
0.129913 0.249392 0.487604
0.242304 0.254404 0.492262
0.354694 0.259415 0.497273
0.467084 0.264426 0.502284
0.579474 0.269437 0.507295
0.691864 0.274448 0.512306
0.804255 0.279460 0.517318
0.916645 0.284471 0.522329
0.034381 0.368618 0.499097
0.146771 0.373629 0.504108
0.259162 0.378641 0.509120
0.371552 0.383652 0.514131
0.483942 0.388663 0.519142
0.596332 0.393674 0.524153
0.708722 0.398685 0.529164
0.821113 0.403697 0.534176
0.933503 0.408708 0.539187
0.051239 0.492855 0.515955
0.163629 0.497866 0.520966
0.276020 0.502878 0.525978
0.388410 0.507889 0.530989
0.500800 0.512900 0.536000
0.613190 0.517911 0.541011
0.725580 0.522922 0.546022
0.837971 0.527934 0.551034
0.950361 0.532945 0.556045
0.068097 0.617092 0.532813
0.180487 0.622103 0.537824
0.292878 0.627115 0.542836
0.405268 0.632126 0.547847
0.517658 0.637137 0.552858
0.630048 0.642148 0.557869
0.742438 0.647159 0.562880
0.854829 0.652171 0.567892
0.967219 0.657182 0.572903
0.084955 0.741329 0.549671
0.197345 0.746340 0.554682
0.309736 0.751352 0.559694
0.422126 0.756363 0.564705
0.534516 0.761374 0.569716
0.646906 0.766385 0.574727
0.759296 0.771396 0.579838
0.871687 0.776408 0.585406
0.984077 0.781419 0.590974
0.101813 0.865566 0.566529
0.214203 0.870577 0.571540
0.326594 0.875589 0.576552
0.438984 0.880600 0.581865
0.551374 0.885611 0.587433
0.663764 0.890622 0.593001
0.776154 0.895633 0.598569
0.888545 0.900645 0.604137
1.000000 0.905656 0.609705
0.118671 0.989803 0.583892
0.231061 0.994814 0.589460
0.343452 0.999826 0.595028
0.455842 1.000000 0.600596
0.568232 1.000000 0.606164
0.680622 1.000000 0.611732
0.793012 1.000000 0.617300
0.905403 1.000000 0.622868
1.000000 1.000000 0.628436
0.000000 0.000000 0.566185
0.097899 0.002620 0.570083
0.210290 0.007632 0.573981
0.322680 0.012643 0.577878
0.435070 0.017654 0.581776
0.547460 0.022665 0.585673
0.659850 0.027676 0.589571
0.772240 0.032687 0.593469
0.884631 0.037699 0.597694
0.002367 0.121846 0.579297
0.114757 0.126857 0.583195
0.227147 0.131868 0.587092
0.339538 0.136880 0.590990
0.451928 0.141891 0.594888
0.564318 0.146902 0.599518
0.676708 0.151913 0.604529
0.789098 0.156924 0.609540
0.901489 0.161936 0.614552
0.019225 0.246083 0.592409
0.131615 0.251094 0.596331
0.244005 0.256105 0.601342
0.356396 0.261117 0.606354
0.468786 0.266128 0.611365
0.581176 0.271139 0.616376
0.693566 0.276150 0.621387
0.805956 0.281161 0.626398
0.918347 0.286173 0.631410
0.036083 0.370320 0.608178
0.148473 0.375331 0.613189
0.260863 0.380342 0.618200
0.373254 0.385354 0.623212
0.485644 0.390365 0.628223
0.598034 0.395376 0.633234
0.710424 0.400387 0.638245
0.822814 0.405398 0.643256
0.935205 0.410410 0.648268
0.052941 0.494557 0.625036
0.165331 0.499568 0.630047
0.277721 0.504579 0.635058
0.390112 0.509591 0.640070
0.502502 0.514602 0.645081
0.614892 0.519613 0.650092
0.727282 0.524624 0.655103
0.839672 0.529635 0.660114
0.952063 0.534647 0.665126
0.069799 0.618794 0.641894
0.182189 0.623805 0.646905
0.294579 0.628816 0.651916
0.406970 0.633828 0.656928
0.519360 0.638839 0.661939
0.631750 0.643850 0.666950
0.744140 0.648861 0.671961
0.856530 0.653872 0.676972
0.968921 0.658884 0.681984
0.086657 0.743031 0.658752
0.199047 0.748042 0.663763
0.311437 0.753053 0.668774
0.423828 0.758065 0.673786
0.536218 0.763076 0.678797
0.648608 0.768087 0.683808
0.760998 0.773098 0.689108
0.873388 0.778109 0.694676
0.985779 0.783121 0.700244
0.103515 0.867268 0.675610
0.215905 0.872279 0.680621
0.328295 0.877290 0.685632
0.440686 0.882302 0.691135
0.553076 0.887313 0.696703
0.665466 0.892324 0.702271
0.777856 0.897335 0.707839
0.890246 0.902346 0.713407
1.000000 0.907358 0.718975
0.120373 0.991505 0.693162
0.232763 0.996516 0.698730
0.345153 1.000000 0.704298
0.457544 1.000000 0.709866
0.569934 1.000000 0.715434
0.682324 1.000000 0.721002
0.794714 1.000000 0.726570
0.907104 1.000000 0.732138
1.000000 1.000000 0.737706
0.000000 0.000000 0.674888
0.099601 0.004322 0.678786
0.211991 0.009333 0.682683
0.324382 0.014345 0.686581
0.436772 0.019356 0.690478
0.549162 0.024367 0.694376
0.661552 0.029378 0.698274
0.773942 0.034389 0.702171
0.886333 0.039401 0.706775
0.004069 0.123548 0.688000
0.116459 0.128559 0.691897
0.228849 0.133570 0.695795
0.341240 0.138582 0.699693
0.453630 0.143593 0.703590
0.566020 0.148604 0.708599
0.678410 0.153615 0.713610
0.790800 0.158626 0.718621
0.903190 0.163637 0.723632
0.020927 0.247785 0.701112
0.133317 0.252796 0.705412
0.245707 0.257807 0.710423
0.358097 0.262818 0.715434
0.470488 0.267830 0.720446
0.582878 0.272841 0.725457
0.695268 0.277852 0.730468
0.807658 0.282863 0.735479
0.920048 0.287874 0.740490
0.037785 0.372022 0.717259
0.150175 0.377033 0.722270
0.262565 0.382044 0.727281
0.374955 0.387055 0.732292
0.487346 0.392067 0.737304
0.599736 0.397078 0.742315
0.712126 0.402089 0.747326
0.824516 0.407100 0.752337
0.936906 0.412111 0.757348
0.054643 0.496259 0.734117
0.167033 0.501270 0.739128
0.279423 0.506281 0.744139
0.391813 0.511292 0.749150
0.504204 0.516304 0.754162
0.616594 0.521315 0.759173
0.728984 0.526326 0.764184
0.841374 0.531337 0.769195
0.953764 0.536348 0.774206
0.071501 0.620496 0.750975
0.183891 0.625507 0.755986
0.296281 0.630518 0.760997
0.408671 0.635529 0.766008
0.521062 0.640541 0.771020
0.633452 0.645552 0.776031
0.745842 0.650563 0.781042
0.858232 0.655574 0.786053
0.970622 0.660585 0.791064
0.088359 0.744733 0.767833
0.200749 0.749744 0.772844
0.313139 0.754755 0.777855
0.425529 0.759766 0.782866
0.537920 0.764778 0.787878
0.650310 0.769789 0.792889
0.762700 0.774800 0.798378
0.875090 0.779811 0.803946
0.987480 0.784822 0.809514
0.105217 0.868970 0.784691
0.217607 0.873981 0.789702
0.329997 0.878992 0.794837
0.442387 0.884003 0.800405
0.554778 0.889015 0.805973
0.667168 0.894026 0.811541
0.779558 0.899037 0.817109
0.891948 0.904048 0.822677
1.000000 0.909059 0.828245
0.122075 0.993207 0.802432
0.234465 0.998218 0.808000
0.346855 1.000000 0.813568
0.459245 1.000000 0.819136
0.571636 1.000000 0.824704
0.684026 1.000000 0.830272
0.796416 1.000000 0.835840
0.908806 1.000000 0.841408
1.000000 1.000000 0.846976
0.000000 0.001013 0.783591
0.101303 0.006024 0.787488
0.213693 0.011035 0.791386
0.326083 0.016046 0.795283
0.438474 0.021058 0.799181
0.550864 0.026069 0.803079
0.663254 0.031080 0.806976
0.775644 0.036091 0.810874
0.888034 0.041102 0.815855
0.005771 0.125250 0.796702
0.118161 0.130261 0.800600
0.230551 0.135272 0.804498
0.342941 0.140283 0.808395
0.455332 0.145295 0.812669
0.567722 0.150306 0.817680
0.680112 0.155317 0.822691
0.792502 0.160328 0.827702
0.904892 0.165339 0.832713
0.022629 0.249487 0.809814
0.135019 0.254498 0.814493
0.247409 0.259509 0.819504
0.359799 0.264520 0.824515
0.472190 0.269532 0.829527
0.584580 0.274543 0.834538
0.696970 0.279554 0.839549
0.809360 0.284565 0.844560
0.921750 0.289576 0.849571
0.039487 0.373724 0.826340
0.151877 0.378735 0.831351
0.264267 0.383746 0.836362
0.376657 0.388757 0.841373
0.489047 0.393768 0.846384
0.601438 0.398780 0.851396
0.713828 0.403791 0.856407
0.826218 0.408802 0.861418
0.938608 0.413813 0.866429
0.056345 0.497961 0.843198
0.168735 0.502972 0.848209
0.281125 0.507983 0.853220
0.393515 0.512994 0.858231
0.505905 0.518005 0.863242
0.618296 0.523017 0.868254
0.730686 0.528028 0.873265
0.843076 0.533039 0.878276
0.955466 0.538050 0.883287
0.073203 0.622198 0.860056
0.185593 0.627209 0.865067
0.297983 0.632220 0.870078
0.410373 0.637231 0.875089
0.522763 0.642242 0.880100
0.635154 0.647254 0.885112
0.747544 0.652265 0.890123
0.859934 0.657276 0.895134
0.972324 0.662287 0.900145
0.090061 0.746435 0.876914
0.202451 0.751446 0.881925
0.314841 0.756457 0.886936
0.427231 0.761468 0.891947
0.539621 0.766479 0.896958
0.652012 0.771491 0.902080
0.764402 0.776502 0.907648
0.876792 0.781513 0.913216
0.989182 0.786524 0.918784
0.106919 0.870672 0.893772
0.219309 0.875683 0.898783
0.331699 0.880694 0.904107
0.444089 0.885705 0.909675
0.556479 0.890716 0.915243
0.668870 0.895728 0.920811
0.781260 0.900739 0.926379
0.893650 0.905750 0.931947
1.000000 0.910761 0.937515
0.123777 0.994909 0.911702
0.236167 0.999920 0.917270
0.348557 1.000000 0.922838
0.460947 1.000000 0.928406
0.573337 1.000000 0.933974
0.685728 1.000000 0.939542
0.798118 1.000000 0.945110
0.910508 1.000000 0.950678
1.000000 1.000000 0.956246
0.000000 0.002715 0.892293
0.103005 0.007726 0.896191
0.215395 0.012737 0.900089
0.327785 0.017748 0.903986
0.440175 0.022759 0.907884
0.552566 0.027771 0.911781
0.664956 0.032782 0.915679
0.777346 0.037793 0.919925
0.889736 0.042804 0.924936
0.007473 0.126952 0.905405
0.119863 0.131963 0.909303
0.232253 0.136974 0.913200
0.344643 0.141985 0.917098
0.457033 0.146996 0.921749
0.569424 0.152008 0.926761
0.681814 0.157019 0.931772
0.794204 0.162030 0.936783
0.906594 0.167041 0.941794
0.024331 0.251189 0.918563
0.136721 0.256200 0.923574
0.249111 0.261211 0.928585
0.361501 0.266222 0.933596
0.473891 0.271233 0.938607
0.586282 0.276245 0.943619
0.698672 0.281256 0.948630
0.811062 0.286267 0.953641
0.923452 0.291278 0.958652
0.041189 0.375426 0.935421
0.153579 0.380437 0.940432
0.265969 0.385448 0.945443
0.378359 0.390459 0.950454
0.490749 0.395470 0.955465
0.603140 0.400482 0.960477
0.715530 0.405493 0.965488
0.827920 0.410504 0.970499
0.940310 0.415515 0.975510
0.058047 0.499663 0.952279
0.170437 0.504674 0.957290
0.282827 0.509685 0.962301
0.395217 0.514696 0.967312
0.507607 0.519707 0.972323
0.619997 0.524718 0.977334
0.732388 0.529730 0.982346
0.844778 0.534741 0.987357
0.957168 0.539752 0.992368
0.074905 0.623900 0.969137
0.187295 0.628911 0.974148
0.299685 0.633922 0.979159
0.412075 0.638933 0.984170
0.524465 0.643944 0.989181
0.636855 0.648955 0.994192
0.749246 0.653967 0.999204
0.861636 0.658978 1.000000
0.974026 0.663989 1.000000
0.091762 0.748136 0.985994
0.204153 0.753148 0.991006
0.316543 0.758159 0.996017
0.428933 0.763170 1.000000
0.541323 0.768181 1.000000
0.653713 0.773192 1.000000
0.766104 0.778204 1.000000
0.878494 0.783215 1.000000
0.990884 0.788226 1.000000
0.108620 0.872373 1.000000
0.221011 0.877385 1.000000
0.333401 0.882396 1.000000
0.445791 0.887407 1.000000
0.558181 0.892418 1.000000
0.670571 0.897429 1.000000
0.782962 0.902441 1.000000
0.895352 0.907452 1.000000
1.000000 0.912463 1.000000
0.125478 0.996610 1.000000
0.237869 1.000000 1.000000
0.350259 1.000000 1.000000
0.462649 1.000000 1.000000
0.575039 1.000000 1.000000
0.687429 1.000000 1.000000
0.799820 1.000000 1.000000
0.912210 1.000000 1.000000
1.000000 1.000000 1.000000
