fexer/Resources/LUTs/architecture_cool.cube
TITLE "Architecture"
LUT_3D_SIZE 5
DOMAIN_MIN 0.0 0.0 0.0
DOMAIN_MAX 1.0 1.0 1.0
0.000000 0.000000 0.022672
0.201780 0.000000 0.030467
0.426561 0.009145 0.038263
0.651341 0.019167 0.046058
0.876122 0.029190 0.053853
0.010716 0.237574 0.048896
0.235496 0.247596 0.056691
0.460277 0.257619 0.065961
0.685057 0.267641 0.075983
0.909838 0.277664 0.086006
0.044432 0.486048 0.079632
0.269212 0.496070 0.089654
0.493993 0.506093 0.099677
0.718773 0.516115 0.109699
0.943553 0.526137 0.119721
0.078148 0.734522 0.113348
0.302928 0.744544 0.123370
0.527709 0.754567 0.133393
0.752489 0.764589 0.143415
0.977269 0.774611 0.153894
0.111864 0.982996 0.147064
0.336644 0.993018 0.157949
0.561425 1.000000 0.169085
0.786205 1.000000 0.180221
1.000000 1.000000 0.191357
0.000000 0.000000 0.240077
0.205184 0.002526 0.247873
0.429964 0.012548 0.255668
0.654745 0.022571 0.263463
0.879525 0.032593 0.271258
0.014120 0.240978 0.266301
0.238900 0.251000 0.274100
0.463680 0.261022 0.284122
0.688461 0.271045 0.294145
0.913241 0.281067 0.304167
0.047836 0.489452 0.297794
0.272616 0.499474 0.307816
0.497396 0.509496 0.317838
0.722177 0.519519 0.327861
0.946957 0.529541 0.337883
0.081552 0.737926 0.331510
0.306332 0.747948 0.341532
0.531112 0.757970 0.351554
0.755893 0.767993 0.361577
0.980673 0.778015 0.372434
0.115267 0.986399 0.365352
0.340048 0.996422 0.376488
0.564828 1.000000 0.387624
0.789609 1.000000 0.398760
1.000000 1.000000 0.409896
0.000000 0.000000 0.457483
0.208588 0.005930 0.465278
0.433368 0.015952 0.473073
0.658148 0.025974 0.480868
0.882929 0.035997 0.488664
0.017523 0.244381 0.483706
0.242304 0.254404 0.492262
0.467084 0.264426 0.502284
0.691864 0.274448 0.512306
0.916645 0.284471 0.522329
0.051239 0.492855 0.515955
0.276020 0.502878 0.525978
0.500800 0.512900 0.536000
0.725580 0.522922 0.546022
0.950361 0.532945 0.556045
0.084955 0.741329 0.549671
0.309736 0.751352 0.559694
0.534516 0.761374 0.569716
0.759296 0.771396 0.579838
0.984077 0.781419 0.590974
0.118671 0.989803 0.583892
0.343452 0.999826 0.595028
0.568232 1.000000 0.606164
0.793012 1.000000 0.617300
1.000000 1.000000 0.628436
0.000000 0.000000 0.674888
0.211991 0.009333 0.682683
0.436772 0.019356 0.690478
0.661552 0.029378 0.698274
0.886333 0.039401 0.706775
0.020927 0.247785 0.701112
0.245707 0.257807 0.710423
0.470488 0.267830 0.720446
0.695268 0.277852 0.730468
0.920048 0.287874 0.740490
0.054643 0.496259 0.734117
0.279423 0.506281 0.744139
0.504204 0.516304 0.754162
0.728984 0.526326 0.764184
0.953764 0.536348 0.774206
0.088359 0.744733 0.767833
0.313139 0.754755 0.777855
0.537920 0.764778 0.787878
0.762700 0.774800 0.798378
0.987480 0.784822 0.809514
0.122075 0.993207 0.802432
0.346855 1.000000 0.813568
0.571636 1.000000 0.824704
0.796416 1.000000 0.835840
1.000000 1.000000 0.846976
0.000000 0.002715 0.892293
0.215395 0.012737 0.900089
0.440175 0.022759 0.907884
0.664956 0.032782 0.915679
0.889736 0.042804 0.924936
0.024331 0.251189 0.918563
0.249111 0.261211 0.928585
0.473891 0.271233 0.938607
0.698672 0.281256 0.948630
0.923452 0.291278 0.958652
0.058047 0.499663 0.952279
0.282827 0.509685 0.962301
0.507607 0.519707 0.972323
0.732388 0.529730 0.982346
0.957168 0.539752 0.992368
0.091762 0.748136 0.985994
0.316543 0.758159 0.996017
0.541323 0.768181 1.000000
0.766104 0.778204 1.000000
0.990884 0.788226 1.000000
0.125478 0.996610 1.000000
0.350259 1.000000 1.000000
0.575039 1.000000 1.000000
0.799820 1.000000 1.000000
1.000000 1.000000 1.000000
