fexer/Resources/LUTs/architecture_cool.cube
TITLE "Architecture"
LUT_3D_SIZE 33
DOMAIN_MIN 0.0 0.0 0.0
DOMAIN_MAX 1.0 1.0 1.0
0.000000 0.000000 0.022672
0.005098 0.000000 0.023647
0.033195 0.000000 0.024621
0.061293 0.000000 0.025595
0.089390 0.000000 0.026570
0.117488 0.000000 0.027544
0.145585 0.000000 0.028519
0.173683 0.000000 0.029493
0.201780 0.000000 0.030467
0.229878 0.000375 0.031442
0.257975 0.001628 0.032416
0.286073 0.002881 0.033391
0.314171 0.004134 0.034365
0.342268 0.005386 0.035339
0.370366 0.006639 0.036314
0.398463 0.007892 0.037288
0.426561 0.009145 0.038263
0.454658 0.010398 0.039237
0.482756 0.011650 0.040211
0.510853 0.012903 0.041186
0.538951 0.014156 0.042160
0.567049 0.015409 0.043135
0.595146 0.016662 0.044109
0.623244 0.017914 0.045083
0.651341 0.019167 0.046058
0.679439 0.020420 0.047032
0.707536 0.021673 0.048007
0.735634 0.022926 0.048981
0.763731 0.024178 0.049955
0.791829 0.025431 0.050930
0.819926 0.026684 0.051904
0.848024 0.027937 0.052879
0.876122 0.029190 0.053853
0.000000 0.020159 0.025950
0.009312 0.021412 0.026925
0.037410 0.022665 0.027899
0.065507 0.023918 0.028873
0.093605 0.025170 0.029848
0.121702 0.026423 0.030822
0.149800 0.027676 0.031797
0.177897 0.028929 0.032771
0.205995 0.030182 0.033745
0.234092 0.031434 0.034720
0.262190 0.032687 0.035694
0.290288 0.033940 0.036669
0.318385 0.035193 0.037643
0.346483 0.036446 0.038617
0.374580 0.037698 0.039592
0.402678 0.038951 0.040566
0.430775 0.040204 0.041541
0.458873 0.041457 0.042515
0.486970 0.042710 0.043489
0.515068 0.043962 0.044464
0.543165 0.045215 0.045438
0.571263 0.046468 0.046413
0.599361 0.047721 0.047387
0.627458 0.048974 0.048361
0.655556 0.050226 0.049336
0.683653 0.051479 0.050310
0.711751 0.052732 0.051284
0.739848 0.053985 0.052259
0.767946 0.055238 0.053233
0.796043 0.056490 0.054208
0.824141 0.057743 0.055182
0.852239 0.058996 0.056156
0.880336 0.060249 0.057131
0.000000 0.051218 0.029228
0.013527 0.052471 0.030202
0.041624 0.053724 0.031177
0.069722 0.054977 0.032151
0.097819 0.056230 0.033126
0.125917 0.057482 0.034100
0.154014 0.058735 0.035074
0.182112 0.059988 0.036049
0.210209 0.061241 0.037023
0.238307 0.062494 0.037998
0.266404 0.063746 0.038972
0.294502 0.064999 0.039946
0.322600 0.066252 0.040921
0.350697 0.067505 0.041895
0.378795 0.068758 0.042870
0.406892 0.070010 0.043844
0.434990 0.071263 0.044818
0.463087 0.072516 0.045793
0.491185 0.073769 0.046767
0.519282 0.075022 0.047742
0.547380 0.076274 0.048716
0.575478 0.077527 0.049690
0.603575 0.078780 0.050665
0.631673 0.080033 0.051639
0.659770 0.081286 0.052614
0.687868 0.082538 0.053588
0.715965 0.083791 0.054562
0.744063 0.085044 0.055537
0.772160 0.086297 0.056511
0.800258 0.087550 0.057486
0.828355 0.088802 0.058460
0.856453 0.090055 0.059466
0.884551 0.091308 0.060719
0.000000 0.082278 0.032506
0.017741 0.083531 0.033480
0.045839 0.084783 0.034455
0.073936 0.086036 0.035429
0.102034 0.087289 0.036404
0.130131 0.088542 0.037378
0.158229 0.089795 0.038352
0.186326 0.091047 0.039327
0.214424 0.092300 0.040301
0.242521 0.093553 0.041276
0.270619 0.094806 0.042250
0.298717 0.096059 0.043224
0.326814 0.097311 0.044199
0.354912 0.098564 0.045173
0.383009 0.099817 0.046148
0.411107 0.101070 0.047122
0.439204 0.102323 0.048096
0.467302 0.103575 0.049071
0.495399 0.104828 0.050045
0.523497 0.106081 0.051020
0.551594 0.107334 0.051994
0.579692 0.108587 0.052968
0.607790 0.109839 0.053943
0.635887 0.111092 0.054917
0.663985 0.112345 0.055892
0.692082 0.113598 0.056866
0.720180 0.114850 0.057840
0.748277 0.116103 0.058815
0.776375 0.117356 0.059922
0.804472 0.118609 0.061175
0.832570 0.119862 0.062427
0.860667 0.121114 0.063680
0.888765 0.122367 0.064933
0.000000 0.113337 0.035784
0.021956 0.114590 0.036758
0.050053 0.115843 0.037733
0.078151 0.117095 0.038707
0.106248 0.118348 0.039682
0.134346 0.119601 0.040656
0.162443 0.120854 0.041630
0.190541 0.122107 0.042605
0.218638 0.123359 0.043579
0.246736 0.124612 0.044554
0.274833 0.125865 0.045528
0.302931 0.127118 0.046502
0.331029 0.128371 0.047477
0.359126 0.129623 0.048451
0.387224 0.130876 0.049426
0.415321 0.132129 0.050400
0.443419 0.133382 0.051374
0.471516 0.134635 0.052349
0.499614 0.135887 0.053323
0.527711 0.137140 0.054298
0.555809 0.138393 0.055272
0.583907 0.139646 0.056246
0.612004 0.140899 0.057221
0.640102 0.142151 0.058195
0.668199 0.143404 0.059170
0.696297 0.144657 0.060378
0.724394 0.145910 0.061631
0.752492 0.147163 0.062884
0.780589 0.148415 0.064136
0.808687 0.149668 0.065389
0.836784 0.150921 0.066642
0.864882 0.152174 0.067895
0.892980 0.153427 0.069148
0.000000 0.144396 0.039062
0.026170 0.145649 0.040036
0.054268 0.146902 0.041011
0.082365 0.148155 0.041985
0.110463 0.149407 0.042959
0.138560 0.150660 0.043934
0.166658 0.151913 0.044908
0.194755 0.153166 0.045883
0.222853 0.154419 0.046857
0.250950 0.155671 0.047831
0.279048 0.156924 0.048806
0.307146 0.158177 0.049780
0.335243 0.159430 0.050755
0.363341 0.160683 0.051729
0.391438 0.161935 0.052703
0.419536 0.163188 0.053678
0.447633 0.164441 0.054652
0.475731 0.165694 0.055627
0.503828 0.166947 0.056601
0.531926 0.168199 0.057575
0.560023 0.169452 0.058550
0.588121 0.170705 0.059581
0.616219 0.171958 0.060834
0.644316 0.173211 0.062087
0.672414 0.174463 0.063340
0.700511 0.175716 0.064592
0.728609 0.176969 0.065845
0.756706 0.178222 0.067098
0.784804 0.179475 0.068351
0.812901 0.180727 0.069604
0.840999 0.181980 0.070856
0.869096 0.183233 0.072109
0.897194 0.184486 0.073362
0.002287 0.175455 0.042340
0.030385 0.176708 0.043314
0.058482 0.177961 0.044289
0.086580 0.179214 0.045263
0.114677 0.180467 0.046237
0.142775 0.181719 0.047212
0.170872 0.182972 0.048186
0.198970 0.184225 0.049161
0.227067 0.185478 0.050135
0.255165 0.186731 0.051109
0.283262 0.187983 0.052084
0.311360 0.189236 0.053058
0.339458 0.190489 0.054033
0.367555 0.191742 0.055007
0.395653 0.192995 0.055981
0.423750 0.194247 0.056956
0.451848 0.195500 0.057930
0.479945 0.196753 0.058905
0.508043 0.198006 0.060037
0.536140 0.199259 0.061290
0.564238 0.200511 0.062543
0.592335 0.201764 0.063796
0.620433 0.203017 0.065049
0.648531 0.204270 0.066301
0.676628 0.205523 0.067554
0.704726 0.206775 0.068807
0.732823 0.208028 0.070060
0.760921 0.209281 0.071313
0.789018 0.210534 0.072565
0.817116 0.211787 0.073818
0.845213 0.213039 0.075071
0.873311 0.214292 0.076324
0.901409 0.215545 0.077577
0.006501 0.206515 0.045618
0.034599 0.207768 0.046592
0.062697 0.209020 0.047567
0.090794 0.210273 0.048541
0.118892 0.211526 0.049515
0.146989 0.212779 0.050490
0.175087 0.214032 0.051464
0.203184 0.215284 0.052439
0.231282 0.216537 0.053413
0.259379 0.217790 0.054387
0.287477 0.219043 0.055362
0.315574 0.220295 0.056336
0.343672 0.221548 0.057311
0.371770 0.222801 0.058285
0.399867 0.224054 0.059259
0.427965 0.225307 0.060493
0.456062 0.226559 0.061746
0.484160 0.227812 0.062999
0.512257 0.229065 0.064252
0.540355 0.230318 0.065505
0.568452 0.231571 0.066757
0.596550 0.232823 0.068010
0.624648 0.234076 0.069263
0.652745 0.235329 0.070516
0.680843 0.236582 0.071769
0.708940 0.237835 0.073021
0.737038 0.239087 0.074274
0.765135 0.240340 0.075527
0.793233 0.241593 0.076780
0.821330 0.242846 0.078033
0.849428 0.244099 0.079285
0.877525 0.245351 0.080538
0.905623 0.246604 0.081791
0.010716 0.237574 0.048896
0.038814 0.238827 0.049870
0.066911 0.240080 0.050845
0.095009 0.241332 0.051819
0.123106 0.242585 0.052793
0.151204 0.243838 0.053768
0.179301 0.245091 0.054742
0.207399 0.246344 0.055717
0.235496 0.247596 0.056691
0.263594 0.248849 0.057665
0.291691 0.250102 0.058640
0.319789 0.251355 0.059697
0.347887 0.252608 0.060950
0.375984 0.253860 0.062202
0.404082 0.255113 0.063455
0.432179 0.256366 0.064708
0.460277 0.257619 0.065961
0.488374 0.258872 0.067214
0.516472 0.260124 0.068466
0.544569 0.261377 0.069719
0.572667 0.262630 0.070972
0.600764 0.263883 0.072225
0.628862 0.265136 0.073478
0.656960 0.266388 0.074730
0.685057 0.267641 0.075983
0.713155 0.268894 0.077236
0.741252 0.270147 0.078489
0.769350 0.271400 0.079742
0.797447 0.272652 0.080994
0.825545 0.273905 0.082247
0.853642 0.275158 0.083500
0.881740 0.276411 0.084753
0.909838 0.277664 0.086006
0.014930 0.268633 0.052174
0.043028 0.269886 0.053148
0.071126 0.271139 0.054122
0.099223 0.272392 0.055097
0.127321 0.273644 0.056071
0.155418 0.274897 0.057046
0.183516 0.276150 0.058020
0.211613 0.277403 0.058994
0.239711 0.278656 0.060153
0.267808 0.279908 0.061406
0.295906 0.281161 0.062658
0.324003 0.282414 0.063911
0.352101 0.283667 0.065164
0.380199 0.284920 0.066417
0.408296 0.286172 0.067670
0.436394 0.287425 0.068922
0.464491 0.288678 0.070175
0.492589 0.289931 0.071428
0.520686 0.291184 0.072681
0.548784 0.292436 0.073934
0.576881 0.293689 0.075186
0.604979 0.294942 0.076439
0.633077 0.296195 0.077692
0.661174 0.297448 0.078945
0.689272 0.298700 0.080198
0.717369 0.299953 0.081450
0.745467 0.301206 0.082703
0.773564 0.302459 0.083956
0.801662 0.303712 0.085209
0.829759 0.304964 0.086462
0.857857 0.306217 0.087714
0.885954 0.307470 0.088967
0.914052 0.308723 0.090220
0.019145 0.299692 0.055452
0.047242 0.300945 0.056426
0.075340 0.302198 0.057400
0.103438 0.303451 0.058375
0.131535 0.304704 0.059356
0.159633 0.305956 0.060609
0.187730 0.307209 0.061862
0.215828 0.308462 0.063115
0.243925 0.309715 0.064367
0.272023 0.310968 0.065620
0.300120 0.312220 0.066873
0.328218 0.313473 0.068126
0.356316 0.314726 0.069379
0.384413 0.315979 0.070631
0.412511 0.317232 0.071884
0.440608 0.318484 0.073137
0.468706 0.319737 0.074390
0.496803 0.320990 0.075643
0.524901 0.322243 0.076895
0.552998 0.323496 0.078148
0.581096 0.324748 0.079401
0.609193 0.326001 0.080654
0.637291 0.327254 0.081907
0.665389 0.328507 0.083159
0.693486 0.329760 0.084412
0.721584 0.331012 0.085665
0.749681 0.332265 0.086918
0.777779 0.333518 0.088171
0.805876 0.334771 0.089423
0.833974 0.336024 0.090676
0.862071 0.337276 0.091929
0.890169 0.338529 0.093182
0.918267 0.339782 0.094435
0.023359 0.330752 0.058730
0.051457 0.332004 0.059812
0.079555 0.333257 0.061065
0.107652 0.334510 0.062318
0.135750 0.335763 0.063571
0.163847 0.337016 0.064823
0.191945 0.338268 0.066076
0.220042 0.339521 0.067329
0.248140 0.340774 0.068582
0.276237 0.342027 0.069835
0.304335 0.343280 0.071087
0.332432 0.344532 0.072340
0.360530 0.345785 0.073593
0.388628 0.347038 0.074846
0.416725 0.348291 0.076099
0.444823 0.349544 0.077351
0.472920 0.350796 0.078604
0.501018 0.352049 0.079857
0.529115 0.353302 0.081110
0.557213 0.354555 0.082363
0.585310 0.355808 0.083615
0.613408 0.357060 0.084868
0.641506 0.358313 0.086121
0.669603 0.359566 0.087374
0.697701 0.360819 0.088627
0.725798 0.362072 0.089879
0.753896 0.363324 0.091132
0.781993 0.364577 0.092385
0.810091 0.365830 0.093638
0.838188 0.367083 0.094891
0.866286 0.368336 0.096143
0.894383 0.369588 0.097396
0.922481 0.370841 0.098649
0.027574 0.361811 0.062774
0.055671 0.363064 0.064027
0.083769 0.364317 0.065280
0.111867 0.365569 0.066532
0.139964 0.366822 0.067785
0.168062 0.368075 0.069038
0.196159 0.369328 0.070291
0.224257 0.370581 0.071544
0.252354 0.371833 0.072796
0.280452 0.373086 0.074049
0.308549 0.374339 0.075302
0.336647 0.375592 0.076555
0.364745 0.376845 0.077808
0.392842 0.378097 0.079060
0.420940 0.379350 0.080313
0.449037 0.380603 0.081566
0.477135 0.381856 0.082819
0.505232 0.383109 0.084072
0.533330 0.384361 0.085324
0.561427 0.385614 0.086577
0.589525 0.386867 0.087830
0.617622 0.388120 0.089083
0.645720 0.389373 0.090336
0.673818 0.390625 0.091588
0.701915 0.391878 0.092841
0.730013 0.393131 0.094094
0.758110 0.394384 0.095347
0.786208 0.395637 0.096600
0.814305 0.396889 0.097852
0.842403 0.398142 0.099105
0.870500 0.399395 0.100358
0.898598 0.400648 0.101611
0.926695 0.401900 0.102863
0.031788 0.392870 0.066988
0.059886 0.394123 0.068241
0.087984 0.395376 0.069494
0.116081 0.396629 0.070747
0.144179 0.397881 0.072000
0.172276 0.399134 0.073252
0.200374 0.400387 0.074505
0.228471 0.401640 0.075758
0.256569 0.402893 0.077011
0.284666 0.404145 0.078264
0.312764 0.405398 0.079516
0.340861 0.406651 0.080769
0.368959 0.407904 0.082022
0.397057 0.409157 0.083275
0.425154 0.410409 0.084528
0.453252 0.411662 0.085780
0.481349 0.412915 0.087033
0.509447 0.414168 0.088286
0.537544 0.415421 0.089539
0.565642 0.416673 0.090792
0.593739 0.417926 0.092044
0.621837 0.419179 0.093297
0.649935 0.420432 0.094550
0.678032 0.421685 0.095803
0.706130 0.422937 0.097056
0.734227 0.424190 0.098308
0.762325 0.425443 0.099561
0.790422 0.426696 0.100814
0.818520 0.427949 0.102067
0.846617 0.429201 0.103320
0.874715 0.430454 0.104572
0.902812 0.431707 0.105825
0.930910 0.432960 0.107078
0.036003 0.423929 0.071203
0.064100 0.425182 0.072456
0.092198 0.426435 0.073709
0.120296 0.427688 0.074961
0.148393 0.428941 0.076214
0.176491 0.430193 0.077467
0.204588 0.431446 0.078720
0.232686 0.432699 0.079973
0.260783 0.433952 0.081225
0.288881 0.435205 0.082478
0.316978 0.436457 0.083731
0.345076 0.437710 0.084984
0.373174 0.438963 0.086237
0.401271 0.440216 0.087489
0.429369 0.441469 0.088742
0.457466 0.442721 0.089995
0.485564 0.443974 0.091248
0.513661 0.445227 0.092501
0.541759 0.446480 0.093753
0.569856 0.447733 0.095006
0.597954 0.448985 0.096259
0.626051 0.450238 0.097512
0.654149 0.451491 0.098764
0.682247 0.452744 0.100017
0.710344 0.453997 0.101270
0.738442 0.455249 0.102523
0.766539 0.456502 0.103776
0.794637 0.457755 0.105028
0.822734 0.459008 0.106281
0.850832 0.460261 0.107534
0.878929 0.461513 0.108787
0.907027 0.462766 0.110040
0.935124 0.464019 0.111292
0.040217 0.454989 0.075417
0.068315 0.456241 0.076670
0.096413 0.457494 0.077923
0.124510 0.458747 0.079176
0.152608 0.460000 0.080429
0.180705 0.461253 0.081681
0.208803 0.462505 0.082934
0.236900 0.463758 0.084187
0.264998 0.465011 0.085440
0.293095 0.466264 0.086693
0.321193 0.467517 0.087945
0.349290 0.468769 0.089198
0.377388 0.470022 0.090451
0.405486 0.471275 0.091704
0.433583 0.472528 0.092957
0.461681 0.473781 0.094209
0.489778 0.475033 0.095462
0.517876 0.476286 0.096715
0.545973 0.477539 0.097968
0.574071 0.478792 0.099221
0.602168 0.480045 0.100473
0.630266 0.481297 0.101726
0.658363 0.482550 0.102979
0.686461 0.483803 0.104232
0.714559 0.485056 0.105485
0.742656 0.486309 0.106737
0.770754 0.487561 0.107990
0.798851 0.488814 0.109243
0.826949 0.490067 0.110496
0.855046 0.491320 0.111749
0.883144 0.492573 0.113001
0.911241 0.493825 0.114254
0.939339 0.495078 0.115507
0.044432 0.486048 0.079632
0.072529 0.487301 0.080885
0.100627 0.488554 0.082138
0.128725 0.489806 0.083390
0.156822 0.491059 0.084643
0.184920 0.492312 0.085896
0.213017 0.493565 0.087149
0.241115 0.494818 0.088402
0.269212 0.496070 0.089654
0.297310 0.497323 0.090907
0.325407 0.498576 0.092160
0.353505 0.499829 0.093413
0.381603 0.501082 0.094666
0.409700 0.502334 0.095918
0.437798 0.503587 0.097171
0.465895 0.504840 0.098424
0.493993 0.506093 0.099677
0.522090 0.507345 0.100929
0.550188 0.508598 0.102182
0.578285 0.509851 0.103435
0.606383 0.511104 0.104688
0.634480 0.512357 0.105941
0.662578 0.513609 0.107193
0.690676 0.514862 0.108446
0.718773 0.516115 0.109699
0.746871 0.517368 0.110952
0.774968 0.518621 0.112205
0.803066 0.519873 0.113457
0.831163 0.521126 0.114710
0.859261 0.522379 0.115963
0.887358 0.523632 0.117216
0.915456 0.524885 0.118469
0.943553 0.526137 0.119721
0.048646 0.517107 0.083846
0.076744 0.518360 0.085099
0.104842 0.519613 0.086352
0.132939 0.520866 0.087605
0.161037 0.522118 0.088858
0.189134 0.523371 0.090110
0.217232 0.524624 0.091363
0.245329 0.525877 0.092616
0.273427 0.527130 0.093869
0.301524 0.528382 0.095122
0.329622 0.529635 0.096374
0.357719 0.530888 0.097627
0.385817 0.532141 0.098880
0.413915 0.533394 0.100133
0.442012 0.534646 0.101386
0.470110 0.535899 0.102638
0.498207 0.537152 0.103891
0.526305 0.538405 0.105144
0.554402 0.539658 0.106397
0.582500 0.540910 0.107650
0.610597 0.542163 0.108902
0.638695 0.543416 0.110155
0.666792 0.544669 0.111408
0.694890 0.545922 0.112661
0.722988 0.547174 0.113914
0.751085 0.548427 0.115166
0.779183 0.549680 0.116419
0.807280 0.550933 0.117672
0.835378 0.552186 0.118925
0.863475 0.553438 0.120178
0.891573 0.554691 0.121430
0.919670 0.555944 0.122683
0.947768 0.557197 0.123936
0.052861 0.548166 0.088061
0.080958 0.549419 0.089314
0.109056 0.550672 0.090567
0.137154 0.551925 0.091819
0.165251 0.553178 0.093072
0.193349 0.554430 0.094325
0.221446 0.555683 0.095578
0.249544 0.556936 0.096830
0.277641 0.558189 0.098083
0.305739 0.559442 0.099336
0.333836 0.560694 0.100589
0.361934 0.561947 0.101842
0.390031 0.563200 0.103094
0.418129 0.564453 0.104347
0.446227 0.565706 0.105600
0.474324 0.566958 0.106853
0.502422 0.568211 0.108106
0.530519 0.569464 0.109358
0.558617 0.570717 0.110611
0.586714 0.571970 0.111864
0.614812 0.573222 0.113117
0.642909 0.574475 0.114370
0.671007 0.575728 0.115622
0.699105 0.576981 0.116875
0.727202 0.578234 0.118128
0.755300 0.579486 0.119381
0.783397 0.580739 0.120634
0.811495 0.581992 0.121886
0.839592 0.583245 0.123139
0.867690 0.584498 0.124392
0.895787 0.585750 0.125645
0.923885 0.587003 0.126898
0.951982 0.588256 0.128150
0.057075 0.579226 0.092275
0.085173 0.580478 0.093528
0.113270 0.581731 0.094781
0.141368 0.582984 0.096034
0.169466 0.584237 0.097287
0.197563 0.585490 0.098539
0.225661 0.586742 0.099792
0.253758 0.587995 0.101045
0.281856 0.589248 0.102298
0.309953 0.590501 0.103551
0.338051 0.591754 0.104803
0.366148 0.593006 0.106056
0.394246 0.594259 0.107309
0.422344 0.595512 0.108562
0.450441 0.596765 0.109815
0.478539 0.598018 0.111067
0.506636 0.599270 0.112320
0.534734 0.600523 0.113573
0.562831 0.601776 0.114826
0.590929 0.603029 0.116079
0.619026 0.604282 0.117331
0.647124 0.605534 0.118584
0.675221 0.606787 0.119837
0.703319 0.608040 0.121090
0.731417 0.609293 0.122343
0.759514 0.610546 0.123595
0.787612 0.611798 0.124848
0.815709 0.613051 0.126101
0.843807 0.614304 0.127354
0.871904 0.615557 0.128607
0.900002 0.616810 0.129859
0.928099 0.618062 0.131112
0.956197 0.619315 0.132365
0.061290 0.610285 0.096490
0.089387 0.611538 0.097743
0.117485 0.612790 0.098995
0.145583 0.614043 0.100248
0.173680 0.615296 0.101501
0.201778 0.616549 0.102754
0.229875 0.617802 0.104007
0.257973 0.619054 0.105259
0.286070 0.620307 0.106512
0.314168 0.621560 0.107765
0.342265 0.622813 0.109018
0.370363 0.624066 0.110271
0.398460 0.625318 0.111523
0.426558 0.626571 0.112776
0.454656 0.627824 0.114029
0.482753 0.629077 0.115282
0.510851 0.630330 0.116535
0.538948 0.631582 0.117787
0.567046 0.632835 0.119040
0.595143 0.634088 0.120293
0.623241 0.635341 0.121546
0.651338 0.636594 0.122799
0.679436 0.637846 0.124051
0.707534 0.639099 0.125304
0.735631 0.640352 0.126557
0.763729 0.641605 0.127810
0.791826 0.642858 0.129063
0.819924 0.644110 0.130315
0.848021 0.645363 0.131568
0.876119 0.646616 0.132821
0.904216 0.647869 0.134074
0.932314 0.649122 0.135327
0.960411 0.650374 0.136579
0.065504 0.641344 0.100704
0.093602 0.642597 0.101957
0.121699 0.643850 0.103210
0.149797 0.645103 0.104463
0.177895 0.646355 0.105716
0.205992 0.647608 0.106968
0.234090 0.648861 0.108221
0.262187 0.650114 0.109474
0.290285 0.651367 0.110727
0.318382 0.652619 0.111980
0.346480 0.653872 0.113232
0.374577 0.655125 0.114485
0.402675 0.656378 0.115738
0.430773 0.657631 0.116991
0.458870 0.658883 0.118244
0.486968 0.660136 0.119496
0.515065 0.661389 0.120749
0.543163 0.662642 0.122002
0.571260 0.663895 0.123255
0.599358 0.665147 0.124508
0.627455 0.666400 0.125760
0.655553 0.667653 0.127013
0.683650 0.668906 0.128266
0.711748 0.670159 0.129519
0.739846 0.671411 0.130772
0.767943 0.672664 0.132024
0.796041 0.673917 0.133277
0.824138 0.675170 0.134530
0.852236 0.676423 0.135783
0.880333 0.677675 0.137036
0.908431 0.678928 0.138288
0.936528 0.680181 0.139541
0.964626 0.681434 0.140794
0.069719 0.672403 0.104919
0.097816 0.673656 0.106172
0.125914 0.674909 0.107424
0.154012 0.676162 0.108677
0.182109 0.677415 0.109930
0.210207 0.678667 0.111183
0.238304 0.679920 0.112436
0.266402 0.681173 0.113688
0.294499 0.682426 0.114941
0.322597 0.683679 0.116194
0.350694 0.684931 0.117447
0.378792 0.686184 0.118700
0.406889 0.687437 0.119952
0.434987 0.688690 0.121205
0.463085 0.689943 0.122458
0.491182 0.691195 0.123711
0.519280 0.692448 0.124964
0.547377 0.693701 0.126216
0.575475 0.694954 0.127469
0.603572 0.696207 0.128722
0.631670 0.697459 0.129975
0.659767 0.698712 0.131228
0.687865 0.699965 0.132480
0.715963 0.701218 0.133733
0.744060 0.702471 0.134986
0.772158 0.703723 0.136239
0.800255 0.704976 0.137492
0.828353 0.706229 0.138744
0.856450 0.707482 0.139997
0.884548 0.708735 0.141250
0.912645 0.709987 0.142503
0.940743 0.711240 0.143756
0.968840 0.712493 0.145008
0.073933 0.703463 0.109133
0.102031 0.704715 0.110386
0.130128 0.705968 0.111639
0.158226 0.707221 0.112892
0.186324 0.708474 0.114145
0.214421 0.709727 0.115397
0.242519 0.710979 0.116650
0.270616 0.712232 0.117903
0.298714 0.713485 0.119156
0.326811 0.714738 0.120409
0.354909 0.715991 0.121661
0.383006 0.717243 0.122914
0.411104 0.718496 0.124167
0.439202 0.719749 0.125420
0.467299 0.721002 0.126673
0.495397 0.722255 0.127925
0.523494 0.723507 0.129178
0.551592 0.724760 0.130431
0.579689 0.726013 0.131684
0.607787 0.727266 0.132937
0.635884 0.728519 0.134189
0.663982 0.729771 0.135442
0.692079 0.731024 0.136695
0.720177 0.732277 0.137948
0.748275 0.733530 0.139201
0.776372 0.734783 0.140453
0.804470 0.736035 0.141706
0.832567 0.737288 0.142959
0.860665 0.738541 0.144212
0.888762 0.739794 0.145465
0.916860 0.741047 0.146717
0.944957 0.742299 0.147970
0.973055 0.743552 0.149223
0.078148 0.734522 0.113348
0.106245 0.735775 0.114601
0.134343 0.737027 0.115853
0.162441 0.738280 0.117106
0.190538 0.739533 0.118359
0.218636 0.740786 0.119612
0.246733 0.742039 0.120865
0.274831 0.743291 0.122117
0.302928 0.744544 0.123370
0.331026 0.745797 0.124623
0.359123 0.747050 0.125876
0.387221 0.748303 0.127129
0.415318 0.749555 0.128381
0.443416 0.750808 0.129634
0.471514 0.752061 0.130887
0.499611 0.753314 0.132140
0.527709 0.754567 0.133393
0.555806 0.755819 0.134645
0.583904 0.757072 0.135898
0.612001 0.758325 0.137151
0.640099 0.759578 0.138404
0.668196 0.760831 0.139657
0.696294 0.762083 0.140909
0.724391 0.763336 0.142162
0.752489 0.764589 0.143415
0.780587 0.765842 0.144668
0.808684 0.767095 0.145921
0.836782 0.768347 0.147173
0.864879 0.769600 0.148426
0.892977 0.770853 0.149718
0.921074 0.772106 0.151110
0.949172 0.773359 0.152502
0.977269 0.774611 0.153894
0.082362 0.765581 0.117562
0.110460 0.766834 0.118815
0.138557 0.768087 0.120068
0.166655 0.769340 0.121321
0.194753 0.770592 0.122574
0.222850 0.771845 0.123826
0.250948 0.773098 0.125079
0.279045 0.774351 0.126332
0.307143 0.775604 0.127585
0.335240 0.776856 0.128838
0.363338 0.778109 0.130090
0.391435 0.779362 0.131343
0.419533 0.780615 0.132596
0.447631 0.781868 0.133849
0.475728 0.783120 0.135102
0.503826 0.784373 0.136354
0.531923 0.785626 0.137607
0.560021 0.786879 0.138860
0.588118 0.788131 0.140113
0.616216 0.789384 0.141366
0.644313 0.790637 0.142618
0.672411 0.791890 0.143871
0.700508 0.793143 0.145124
0.728606 0.794395 0.146377
0.756704 0.795648 0.147630
0.784801 0.796901 0.148882
0.812899 0.798154 0.150225
0.840996 0.799407 0.151617
0.869094 0.800659 0.153009
0.897191 0.801912 0.154401
0.925289 0.803165 0.155793
0.953386 0.804418 0.157185
0.981484 0.805671 0.158577
0.086577 0.796640 0.121777
0.114674 0.797893 0.123030
0.142772 0.799146 0.124282
0.170870 0.800399 0.125535
0.198967 0.801652 0.126788
0.227065 0.802904 0.128041
0.255162 0.804157 0.129294
0.283260 0.805410 0.130546
0.311357 0.806663 0.131799
0.339455 0.807916 0.133052
0.367552 0.809168 0.134305
0.395650 0.810421 0.135558
0.423747 0.811674 0.136810
0.451845 0.812927 0.138063
0.479943 0.814180 0.139316
0.508040 0.815432 0.140569
0.536138 0.816685 0.141822
0.564235 0.817938 0.143074
0.592333 0.819191 0.144327
0.620430 0.820444 0.145580
0.648528 0.821696 0.146833
0.676625 0.822949 0.148086
0.704723 0.824202 0.149340
0.732820 0.825455 0.150732
0.760918 0.826708 0.152124
0.789016 0.827960 0.153516
0.817113 0.829213 0.154908
