fexer/Resources/LUTs/astro_dark.cube
TITLE "Astro"
LUT_3D_SIZE 5
DOMAIN_MIN 0.0 0.0 0.0
DOMAIN_MAX 1.0 1.0 1.0
0.000000 0.000000 0.000000
0.065309 0.000000 0.000000
0.281117 0.000000 0.000000
0.496926 0.000000 0.000000
0.712734 0.000000 0.000000
0.000000 0.085332 0.000000
0.082062 0.090312 0.000000
0.297871 0.095293 0.000000
0.513680 0.100273 0.000000
0.729488 0.105253 0.000000
0.000000 0.312914 0.000000
0.098816 0.317895 0.000000
0.314625 0.322875 0.000000
0.530433 0.327855 0.000000
0.746242 0.332835 0.000000
0.000000 0.540496 0.000000
0.115570 0.545477 0.000000
0.331379 0.550457 0.000000
0.547187 0.555437 0.000000
0.762996 0.560417 0.000000
0.000000 0.768079 0.000000
0.132324 0.773059 0.000000
0.348132 0.778039 0.000000
0.563941 0.783019 0.000000
0.779750 0.788000 0.000000
0.000000 0.000000 0.131134
0.067000 0.000000 0.130138
0.282808 0.000000 0.129142
0.498617 0.000000 0.128146
0.714426 0.000000 0.127150
0.000000 0.087023 0.127783
0.083754 0.092004 0.126787
0.299562 0.096984 0.125791
0.515371 0.101964 0.124795
0.731179 0.106944 0.123799
0.000000 0.314606 0.124433
0.100508 0.319586 0.124508
0.316316 0.324566 0.129488
0.532125 0.329546 0.134468
0.747933 0.334527 0.139448
0.000000 0.542188 0.136281
0.117261 0.547168 0.141261
0.333070 0.552148 0.146242
0.548879 0.557129 0.151222
0.764687 0.562109 0.156202
0.000000 0.769770 0.153035
0.134015 0.774750 0.158015
0.349824 0.779730 0.162995
0.565632 0.784711 0.167976
0.781441 0.789691 0.172956
0.000000 0.000000 0.341624
0.068691 0.000000 0.340628
0.284500 0.000000 0.339632
0.500308 0.000000 0.338636
0.716117 0.000000 0.337640
0.000000 0.088715 0.338273
0.085445 0.093695 0.337277
0.301254 0.098675 0.336281
0.517062 0.103655 0.335285
0.732871 0.108636 0.335214
0.000000 0.316297 0.334923
0.102199 0.321277 0.337027
0.318007 0.326257 0.342007
0.533816 0.331238 0.346988
0.749625 0.336218 0.351968
0.000000 0.543879 0.348801
0.118953 0.548859 0.353781
0.334761 0.553840 0.358761
0.550570 0.558820 0.363741
0.766378 0.563800 0.368722
0.000000 0.771461 0.365555
0.135706 0.776442 0.370535
0.351515 0.781422 0.375515
0.567324 0.786402 0.380495
0.783132 0.791382 0.385476
0.000000 0.000000 0.552114
0.070383 0.000000 0.551118
0.286191 0.000000 0.550122
0.502000 0.000000 0.549126
0.717808 0.000000 0.548130
0.000000 0.090406 0.548763
0.087136 0.095386 0.547767
0.302945 0.100367 0.546771
0.518753 0.105347 0.545775
0.734562 0.110327 0.547734
0.000000 0.317988 0.545413
0.103890 0.322969 0.549547
0.319699 0.327949 0.554527
0.535507 0.332929 0.559507
0.751316 0.337909 0.564488
0.000000 0.545570 0.561320
0.120644 0.550551 0.566301
0.336453 0.555531 0.571281
0.552261 0.560511 0.576261
0.768070 0.565491 0.581241
0.000000 0.773153 0.578074
0.137398 0.778133 0.583054
0.353206 0.783113 0.588035
0.569015 0.788093 0.593015
0.784824 0.793074 0.597995
0.000000 0.000000 0.762604
0.072074 0.000000 0.761608
0.287882 0.000000 0.760612
0.503691 0.000000 0.759616
0.719500 0.000000 0.758620
0.000000 0.092097 0.759254
0.088828 0.097078 0.758258
0.304636 0.102058 0.757261
0.520445 0.107038 0.756265
0.736253 0.112018 0.760253
0.000000 0.319680 0.757086
0.105581 0.324660 0.762066
0.321390 0.329640 0.767047
0.537199 0.334620 0.772027
0.753007 0.339601 0.777007
0.000000 0.547262 0.773840
0.122335 0.552242 0.778820
0.338144 0.557222 0.783801
0.553952 0.562202 0.788781
0.769761 0.567183 0.793761
0.000000 0.774844 0.790594
0.139089 0.779824 0.795574
0.354898 0.784804 0.800554
0.570706 0.789785 0.805535
0.786515 0.794765 0.810515
