fexer/Resources/LUTs/astro_dark.cube
TITLE "Astro"
LUT_3D_SIZE 9
DOMAIN_MIN 0.0 0.0 0.0
DOMAIN_MAX 1.0 1.0 1.0
0.000000 0.000000 0.000000
0.000000 0.000000 0.000000
0.065309 0.000000 0.000000
0.173213 0.000000 0.000000
0.281117 0.000000 0.000000
0.389021 0.000000 0.000000
0.496926 0.000000 0.000000
0.604830 0.000000 0.000000
0.712734 0.000000 0.000000
0.000000 0.000000 0.000000
0.000000 0.000000 0.000000
0.073685 0.000000 0.000000
0.181590 0.000000 0.000000
0.289494 0.000000 0.000000
0.397398 0.000000 0.000000
0.505303 0.000000 0.000000
0.613207 0.000000 0.000000
0.721111 0.000000 0.000000
0.000000 0.085332 0.000000
0.000000 0.087822 0.000000
0.082062 0.090312 0.000000
0.189967 0.092803 0.000000
0.297871 0.095293 0.000000
0.405775 0.097783 0.000000
0.513680 0.100273 0.000000
0.621584 0.102763 0.000000
0.729488 0.105253 0.000000
0.000000 0.199123 0.000000
0.000000 0.201613 0.000000
0.090439 0.204103 0.000000
0.198344 0.206594 0.000000
0.306248 0.209084 0.000000
0.414152 0.211574 0.000000
0.522056 0.214064 0.000000
0.629961 0.216554 0.000000
0.737865 0.219044 0.000000
0.000000 0.312914 0.000000
0.000000 0.315404 0.000000
0.098816 0.317895 0.000000
0.206721 0.320385 0.000000
0.314625 0.322875 0.000000
0.422529 0.325365 0.000000
0.530433 0.327855 0.000000
0.638338 0.330345 0.000000
0.746242 0.332835 0.000000
0.000000 0.426705 0.000000
0.000000 0.429196 0.000000
0.107193 0.431686 0.000000
0.215097 0.434176 0.000000
0.323002 0.436666 0.000000
0.430906 0.439156 0.000000
0.538810 0.441646 0.000000
0.646715 0.444136 0.000000
0.754619 0.446626 0.000000
0.000000 0.540496 0.000000
0.007666 0.542987 0.000000
0.115570 0.545477 0.000000
0.223474 0.547967 0.000000
0.331379 0.550457 0.000000
0.439283 0.552947 0.000000
0.547187 0.555437 0.000000
0.655091 0.557927 0.000000
0.762996 0.560417 0.000000
0.000000 0.654288 0.000000
0.016043 0.656778 0.000000
0.123947 0.659268 0.000000
0.231851 0.661758 0.000000
0.339756 0.664248 0.000000
0.447660 0.666738 0.000000
0.555564 0.669228 0.000000
0.663468 0.671718 0.000000
0.771373 0.674209 0.000000
0.000000 0.768079 0.000000
0.024420 0.770569 0.000000
0.132324 0.773059 0.000000
0.240228 0.775549 0.000000
0.348132 0.778039 0.000000
0.456037 0.780529 0.000000
0.563941 0.783019 0.000000
0.671845 0.785509 0.000000
0.779750 0.788000 0.000000
0.000000 0.000000 0.025889
0.000000 0.000000 0.025391
0.066154 0.000000 0.024893
0.174059 0.000000 0.024395
0.281963 0.000000 0.023897
0.389867 0.000000 0.023399
0.497771 0.000000 0.022901
0.605676 0.000000 0.022403
0.713580 0.000000 0.021905
0.000000 0.000000 0.024214
0.000000 0.000000 0.023716
0.074531 0.000000 0.023218
0.182435 0.000000 0.022720
0.290340 0.000000 0.022222
0.398244 0.000000 0.021724
0.506148 0.000000 0.021226
0.614053 0.000000 0.020728
0.721957 0.000000 0.020229
0.000000 0.086178 0.022538
0.000000 0.088668 0.022040
0.082908 0.091158 0.021542
0.190812 0.093648 0.021044
0.298717 0.096138 0.020546
0.406621 0.098628 0.020048
0.514525 0.101119 0.019550
0.622429 0.103609 0.019052
0.730334 0.106099 0.018554
0.000000 0.199969 0.020863
0.000000 0.202459 0.020365
0.091285 0.204949 0.019867
0.199189 0.207439 0.019369
0.307094 0.209929 0.018871
0.414998 0.212419 0.018373
0.522902 0.214910 0.019831
0.630806 0.217400 0.022321
0.738711 0.219890 0.024811
0.000000 0.313760 0.019188
0.000000 0.316250 0.018690
0.099662 0.318740 0.018248
0.207566 0.321230 0.020738
0.315470 0.323720 0.023228
0.423375 0.326211 0.025718
0.531279 0.328701 0.028208
0.639183 0.331191 0.030698
0.747088 0.333681 0.033188
0.000000 0.427551 0.021644
0.000135 0.430041 0.024135
0.108039 0.432531 0.026625
0.215943 0.435021 0.029115
0.323847 0.437512 0.031605
0.431752 0.440002 0.034095
0.539656 0.442492 0.036585
0.647560 0.444982 0.039075
0.755465 0.447472 0.041565
0.000000 0.541342 0.030021
0.008511 0.543832 0.032511
0.116416 0.546322 0.035002
0.224320 0.548813 0.037492
0.332224 0.551303 0.039982
0.440129 0.553793 0.042472
0.548033 0.556283 0.044962
0.655937 0.558773 0.047452
0.763841 0.561263 0.049942
0.000000 0.655133 0.038398
0.016888 0.657623 0.040888
0.124793 0.660113 0.043378
0.232697 0.662604 0.045869
0.340601 0.665094 0.048359
0.448505 0.667584 0.050849
0.556410 0.670074 0.053339
0.664314 0.672564 0.055829
0.772218 0.675054 0.058319
0.000000 0.768924 0.046775
0.025265 0.771414 0.049265
0.133170 0.773905 0.051755
0.241074 0.776395 0.054245
0.348978 0.778885 0.056736
0.456882 0.781375 0.059226
0.564787 0.783865 0.061716
0.672691 0.786355 0.064206
0.780595 0.788845 0.066696
0.000000 0.000000 0.131134
0.000000 0.000000 0.130636
0.067000 0.000000 0.130138
0.174904 0.000000 0.129640
0.282808 0.000000 0.129142
0.390713 0.000000 0.128644
0.498617 0.000000 0.128146
0.606521 0.000000 0.127648
0.714426 0.000000 0.127150
0.000000 0.000000 0.129459
0.000000 0.000000 0.128961
0.075377 0.000000 0.128463
0.183281 0.000000 0.127965
0.291185 0.000000 0.127467
0.399090 0.000000 0.126969
0.506994 0.000000 0.126471
0.614898 0.000000 0.125973
0.722803 0.000000 0.125475
0.000000 0.087023 0.127783
0.000000 0.089514 0.127285
0.083754 0.092004 0.126787
0.191658 0.094494 0.126289
0.299562 0.096984 0.125791
0.407467 0.099474 0.125293
0.515371 0.101964 0.124795
0.623275 0.104454 0.124297
0.731179 0.106944 0.123799
0.000000 0.200815 0.126108
0.000000 0.203305 0.125610
0.092131 0.205795 0.125112
0.200035 0.208285 0.124614
0.307939 0.210775 0.124116
0.415843 0.213265 0.123618
0.523748 0.215755 0.126091
0.631652 0.218245 0.128581
0.739556 0.220735 0.131071
0.000000 0.314606 0.124433
0.000000 0.317096 0.123935
0.100508 0.319586 0.124508
0.208412 0.322076 0.126998
0.316316 0.324566 0.129488
0.424220 0.327056 0.131978
0.532125 0.329546 0.134468
0.640029 0.332036 0.136958
0.747933 0.334527 0.139448
0.000000 0.428397 0.127904
0.000980 0.430887 0.130394
0.108884 0.433377 0.132884
0.216789 0.435867 0.135375
0.324693 0.438357 0.137865
0.432597 0.440847 0.140355
0.540502 0.443337 0.142845
0.648406 0.445828 0.145335
0.756310 0.448318 0.147825
0.000000 0.542188 0.136281
0.009357 0.544678 0.138771
0.117261 0.547168 0.141261
0.225166 0.549658 0.143751
0.333070 0.552148 0.146242
0.440974 0.554638 0.148732
0.548879 0.557129 0.151222
0.656783 0.559619 0.153712
0.764687 0.562109 0.156202
0.000000 0.655979 0.144658
0.017734 0.658469 0.147148
0.125638 0.660959 0.149638
0.233543 0.663449 0.152128
0.341447 0.665939 0.154619
0.449351 0.668429 0.157109
0.557255 0.670920 0.159599
0.665160 0.673410 0.162089
0.773064 0.675900 0.164579
0.000000 0.769770 0.153035
0.026111 0.772260 0.155525
0.134015 0.774750 0.158015
0.241919 0.777240 0.160505
0.349824 0.779730 0.162995
0.457728 0.782221 0.165486
0.565632 0.784711 0.167976
0.673537 0.787201 0.170466
0.781441 0.789691 0.172956
0.000000 0.000000 0.236379
0.000000 0.000000 0.235881
0.067846 0.000000 0.235383
0.175750 0.000000 0.234885
0.283654 0.000000 0.234387
0.391558 0.000000 0.233889
0.499463 0.000000 0.233391
0.607367 0.000000 0.232893
0.715271 0.000000 0.232395
0.000000 0.000000 0.234704
0.000000 0.000000 0.234206
0.076222 0.000000 0.233708
0.184127 0.000000 0.233210
0.292031 0.000000 0.232712
0.399935 0.000000 0.232214
0.507840 0.000000 0.231716
0.615744 0.000000 0.231218
0.723648 0.000000 0.230720
0.000000 0.087869 0.233028
0.000000 0.090359 0.232530
0.084599 0.092849 0.232032
0.192504 0.095339 0.231534
0.300408 0.097830 0.231036
0.408312 0.100320 0.230538
0.516217 0.102810 0.230040
0.624121 0.105300 0.229542
0.732025 0.107790 0.229044
0.000000 0.201660 0.231353
0.000000 0.204150 0.230855
0.092976 0.206640 0.230357
0.200881 0.209131 0.229859
0.308785 0.211621 0.229361
0.416689 0.214111 0.229861
0.524593 0.216601 0.232351
0.632498 0.219091 0.234841
0.740402 0.221581 0.237331
0.000000 0.315451 0.229678
0.000000 0.317941 0.229180
0.101353 0.320432 0.230767
0.209257 0.322922 0.233257
0.317162 0.325412 0.235748
0.425066 0.327902 0.238238
0.532970 0.330392 0.240728
0.640875 0.332882 0.243218
0.748779 0.335372 0.245708
0.000000 0.429242 0.234164
0.001826 0.431732 0.236654
0.109730 0.434223 0.239144
0.217634 0.436713 0.241634
0.325539 0.439203 0.244125
0.433443 0.441693 0.246615
0.541347 0.444183 0.249105
0.649252 0.446673 0.251595
0.757156 0.449163 0.254085
0.000000 0.543033 0.242541
0.010203 0.545524 0.245031
0.118107 0.548014 0.247521
0.226011 0.550504 0.250011
0.333916 0.552994 0.252501
0.441820 0.555484 0.254992
0.549724 0.557974 0.257482
0.657628 0.560464 0.259972
0.765533 0.562954 0.262462
0.000000 0.656825 0.250918
0.018580 0.659315 0.253408
0.126484 0.661805 0.255898
0.234388 0.664295 0.258388
0.342293 0.666785 0.260878
0.450197 0.669275 0.263368
0.558101 0.671765 0.265859
0.666005 0.674255 0.268349
0.773910 0.676745 0.270839
0.000000 0.770616 0.259295
0.026957 0.773106 0.261785
0.134861 0.775596 0.264275
0.242765 0.778086 0.266765
0.350669 0.780576 0.269255
0.458574 0.783066 0.271745
0.566478 0.785556 0.274235
0.674382 0.788046 0.276726
0.782287 0.790537 0.279216
0.000000 0.000000 0.341624
0.000000 0.000000 0.341126
0.068691 0.000000 0.340628
0.176595 0.000000 0.340130
0.284500 0.000000 0.339632
0.392404 0.000000 0.339134
0.500308 0.000000 0.338636
0.608213 0.000000 0.338138
0.716117 0.000000 0.337640
0.000000 0.000000 0.339949
0.000000 0.000000 0.339451
0.077068 0.000000 0.338953
0.184972 0.000000 0.338455
0.292877 0.000000 0.337957
0.400781 0.000000 0.337459
0.508685 0.000000 0.336961
0.616590 0.000000 0.336463
0.724494 0.000000 0.335965
0.000000 0.088715 0.338273
0.000000 0.091205 0.337775
0.085445 0.093695 0.337277
0.193349 0.096185 0.336779
0.301254 0.098675 0.336281
0.409158 0.101165 0.335783
0.517062 0.103655 0.335285
0.624966 0.106146 0.334787
0.732871 0.108636 0.335214
0.000000 0.202506 0.336598
0.000000 0.204996 0.336100
0.093822 0.207486 0.335602
0.201726 0.209976 0.335104
0.309631 0.212466 0.334606
0.417535 0.214956 0.336121
0.525439 0.217447 0.338611
0.633343 0.219937 0.341101
0.741248 0.222427 0.343591
0.000000 0.316297 0.334923
0.000000 0.318787 0.334537
0.102199 0.321277 0.337027
0.210103 0.323767 0.339517
0.318007 0.326257 0.342007
0.425912 0.328748 0.344498
0.533816 0.331238 0.346988
0.641720 0.333728 0.349478
0.749625 0.336218 0.351968
0.000000 0.430088 0.340424
0.002671 0.432578 0.342914
0.110576 0.435068 0.345404
0.218480 0.437558 0.347894
0.326384 0.440049 0.350384
0.434289 0.442539 0.352874
0.542193 0.445029 0.355365
0.650097 0.447519 0.357855
0.758001 0.450009 0.360345
0.000000 0.543879 0.348801
0.011048 0.546369 0.351291
0.118953 0.548859 0.353781
0.226857 0.551349 0.356271
0.334761 0.553840 0.358761
0.442666 0.556330 0.361251
0.550570 0.558820 0.363741
0.658474 0.561310 0.366232
0.766378 0.563800 0.368722
0.000000 0.657670 0.357178
0.019425 0.660160 0.359668
0.127330 0.662650 0.362158
0.235234 0.665141 0.364648
0.343138 0.667631 0.367138
0.451042 0.670121 0.369628
0.558947 0.672611 0.372118
0.666851 0.675101 0.374609
0.774755 0.677591 0.377099
0.000000 0.771461 0.365555
0.027802 0.773951 0.368045
0.135706 0.776442 0.370535
0.243611 0.778932 0.373025
0.351515 0.781422 0.375515
0.459419 0.783912 0.378005
0.567324 0.786402 0.380495
0.675228 0.788892 0.382985
0.783132 0.791382 0.385476
0.000000 0.000000 0.446869
0.000000 0.000000 0.446371
0.069537 0.000000 0.445873
0.177441 0.000000 0.445375
0.285345 0.000000 0.444877
0.393250 0.000000 0.444379
0.501154 0.000000 0.443881
0.609058 0.000000 0.443383
0.716963 0.000000 0.442885
0.000000 0.000000 0.445194
0.000000 0.000000 0.444696
0.077914 0.000000 0.444198
0.185818 0.000000 0.443700
0.293722 0.000000 0.443202
0.401627 0.000000 0.442704
0.509531 0.000000 0.442206
0.617435 0.000000 0.441708
0.725339 0.000000 0.441210
0.000000 0.089560 0.443518
0.000000 0.092051 0.443020
0.086291 0.094541 0.442522
0.194195 0.097031 0.442024
0.302099 0.099521 0.441526
0.410004 0.102011 0.441028
0.517908 0.104501 0.440530
0.625812 0.106991 0.440032
0.733716 0.109481 0.441474
0.000000 0.203352 0.441843
0.000000 0.205842 0.441345
0.094668 0.208332 0.440847
0.202572 0.210822 0.440349
0.310476 0.213312 0.439890
0.418380 0.215802 0.442380
0.526285 0.218292 0.444871
0.634189 0.220782 0.447361
0.742093 0.223272 0.449851
0.000000 0.317143 0.440168
0.000000 0.319633 0.440797
0.103045 0.322123 0.443287
0.210949 0.324613 0.445777
0.318853 0.327103 0.448267
0.426757 0.329593 0.450757
0.534662 0.332083 0.453247
0.642566 0.334573 0.455738
0.750470 0.337064 0.458228
0.000000 0.430934 0.446684
0.003517 0.433424 0.449174
0.111421 0.435914 0.451664
0.219326 0.438404 0.454154
0.327230 0.440894 0.456644
0.435134 0.443384 0.459134
0.543039 0.445874 0.461624
0.650943 0.448365 0.464115
0.758847 0.450855 0.466605
0.000000 0.544725 0.455061
0.011894 0.547215 0.457551
0.119798 0.549705 0.460041
0.227703 0.552195 0.462531
0.335607 0.554685 0.465021
0.443511 0.557175 0.467511
0.551415 0.559665 0.470001
0.659320 0.562156 0.472491
0.767224 0.564646 0.474982
0.000000 0.658516 0.463438
0.020271 0.661006 0.465928
0.128175 0.663496 0.468418
0.236080 0.665986 0.470908
0.343984 0.668476 0.473398
0.451888 0.670966 0.475888
0.559792 0.673457 0.478378
0.667697 0.675947 0.480868
0.775601 0.678437 0.483358
0.000000 0.772307 0.471814
0.028648 0.774797 0.474305
0.136552 0.777287 0.476795
0.244456 0.779777 0.479285
0.352361 0.782267 0.481775
0.460265 0.784758 0.484265
0.568169 0.787248 0.486755
0.676074 0.789738 0.489245
0.783978 0.792228 0.491735
0.000000 0.000000 0.552114
0.000000 0.000000 0.551616
0.070383 0.000000 0.551118
0.178287 0.000000 0.550620
0.286191 0.000000 0.550122
0.394095 0.000000 0.549624
0.502000 0.000000 0.549126
0.609904 0.000000 0.548628
0.717808 0.000000 0.548130
0.000000 0.000000 0.550439
0.000000 0.000000 0.549941
0.078759 0.000000 0.549443
0.186664 0.000000 0.548945
0.294568 0.000000 0.548447
0.402472 0.000000 0.547949
0.510377 0.000000 0.547451
0.618281 0.000000 0.546953
0.726185 0.000000 0.546455
0.000000 0.090406 0.548763
0.000000 0.092896 0.548265
0.087136 0.095386 0.547767
0.195041 0.097876 0.547269
0.302945 0.100367 0.546771
0.410849 0.102857 0.546273
0.518753 0.105347 0.545775
0.626658 0.107837 0.545277
0.734562 0.110327 0.547734
0.000000 0.204197 0.547088
0.000000 0.206687 0.546590
0.095513 0.209177 0.546092
0.203418 0.211668 0.545594
0.311322 0.214158 0.546150
0.419226 0.216648 0.548640
0.527130 0.219138 0.551130
0.635035 0.221628 0.553621
0.742939 0.224118 0.556111
0.000000 0.317988 0.545413
0.000000 0.320478 0.547057
0.103890 0.322969 0.549547
0.211794 0.325459 0.552037
0.319699 0.327949 0.554527
0.427603 0.330439 0.557017
0.535507 0.332929 0.559507
0.643412 0.335419 0.561997
0.751316 0.337909 0.564488
0.000000 0.431779 0.552944
0.004363 0.434269 0.555434
0.112267 0.436760 0.557924
0.220171 0.439250 0.560414
0.328076 0.441740 0.562904
0.435980 0.444230 0.565394
0.543884 0.446720 0.567884
0.651789 0.449210 0.570374
0.759693 0.451700 0.572864
0.000000 0.545570 0.561320
0.012740 0.548061 0.563811
0.120644 0.550551 0.566301
0.228548 0.553041 0.568791
0.336453 0.555531 0.571281
0.444357 0.558021 0.573771
0.552261 0.560511 0.576261
0.660165 0.563001 0.578751
0.768070 0.565491 0.581241
0.000000 0.659362 0.569697
0.021117 0.661852 0.572187
0.129021 0.664342 0.574678
0.236925 0.666832 0.577168
0.344829 0.669322 0.579658
0.452734 0.671812 0.582148
0.560638 0.674302 0.584638
0.668542 0.676792 0.587128
0.776447 0.679282 0.589618
0.000000 0.773153 0.578074
0.029494 0.775643 0.580564
0.137398 0.778133 0.583054
0.245302 0.780623 0.585545
0.353206 0.783113 0.588035
0.461111 0.785603 0.590525
0.569015 0.788093 0.593015
0.676919 0.790583 0.595505
0.784824 0.793074 0.597995
0.000000 0.000000 0.657359
0.000000 0.000000 0.656861
0.071228 0.000000 0.656363
0.179132 0.000000 0.655865
0.287037 0.000000 0.655367
0.394941 0.000000 0.654869
0.502845 0.000000 0.654371
0.610750 0.000000 0.653873
0.718654 0.000000 0.653375
0.000000 0.000000 0.655684
0.000000 0.000000 0.655186
0.079605 0.000000 0.654688
0.187509 0.000000 0.654190
0.295414 0.000000 0.653692
0.403318 0.000000 0.653194
0.511222 0.000000 0.652696
0.619127 0.000000 0.652198
0.727031 0.000000 0.651700
0.000000 0.091252 0.654009
0.000000 0.093742 0.653511
0.087982 0.096232 0.653012
0.195886 0.098722 0.652514
0.303791 0.101212 0.652016
0.411695 0.103702 0.651518
0.519599 0.106192 0.651020
0.627503 0.108683 0.651503
0.735408 0.111173 0.653994
0.000000 0.205043 0.652333
0.000000 0.207533 0.651835
0.096359 0.210023 0.651337
0.204263 0.212513 0.650839
0.312167 0.215003 0.652410
0.420072 0.217493 0.654900
0.527976 0.219984 0.657390
0.635880 0.222474 0.659880
0.743785 0.224964 0.662370
0.000000 0.318834 0.650826
0.000000 0.321324 0.653317
0.104736 0.323814 0.655807
0.212640 0.326304 0.658297
0.320544 0.328794 0.660787
0.428449 0.331285 0.663277
0.536353 0.333775 0.665767
0.644257 0.336265 0.668257
0.752162 0.338755 0.670747
0.000000 0.432625 0.659203
0.005208 0.435115 0.661693
0.113113 0.437605 0.664184
0.221017 0.440095 0.666674
0.328921 0.442585 0.669164
0.436826 0.445076 0.671654
0.544730 0.447566 0.674144
0.652634 0.450056 0.676634
0.760538 0.452546 0.679124
0.000000 0.546416 0.667580
0.013585 0.548906 0.670070
0.121490 0.551396 0.672560
0.229394 0.553886 0.675051
0.337298 0.556377 0.677541
0.445203 0.558867 0.680031
0.553107 0.561357 0.682521
0.661011 0.563847 0.685011
0.768915 0.566337 0.687501
0.000000 0.660207 0.675957
0.021962 0.662697 0.678447
0.129867 0.665187 0.680937
0.237771 0.667678 0.683428
0.345675 0.670168 0.685918
0.453579 0.672658 0.688408
0.561484 0.675148 0.690898
0.669388 0.677638 0.693388
0.777292 0.680128 0.695878
0.000000 0.773998 0.684334
0.030339 0.776488 0.686824
0.138243 0.778978 0.689314
0.246148 0.781469 0.691804
0.354052 0.783959 0.694295
0.461956 0.786449 0.696785
0.569861 0.788939 0.699275
0.677765 0.791429 0.701765
0.785669 0.793919 0.704255
0.000000 0.000000 0.762604
0.000000 0.000000 0.762106
0.072074 0.000000 0.761608
0.179978 0.000000 0.761110
0.287882 0.000000 0.760612
0.395787 0.000000 0.760114
0.503691 0.000000 0.759616
0.611595 0.000000 0.759118
0.719500 0.000000 0.758620
0.000000 0.000000 0.760929
0.000000 0.000000 0.760431
0.080451 0.000000 0.759933
0.188355 0.000000 0.759435
0.296259 0.000000 0.758937
0.404164 0.000000 0.758439
0.512068 0.000000 0.757941
0.619972 0.000000 0.757443
0.727876 0.000000 0.756945
0.000000 0.092097 0.759254
0.000000 0.094588 0.758756
0.088828 0.097078 0.758258
0.196732 0.099568 0.757759
0.304636 0.102058 0.757261
0.412541 0.104548 0.756763
0.520445 0.107038 0.756265
0.628349 0.109528 0.757763
0.736253 0.112018 0.760253
0.000000 0.205888 0.757578
0.000000 0.208379 0.757080
0.097205 0.210869 0.756582
0.205109 0.213359 0.756180
0.313013 0.215849 0.758670
0.420917 0.218339 0.761160
0.528822 0.220829 0.763650
0.636726 0.223319 0.766140
0.744630 0.225809 0.768630
0.000000 0.319680 0.757086
0.000000 0.322170 0.759576
0.105581 0.324660 0.762066
0.213486 0.327150 0.764557
0.321390 0.329640 0.767047
0.429294 0.332130 0.769537
0.537199 0.334620 0.772027
0.645103 0.337110 0.774517
0.753007 0.339601 0.777007
0.000000 0.433471 0.765463
0.006054 0.435961 0.767953
0.113958 0.438451 0.770443
0.221863 0.440941 0.772934
0.329767 0.443431 0.775424
0.437671 0.445921 0.777914
0.545576 0.448411 0.780404
0.653480 0.450901 0.782894
0.761384 0.453392 0.785384
0.000000 0.547262 0.773840
0.014431 0.549752 0.776330
0.122335 0.552242 0.778820
0.230240 0.554732 0.781310
0.338144 0.557222 0.783801
0.446048 0.559712 0.786291
0.553952 0.562202 0.788781
0.661857 0.564693 0.791271
0.769761 0.567183 0.793761
0.000000 0.661053 0.782217
0.022808 0.663543 0.784707
0.130712 0.666033 0.787197
0.238616 0.668523 0.789687
0.346521 0.671013 0.792177
0.454425 0.673503 0.794668
0.562329 0.675994 0.797158
0.670234 0.678484 0.799648
0.778138 0.680974 0.802138
0.000000 0.774844 0.790594
0.031185 0.777334 0.793084
0.139089 0.779824 0.795574
0.246993 0.782314 0.798064
0.354898 0.784804 0.800554
0.462802 0.787294 0.803044
0.570706 0.789785 0.805535
0.678611 0.792275 0.808025
0.786515 0.794765 0.810515
