fexer/Resources/LUTs/astro_dark.cube
TITLE "Astro"
LUT_3D_SIZE 33
DOMAIN_MIN 0.0 0.0 0.0
DOMAIN_MAX 1.0 1.0 1.0
0.000000 0.000000 0.000000
0.000000 0.000000 0.000000
0.000000 0.000000 0.000000
0.000000 0.000000 0.000000
0.000000 0.000000 0.000000
0.000000 0.000000 0.000000
0.011356 0.000000 0.000000
0.038333 0.000000 0.000000
0.065309 0.000000 0.000000
0.092285 0.000000 0.000000
0.119261 0.000000 0.000000
0.146237 0.000000 0.000000
0.173213 0.000000 0.000000
0.200189 0.000000 0.000000
0.227165 0.000000 0.000000
0.254141 0.000000 0.000000
0.281117 0.000000 0.000000
0.308093 0.000000 0.000000
0.335069 0.000000 0.000000
0.362045 0.000000 0.000000
0.389021 0.000000 0.000000
0.415998 0.000000 0.000000
0.442974 0.000000 0.000000
0.469950 0.000000 0.000000
0.496926 0.000000 0.000000
0.523902 0.000000 0.000000
0.550878 0.000000 0.000000
0.577854 0.000000 0.000000
0.604830 0.000000 0.000000
0.631806 0.000000 0.000000
0.658782 0.000000 0.000000
0.685758 0.000000 0.000000
0.712734 0.000000 0.000000
0.000000 0.000000 0.000000
0.000000 0.000000 0.000000
0.000000 0.000000 0.000000
0.000000 0.000000 0.000000
0.000000 0.000000 0.000000
0.000000 0.000000 0.000000
0.013451 0.000000 0.000000
0.040427 0.000000 0.000000
0.067403 0.000000 0.000000
0.094379 0.000000 0.000000
0.121355 0.000000 0.000000
0.148331 0.000000 0.000000
0.175307 0.000000 0.000000
0.202283 0.000000 0.000000
0.229259 0.000000 0.000000
0.256235 0.000000 0.000000
0.283211 0.000000 0.000000
0.310187 0.000000 0.000000
0.337164 0.000000 0.000000
0.364140 0.000000 0.000000
0.391116 0.000000 0.000000
0.418092 0.000000 0.000000
0.445068 0.000000 0.000000
0.472044 0.000000 0.000000
0.499020 0.000000 0.000000
0.525996 0.000000 0.000000
0.552972 0.000000 0.000000
0.579948 0.000000 0.000000
0.606924 0.000000 0.000000
0.633900 0.000000 0.000000
0.660876 0.000000 0.000000
0.687852 0.000000 0.000000
0.714829 0.000000 0.000000
0.000000 0.000000 0.000000
0.000000 0.000000 0.000000
0.000000 0.000000 0.000000
0.000000 0.000000 0.000000
0.000000 0.000000 0.000000
0.000000 0.000000 0.000000
0.015545 0.000000 0.000000
0.042521 0.000000 0.000000
0.069497 0.000000 0.000000
0.096473 0.000000 0.000000
0.123449 0.000000 0.000000
0.150425 0.000000 0.000000
0.177401 0.000000 0.000000
0.204377 0.000000 0.000000
0.231353 0.000000 0.000000
0.258330 0.000000 0.000000
0.285306 0.000000 0.000000
0.312282 0.000000 0.000000
0.339258 0.000000 0.000000
0.366234 0.000000 0.000000
0.393210 0.000000 0.000000
0.420186 0.000000 0.000000
0.447162 0.000000 0.000000
0.474138 0.000000 0.000000
0.501114 0.000000 0.000000
0.528090 0.000000 0.000000
0.555066 0.000000 0.000000
0.582042 0.000000 0.000000
0.609018 0.000000 0.000000
0.635995 0.000000 0.000000
0.662971 0.000000 0.000000
0.689947 0.000000 0.000000
0.716923 0.000000 0.000000
0.000000 0.000000 0.000000
0.000000 0.000000 0.000000
0.000000 0.000000 0.000000
0.000000 0.000000 0.000000
0.000000 0.000000 0.000000
0.000000 0.000000 0.000000
0.017639 0.000000 0.000000
0.044615 0.000000 0.000000
0.071591 0.000000 0.000000
0.098567 0.000000 0.000000
0.125543 0.000000 0.000000
0.152519 0.000000 0.000000
0.179496 0.000000 0.000000
0.206472 0.000000 0.000000
0.233448 0.000000 0.000000
0.260424 0.000000 0.000000
0.287400 0.000000 0.000000
0.314376 0.000000 0.000000
0.341352 0.000000 0.000000
0.368328 0.000000 0.000000
0.395304 0.000000 0.000000
0.422280 0.000000 0.000000
0.449256 0.000000 0.000000
0.476232 0.000000 0.000000
0.503208 0.000000 0.000000
0.530184 0.000000 0.000000
0.557161 0.000000 0.000000
0.584137 0.000000 0.000000
0.611113 0.000000 0.000000
0.638089 0.000000 0.000000
0.665065 0.000000 0.000000
0.692041 0.000000 0.000000
0.719017 0.000000 0.000000
0.000000 0.000000 0.000000
0.000000 0.000000 0.000000
0.000000 0.000000 0.000000
0.000000 0.000000 0.000000
0.000000 0.000000 0.000000
0.000000 0.000000 0.000000
0.019733 0.000000 0.000000
0.046709 0.000000 0.000000
0.073685 0.000000 0.000000
0.100662 0.000000 0.000000
0.127638 0.000000 0.000000
0.154614 0.000000 0.000000
0.181590 0.000000 0.000000
0.208566 0.000000 0.000000
0.235542 0.000000 0.000000
0.262518 0.000000 0.000000
0.289494 0.000000 0.000000
0.316470 0.000000 0.000000
0.343446 0.000000 0.000000
0.370422 0.000000 0.000000
0.397398 0.000000 0.000000
0.424374 0.000000 0.000000
0.451350 0.000000 0.000000
0.478327 0.000000 0.000000
0.505303 0.000000 0.000000
0.532279 0.000000 0.000000
0.559255 0.000000 0.000000
0.586231 0.000000 0.000000
0.613207 0.000000 0.000000
0.640183 0.000000 0.000000
0.667159 0.000000 0.000000
0.694135 0.000000 0.000000
0.721111 0.000000 0.000000
0.000000 0.000000 0.000000
0.000000 0.000611 0.000000
0.000000 0.001234 0.000000
0.000000 0.001856 0.000000
0.000000 0.002479 0.000000
0.000000 0.003101 0.000000
0.021828 0.003724 0.000000
0.048804 0.004347 0.000000
0.075780 0.004969 0.000000
0.102756 0.005592 0.000000
0.129732 0.006214 0.000000
0.156708 0.006837 0.000000
0.183684 0.007459 0.000000
0.210660 0.008082 0.000000
0.237636 0.008704 0.000000
0.264612 0.009327 0.000000
0.291588 0.009949 0.000000
0.318564 0.010572 0.000000
0.345540 0.011194 0.000000
0.372517 0.011817 0.000000
0.399493 0.012439 0.000000
0.426469 0.013062 0.000000
0.453445 0.013684 0.000000
0.480421 0.014307 0.000000
0.507397 0.014930 0.000000
0.534373 0.015552 0.000000
0.561349 0.016175 0.000000
0.588325 0.016797 0.000000
0.615301 0.017420 0.000000
0.642277 0.018042 0.000000
0.669253 0.018665 0.000000
0.696229 0.019287 0.000000
0.723205 0.019910 0.000000
0.000000 0.028437 0.000000
0.000000 0.029059 0.000000
0.000000 0.029682 0.000000
0.000000 0.030304 0.000000
0.000000 0.030927 0.000000
0.000000 0.031549 0.000000
0.023922 0.032172 0.000000
0.050898 0.032794 0.000000
0.077874 0.033417 0.000000
0.104850 0.034039 0.000000
0.131826 0.034662 0.000000
0.158802 0.035284 0.000000
0.185778 0.035907 0.000000
0.212754 0.036530 0.000000
0.239730 0.037152 0.000000
0.266706 0.037775 0.000000
0.293683 0.038397 0.000000
0.320659 0.039020 0.000000
0.347635 0.039642 0.000000
0.374611 0.040265 0.000000
0.401587 0.040887 0.000000
0.428563 0.041510 0.000000
0.455539 0.042132 0.000000
0.482515 0.042755 0.000000
0.509491 0.043377 0.000000
0.536467 0.044000 0.000000
0.563443 0.044622 0.000000
0.590419 0.045245 0.000000
0.617395 0.045867 0.000000
0.644371 0.046490 0.000000
0.671348 0.047113 0.000000
0.698324 0.047735 0.000000
0.725300 0.048358 0.000000
0.000000 0.056884 0.000000
0.000000 0.057507 0.000000
0.000000 0.058129 0.000000
0.000000 0.058752 0.000000
0.000000 0.059375 0.000000
0.000000 0.059997 0.000000
0.026016 0.060620 0.000000
0.052992 0.061242 0.000000
0.079968 0.061865 0.000000
0.106944 0.062487 0.000000
0.133920 0.063110 0.000000
0.160896 0.063732 0.000000
0.187872 0.064355 0.000000
0.214849 0.064977 0.000000
0.241825 0.065600 0.000000
0.268801 0.066222 0.000000
0.295777 0.066845 0.000000
0.322753 0.067467 0.000000
0.349729 0.068090 0.000000
0.376705 0.068712 0.000000
0.403681 0.069335 0.000000
0.430657 0.069958 0.000000
0.457633 0.070580 0.000000
0.484609 0.071203 0.000000
0.511585 0.071825 0.000000
0.538561 0.072448 0.000000
0.565537 0.073070 0.000000
0.592514 0.073693 0.000000
0.619490 0.074315 0.000000
0.646466 0.074938 0.000000
0.673442 0.075560 0.000000
0.700418 0.076183 0.000000
0.727394 0.076805 0.000000
0.000000 0.085332 0.000000
0.000000 0.085955 0.000000
0.000000 0.086577 0.000000
0.000000 0.087200 0.000000
0.000000 0.087822 0.000000
0.001134 0.088445 0.000000
0.028110 0.089067 0.000000
0.055086 0.089690 0.000000
0.082062 0.090312 0.000000
0.109038 0.090935 0.000000
0.136015 0.091557 0.000000
0.162991 0.092180 0.000000
0.189967 0.092803 0.000000
0.216943 0.093425 0.000000
0.243919 0.094048 0.000000
0.270895 0.094670 0.000000
0.297871 0.095293 0.000000
0.324847 0.095915 0.000000
0.351823 0.096538 0.000000
0.378799 0.097160 0.000000
0.405775 0.097783 0.000000
0.432751 0.098405 0.000000
0.459727 0.099028 0.000000
0.486703 0.099650 0.000000
0.513680 0.100273 0.000000
0.540656 0.100895 0.000000
0.567632 0.101518 0.000000
0.594608 0.102140 0.000000
0.621584 0.102763 0.000000
0.648560 0.103386 0.000000
0.675536 0.104008 0.000000
0.702512 0.104631 0.000000
0.729488 0.105253 0.000000
0.000000 0.113780 0.000000
0.000000 0.114402 0.000000
0.000000 0.115025 0.000000
0.000000 0.115648 0.000000
0.000000 0.116270 0.000000
0.003228 0.116893 0.000000
0.030204 0.117515 0.000000
0.057181 0.118138 0.000000
0.084157 0.118760 0.000000
0.111133 0.119383 0.000000
0.138109 0.120005 0.000000
0.165085 0.120628 0.000000
0.192061 0.121250 0.000000
0.219037 0.121873 0.000000
0.246013 0.122495 0.000000
0.272989 0.123118 0.000000
0.299965 0.123740 0.000000
0.326941 0.124363 0.000000
0.353917 0.124985 0.000000
0.380893 0.125608 0.000000
0.407869 0.126231 0.000000
0.434846 0.126853 0.000000
0.461822 0.127476 0.000000
0.488798 0.128098 0.000000
0.515774 0.128721 0.000000
0.542750 0.129343 0.000000
0.569726 0.129966 0.000000
0.596702 0.130588 0.000000
0.623678 0.131211 0.000000
0.650654 0.131833 0.000000
0.677630 0.132456 0.000000
0.704606 0.133078 0.000000
0.731582 0.133701 0.000000
0.000000 0.142228 0.000000
0.000000 0.142850 0.000000
0.000000 0.143473 0.000000
0.000000 0.144095 0.000000
0.000000 0.144718 0.000000
0.005323 0.145340 0.000000
0.032299 0.145963 0.000000
0.059275 0.146585 0.000000
0.086251 0.147208 0.000000
0.113227 0.147830 0.000000
0.140203 0.148453 0.000000
0.167179 0.149076 0.000000
0.194155 0.149698 0.000000
0.221131 0.150321 0.000000
0.248107 0.150943 0.000000
0.275083 0.151566 0.000000
0.302059 0.152188 0.000000
0.329036 0.152811 0.000000
0.356012 0.153433 0.000000
0.382988 0.154056 0.000000
0.409964 0.154678 0.000000
0.436940 0.155301 0.000000
0.463916 0.155923 0.000000
0.490892 0.156546 0.000000
0.517868 0.157168 0.000000
0.544844 0.157791 0.000000
0.571820 0.158413 0.000000
0.598796 0.159036 0.000000
0.625772 0.159659 0.000000
0.652748 0.160281 0.000000
0.679724 0.160904 0.000000
0.706701 0.161526 0.000000
0.733677 0.162149 0.000000
0.000000 0.170675 0.000000
0.000000 0.171298 0.000000
0.000000 0.171921 0.000000
0.000000 0.172543 0.000000
0.000000 0.173166 0.000000
0.007417 0.173788 0.000000
0.034393 0.174411 0.000000
0.061369 0.175033 0.000000
0.088345 0.175656 0.000000
0.115321 0.176278 0.000000
0.142297 0.176901 0.000000
0.169273 0.177523 0.000000
0.196249 0.178146 0.000000
0.223225 0.178768 0.000000
0.250202 0.179391 0.000000
0.277178 0.180013 0.000000
0.304154 0.180636 0.000000
0.331130 0.181258 0.000000
0.358106 0.181881 0.000000
0.385082 0.182504 0.000000
0.412058 0.183126 0.000000
0.439034 0.183749 0.000000
0.466010 0.184371 0.000000
0.492986 0.184994 0.000000
0.519962 0.185616 0.000000
0.546938 0.186239 0.000000
0.573914 0.186861 0.000000
0.600890 0.187484 0.000000
0.627867 0.188106 0.000000
0.654843 0.188729 0.000000
0.681819 0.189351 0.000000
0.708795 0.189974 0.000000
0.735771 0.190596 0.000000
0.000000 0.199123 0.000000
0.000000 0.199746 0.000000
0.000000 0.200368 0.000000
0.000000 0.200991 0.000000
0.000000 0.201613 0.000000
0.009511 0.202236 0.000000
0.036487 0.202858 0.000000
0.063463 0.203481 0.000000
0.090439 0.204103 0.000000
0.117415 0.204726 0.000000
0.144391 0.205349 0.000000
0.171368 0.205971 0.000000
0.198344 0.206594 0.000000
0.225320 0.207216 0.000000
0.252296 0.207839 0.000000
0.279272 0.208461 0.000000
0.306248 0.209084 0.000000
0.333224 0.209706 0.000000
0.360200 0.210329 0.000000
0.387176 0.210951 0.000000
0.414152 0.211574 0.000000
0.441128 0.212196 0.000000
0.468104 0.212819 0.000000
0.495080 0.213441 0.000000
0.522056 0.214064 0.000000
0.549033 0.214686 0.000000
0.576009 0.215309 0.000000
0.602985 0.215932 0.000000
0.629961 0.216554 0.000000
0.656937 0.217177 0.000000
0.683913 0.217799 0.000000
0.710889 0.218422 0.000000
0.737865 0.219044 0.000000
0.000000 0.227571 0.000000
0.000000 0.228194 0.000000
0.000000 0.228816 0.000000
0.000000 0.229439 0.000000
0.000000 0.230061 0.000000
0.011605 0.230684 0.000000
0.038581 0.231306 0.000000
0.065557 0.231929 0.000000
0.092534 0.232551 0.000000
0.119510 0.233174 0.000000
0.146486 0.233796 0.000000
0.173462 0.234419 0.000000
0.200438 0.235041 0.000000
0.227414 0.235664 0.000000
0.254390 0.236286 0.000000
0.281366 0.236909 0.000000
0.308342 0.237531 0.000000
0.335318 0.238154 0.000000
0.362294 0.238777 0.000000
0.389270 0.239399 0.000000
0.416246 0.240022 0.000000
0.443222 0.240644 0.000000
0.470199 0.241267 0.000000
0.497175 0.241889 0.000000
0.524151 0.242512 0.000000
0.551127 0.243134 0.000000
0.578103 0.243757 0.000000
0.605079 0.244379 0.000000
0.632055 0.245002 0.000000
0.659031 0.245624 0.000000
0.686007 0.246247 0.000000
0.712983 0.246869 0.000000
0.739959 0.247492 0.000000
0.000000 0.256019 0.000000
0.000000 0.256641 0.000000
0.000000 0.257264 0.000000
0.000000 0.257886 0.000000
0.000000 0.258509 0.000000
0.013700 0.259131 0.000000
0.040676 0.259754 0.000000
0.067652 0.260376 0.000000
0.094628 0.260999 0.000000
0.121604 0.261622 0.000000
0.148580 0.262244 0.000000
0.175556 0.262867 0.000000
0.202532 0.263489 0.000000
0.229508 0.264112 0.000000
0.256484 0.264734 0.000000
0.283460 0.265357 0.000000
0.310436 0.265979 0.000000
0.337412 0.266602 0.000000
0.364388 0.267224 0.000000
0.391365 0.267847 0.000000
0.418341 0.268469 0.000000
0.445317 0.269092 0.000000
0.472293 0.269714 0.000000
0.499269 0.270337 0.000000
0.526245 0.270959 0.000000
0.553221 0.271582 0.000000
0.580197 0.272205 0.000000
0.607173 0.272827 0.000000
0.634149 0.273450 0.000000
0.661125 0.274072 0.000000
0.688101 0.274695 0.000000
0.715077 0.275317 0.000000
0.742053 0.275940 0.000000
0.000000 0.284467 0.000000
0.000000 0.285089 0.000000
0.000000 0.285712 0.000000
0.000000 0.286334 0.000000
0.000000 0.286957 0.000000
0.015794 0.287579 0.000000
0.042770 0.288202 0.000000
0.069746 0.288824 0.000000
0.096722 0.289447 0.000000
0.123698 0.290069 0.000000
0.150674 0.290692 0.000000
0.177650 0.291314 0.000000
0.204626 0.291937 0.000000
0.231602 0.292559 0.000000
0.258578 0.293182 0.000000
0.285554 0.293804 0.000000
0.312531 0.294427 0.000000
0.339507 0.295050 0.000000
0.366483 0.295672 0.000000
0.393459 0.296295 0.000000
0.420435 0.296917 0.000000
0.447411 0.297540 0.000000
0.474387 0.298162 0.000000
0.501363 0.298785 0.000000
0.528339 0.299407 0.000000
0.555315 0.300030 0.000000
0.582291 0.300652 0.000000
0.609267 0.301275 0.000000
0.636243 0.301897 0.000000
0.663220 0.302520 0.000000
0.690196 0.303142 0.000000
0.717172 0.303765 0.000000
0.744148 0.304387 0.000000
0.000000 0.312914 0.000000
0.000000 0.313537 0.000000
0.000000 0.314159 0.000000
0.000000 0.314782 0.000000
0.000000 0.315404 0.000000
0.017888 0.316027 0.000000
0.044864 0.316650 0.000000
0.071840 0.317272 0.000000
0.098816 0.317895 0.000000
0.125792 0.318517 0.000000
0.152768 0.319140 0.000000
0.179744 0.319762 0.000000
0.206721 0.320385 0.000000
0.233697 0.321007 0.000000
0.260673 0.321630 0.000000
0.287649 0.322252 0.000000
0.314625 0.322875 0.000000
0.341601 0.323497 0.000000
0.368577 0.324120 0.000000
0.395553 0.324742 0.000000
0.422529 0.325365 0.000000
0.449505 0.325987 0.000000
0.476481 0.326610 0.000000
0.503457 0.327233 0.000000
0.530433 0.327855 0.000000
0.557409 0.328478 0.000000
0.584386 0.329100 0.000000
0.611362 0.329723 0.000000
0.638338 0.330345 0.000000
0.665314 0.330968 0.000000
0.692290 0.331590 0.000000
0.719266 0.332213 0.000000
0.746242 0.332835 0.000000
0.000000 0.341362 0.000000
0.000000 0.341985 0.000000
0.000000 0.342607 0.000000
0.000000 0.343230 0.000000
0.000000 0.343852 0.000000
0.019982 0.344475 0.000000
0.046958 0.345097 0.000000
0.073934 0.345720 0.000000
0.100910 0.346342 0.000000
0.127887 0.346965 0.000000
0.154863 0.347587 0.000000
0.181839 0.348210 0.000000
0.208815 0.348832 0.000000
0.235791 0.349455 0.000000
0.262767 0.350078 0.000000
0.289743 0.350700 0.000000
0.316719 0.351323 0.000000
0.343695 0.351945 0.000000
0.370671 0.352568 0.000000
0.397647 0.353190 0.000000
0.424623 0.353813 0.000000
0.451599 0.354435 0.000000
0.478575 0.355058 0.000000
0.505552 0.355680 0.000000
0.532528 0.356303 0.000000
0.559504 0.356925 0.000000
0.586480 0.357548 0.000000
0.613456 0.358170 0.000000
0.640432 0.358793 0.000000
0.667408 0.359415 0.000000
0.694384 0.360038 0.000000
0.721360 0.360661 0.000000
0.748336 0.361283 0.000000
0.000000 0.369810 0.000000
0.000000 0.370432 0.000000
0.000000 0.371055 0.000000
0.000000 0.371677 0.000000
0.000000 0.372300 0.000000
0.022076 0.372923 0.000000
0.049053 0.373545 0.000000
0.076029 0.374168 0.000000
0.103005 0.374790 0.000000
0.129981 0.375413 0.000000
0.156957 0.376035 0.000000
0.183933 0.376658 0.000000
0.210909 0.377280 0.000000
0.237885 0.377903 0.000000
0.264861 0.378525 0.000000
0.291837 0.379148 0.000000
0.318813 0.379770 0.000000
0.345789 0.380393 0.000000
0.372765 0.381015 0.000000
0.399741 0.381638 0.000000
0.426718 0.382260 0.000000
0.453694 0.382883 0.000000
0.480670 0.383506 0.000000
0.507646 0.384128 0.000000
0.534622 0.384751 0.000000
0.561598 0.385373 0.000000
0.588574 0.385996 0.000000
0.615550 0.386618 0.000000
0.642526 0.387241 0.000000
0.669502 0.387863 0.000000
0.696478 0.388486 0.000000
0.723454 0.389108 0.000000
0.750430 0.389731 0.000000
0.000000 0.398258 0.000000
0.000000 0.398880 0.000000
0.000000 0.399503 0.000000
0.000000 0.400125 0.000000
0.000000 0.400748 0.000000
0.024171 0.401370 0.000000
0.051147 0.401993 0.000000
0.078123 0.402615 0.000000
0.105099 0.403238 0.000000
0.132075 0.403860 0.000000
0.159051 0.404483 0.000000
0.186027 0.405105 0.000000
0.213003 0.405728 0.000000
0.239979 0.406351 0.000000
0.266955 0.406973 0.000000
0.293931 0.407596 0.000000
0.320907 0.408218 0.000000
0.347884 0.408841 0.000000
0.374860 0.409463 0.000000
0.401836 0.410086 0.000000
0.428812 0.410708 0.000000
0.455788 0.411331 0.000000
0.482764 0.411953 0.000000
0.509740 0.412576 0.000000
0.536716 0.413198 0.000000
0.563692 0.413821 0.000000
0.590668 0.414443 0.000000
0.617644 0.415066 0.000000
0.644620 0.415688 0.000000
0.671596 0.416311 0.000000
0.698572 0.416934 0.000000
0.725549 0.417556 0.000000
0.752525 0.418179 0.000000
0.000000 0.426705 0.000000
0.000000 0.427328 0.000000
0.000000 0.427950 0.000000
0.000000 0.428573 0.000000
0.000000 0.429196 0.000000
0.026265 0.429818 0.000000
0.053241 0.430441 0.000000
0.080217 0.431063 0.000000
0.107193 0.431686 0.000000
0.134169 0.432308 0.000000
0.161145 0.432931 0.000000
0.188121 0.433553 0.000000
0.215097 0.434176 0.000000
0.242073 0.434798 0.000000
0.269050 0.435421 0.000000
0.296026 0.436043 0.000000
0.323002 0.436666 0.000000
0.349978 0.437288 0.000000
0.376954 0.437911 0.000000
0.403930 0.438533 0.000000
0.430906 0.439156 0.000000
0.457882 0.439779 0.000000
0.484858 0.440401 0.000000
0.511834 0.441024 0.000000
0.538810 0.441646 0.000000
0.565786 0.442269 0.000000
0.592762 0.442891 0.000000
0.619739 0.443514 0.000000
0.646715 0.444136 0.000000
0.673691 0.444759 0.000000
0.700667 0.445381 0.000000
0.727643 0.446004 0.000000
0.754619 0.446626 0.000000
0.000000 0.455153 0.000000
0.000000 0.455776 0.000000
0.000000 0.456398 0.000000
0.000000 0.457021 0.000000
0.001383 0.457643 0.000000
0.028359 0.458266 0.000000
0.055335 0.458888 0.000000
0.082311 0.459511 0.000000
0.109287 0.460133 0.000000
0.136263 0.460756 0.000000
0.163240 0.461378 0.000000
0.190216 0.462001 0.000000
0.217192 0.462624 0.000000
0.244168 0.463246 0.000000
0.271144 0.463869 0.000000
0.298120 0.464491 0.000000
0.325096 0.465114 0.000000
0.352072 0.465736 0.000000
0.379048 0.466359 0.000000
0.406024 0.466981 0.000000
0.433000 0.467604 0.000000
0.459976 0.468226 0.000000
0.486952 0.468849 0.000000
0.513928 0.469471 0.000000
0.540905 0.470094 0.000000
0.567881 0.470716 0.000000
0.594857 0.471339 0.000000
0.621833 0.471961 0.000000
0.648809 0.472584 0.000000
0.675785 0.473207 0.000000
0.702761 0.473829 0.000000
0.729737 0.474452 0.000000
0.756713 0.475074 0.000000
0.000000 0.483601 0.000000
0.000000 0.484223 0.000000
0.000000 0.484846 0.000000
0.000000 0.485469 0.000000
0.003477 0.486091 0.000000
0.030453 0.486714 0.000000
0.057429 0.487336 0.000000
0.084406 0.487959 0.000000
0.111382 0.488581 0.000000
0.138358 0.489204 0.000000
0.165334 0.489826 0.000000
0.192310 0.490449 0.000000
0.219286 0.491071 0.000000
0.246262 0.491694 0.000000
0.273238 0.492316 0.000000
0.300214 0.492939 0.000000
0.327190 0.493561 0.000000
0.354166 0.494184 0.000000
0.381142 0.494806 0.000000
0.408118 0.495429 0.000000
0.435094 0.496052 0.000000
0.462071 0.496674 0.000000
0.489047 0.497297 0.000000
0.516023 0.497919 0.000000
0.542999 0.498542 0.000000
0.569975 0.499164 0.000000
0.596951 0.499787 0.000000
0.623927 0.500409 0.000000
0.650903 0.501032 0.000000
0.677879 0.501654 0.000000
0.704855 0.502277 0.000000
0.731831 0.502899 0.000000
0.758807 0.503522 0.000000
0.000000 0.512049 0.000000
0.000000 0.512671 0.000000
0.000000 0.513294 0.000000
0.000000 0.513916 0.000000
0.005572 0.514539 0.000000
0.032548 0.515161 0.000000
0.059524 0.515784 0.000000
0.086500 0.516406 0.000000
0.113476 0.517029 0.000000
0.140452 0.517651 0.000000
0.167428 0.518274 0.000000
0.194404 0.518897 0.000000
0.221380 0.519519 0.000000
0.248356 0.520142 0.000000
0.275332 0.520764 0.000000
0.302308 0.521387 0.000000
0.329284 0.522009 0.000000
0.356260 0.522632 0.000000
0.383237 0.523254 0.000000
0.410213 0.523877 0.000000
0.437189 0.524499 0.000000
0.464165 0.525122 0.000000
0.491141 0.525744 0.000000
0.518117 0.526367 0.000000
0.545093 0.526989 0.000000
0.572069 0.527612 0.000000
0.599045 0.528234 0.000000
0.626021 0.528857 0.000000
0.652997 0.529480 0.000000
0.679973 0.530102 0.000000
0.706949 0.530725 0.000000
0.733925 0.531347 0.000000
0.760902 0.531970 0.000000
0.000000 0.540496 0.000000
0.000000 0.541119 0.000000
0.000000 0.541742 0.000000
0.000000 0.542364 0.000000
0.007666 0.542987 0.000000
0.034642 0.543609 0.000000
0.061618 0.544232 0.000000
0.088594 0.544854 0.000000
0.115570 0.545477 0.000000
0.142546 0.546099 0.000000
0.169522 0.546722 0.000000
0.196498 0.547344 0.000000
0.223474 0.547967 0.000000
0.250450 0.548589 0.000000
0.277426 0.549212 0.000000
0.304403 0.549834 0.000000
0.331379 0.550457 0.000000
0.358355 0.551079 0.000000
0.385331 0.551702 0.000000
0.412307 0.552325 0.000000
0.439283 0.552947 0.000000
0.466259 0.553570 0.000000
0.493235 0.554192 0.000000
0.520211 0.554815 0.000000
0.547187 0.555437 0.000000
0.574163 0.556060 0.000000
0.601139 0.556682 0.000000
0.628115 0.557305 0.000000
0.655091 0.557927 0.000000
0.682068 0.558550 0.000000
0.709044 0.559172 0.000000
0.736020 0.559795 0.000000
0.762996 0.560417 0.000000
0.000000 0.568944 0.000000
0.000000 0.569567 0.000000
0.000000 0.570189 0.000000
0.000000 0.570812 0.000000
0.009760 0.571434 0.000000
0.036736 0.572057 0.000000
0.063712 0.572679 0.000000
0.090688 0.573302 0.000000
0.117664 0.573925 0.000000
0.144640 0.574547 0.000000
0.171616 0.575170 0.000000
0.198592 0.575792 0.000000
0.225569 0.576415 0.000000
0.252545 0.577037 0.000000
0.279521 0.577660 0.000000
0.306497 0.578282 0.000000
0.333473 0.578905 0.000000
0.360449 0.579527 0.000000
0.387425 0.580150 0.000000
0.414401 0.580772 0.000000
0.441377 0.581395 0.000000
0.468353 0.582017 0.000000
0.495329 0.582640 0.000000
0.522305 0.583262 0.000000
0.549281 0.583885 0.000000
0.576257 0.584507 0.000000
0.603234 0.585130 0.000000
0.630210 0.585753 0.000000
0.657186 0.586375 0.000000
0.684162 0.586998 0.000000
0.711138 0.587620 0.000000
0.738114 0.588243 0.000000
0.765090 0.588865 0.000000
0.000000 0.597392 0.000000
0.000000 0.598015 0.000000
0.000000 0.598637 0.000000
0.000000 0.599260 0.000000
0.011854 0.599882 0.000000
0.038830 0.600505 0.000000
0.065806 0.601127 0.000000
0.092782 0.601750 0.000000
0.119759 0.602372 0.000000
0.146735 0.602995 0.000000
0.173711 0.603617 0.000000
0.200687 0.604240 0.000000
0.227663 0.604862 0.000000
0.254639 0.605485 0.000000
0.281615 0.606107 0.000000
0.308591 0.606730 0.000000
0.335567 0.607353 0.000000
0.362543 0.607975 0.000000
0.389519 0.608598 0.000000
0.416495 0.609220 0.000000
0.443471 0.609843 0.000000
0.470447 0.610465 0.000000
0.497424 0.611088 0.000000
0.524400 0.611710 0.000000
0.551376 0.612333 0.000000
0.578352 0.612955 0.000000
0.605328 0.613578 0.000000
0.632304 0.614200 0.000000
