fexer/Resources/LUTs/cinematic_teal_orange.cube
TITLE "Cinematic"
LUT_3D_SIZE 5
DOMAIN_MIN 0.0 0.0 0.0
DOMAIN_MAX 1.0 1.0 1.0
0.000000 0.027459 0.065353
0.209554 0.031514 0.059271
0.433544 0.035568 0.053189
0.657533 0.039623 0.047106
0.881523 0.043678 0.041024
0.033307 0.250897 0.044892
0.257297 0.254952 0.038810
0.474821 0.260623 0.042425
0.690701 0.266705 0.048508
0.906581 0.272788 0.054590
0.063522 0.478717 0.050722
0.279402 0.484800 0.056804
0.495282 0.490882 0.062886
0.711162 0.496964 0.068969
0.927042 0.503046 0.075051
0.083983 0.708976 0.071183
0.299863 0.715058 0.077265
0.515743 0.721141 0.083347
0.731623 0.727223 0.089430
0.947503 0.733305 0.095512
0.104444 0.939235 0.091644
0.320524 0.945367 0.097577
0.544513 0.953477 0.097577
0.768503 0.961586 0.097577
0.992492 0.969696 0.097577
0.000000 0.028836 0.273085
0.214374 0.032891 0.267003
0.438363 0.036946 0.260921
0.662353 0.041000 0.254839
0.886343 0.045055 0.248756
0.038127 0.252274 0.252624
0.261007 0.256607 0.248207
0.476886 0.262689 0.254289
0.692766 0.268771 0.260371
0.908646 0.274853 0.266453
0.065588 0.480783 0.262585
0.281468 0.486865 0.268668
0.497347 0.492947 0.274750
0.713227 0.499030 0.280832
0.929107 0.505112 0.286914
0.086049 0.711042 0.283046
0.301929 0.717124 0.289129
0.517809 0.723206 0.295211
0.733688 0.729288 0.301293
0.949570 0.735371 0.307374
0.106510 0.941301 0.303507
0.325343 0.948121 0.307374
0.549333 0.956231 0.307374
0.773322 0.964340 0.307374
0.997312 0.972450 0.307374
0.000000 0.030213 0.480817
0.219193 0.034268 0.474735
0.443183 0.038323 0.468653
0.667173 0.042377 0.462571
0.890251 0.046660 0.457856
0.042946 0.253651 0.460356
0.263072 0.258672 0.460070
0.478952 0.264754 0.466152
0.694832 0.270837 0.472234
0.910712 0.276919 0.478317
0.067653 0.482849 0.474449
0.283533 0.488931 0.480531
0.499413 0.495013 0.486613
0.715293 0.501095 0.492695
0.931173 0.507178 0.498778
0.088114 0.713107 0.494910
0.303994 0.719190 0.500992
0.519874 0.725272 0.507074
0.735754 0.731354 0.513156
0.954389 0.738125 0.517172
0.108575 0.943366 0.515371
0.330163 0.950875 0.517172
0.554152 0.958985 0.517172
0.778142 0.967095 0.517172
1.000000 0.975204 0.517172
0.000024 0.031590 0.688550
0.224013 0.035645 0.682467
0.448003 0.039700 0.676385
0.671992 0.043754 0.670303
0.892317 0.048726 0.669719
0.047766 0.255028 0.668089
0.265138 0.260738 0.671933
0.481018 0.266820 0.678015
0.696898 0.272902 0.684098
0.912778 0.278984 0.690180
0.069719 0.484914 0.686312
0.285599 0.490996 0.692394
0.501479 0.497079 0.698476
0.717359 0.503161 0.704559
0.933239 0.509243 0.710641
0.090180 0.715173 0.706773
0.306060 0.721255 0.712855
0.521940 0.727337 0.718937
0.737820 0.733420 0.725020
0.959209 0.740879 0.726970
0.110993 0.945520 0.726970
0.334982 0.953629 0.726970
0.558972 0.961739 0.726970
0.782962 0.969849 0.726970
1.000000 0.977958 0.726970
0.004843 0.032967 0.896282
0.228833 0.037022 0.890200
0.452822 0.041077 0.884117
0.676812 0.045131 0.878035
0.894382 0.050791 0.881582
0.051323 0.256721 0.877714
0.267203 0.262803 0.883796
0.483083 0.268885 0.889879
0.698963 0.274968 0.895961
0.914843 0.281050 0.902043
0.071784 0.486980 0.898175
0.287664 0.493062 0.904257
0.503544 0.499144 0.910340
0.719424 0.505226 0.916422
0.935304 0.511309 0.922504
0.092245 0.717238 0.918636
0.308125 0.723321 0.924718
0.524005 0.729403 0.930801
0.740039 0.735524 0.936767
0.964029 0.743633 0.936767
0.115812 0.948274 0.936767
0.339802 0.956383 0.936767
0.563792 0.964493 0.936767
0.787781 0.972603 0.936767
1.000000 0.980712 0.936767
