fexer/Resources/LUTs/cinematic_teal_orange.cube
TITLE "Cinematic"
LUT_3D_SIZE 33
DOMAIN_MIN 0.0 0.0 0.0
DOMAIN_MAX 1.0 1.0 1.0
0.000000 0.027459 0.065353
0.013563 0.027966 0.064593
0.041562 0.028473 0.063832
0.069561 0.028979 0.063072
0.097559 0.029486 0.062312
0.125558 0.029993 0.061552
0.153557 0.030500 0.060791
0.181556 0.031007 0.060031
0.209554 0.031514 0.059271
0.237553 0.032021 0.058511
0.265552 0.032527 0.057750
0.293550 0.033034 0.056990
0.321549 0.033541 0.056230
0.349548 0.034048 0.055469
0.377546 0.034555 0.054709
0.405545 0.035062 0.053949
0.433544 0.035568 0.053189
0.461543 0.036075 0.052428
0.489541 0.036582 0.051668
0.517540 0.037089 0.050908
0.545539 0.037596 0.050147
0.573537 0.038103 0.049387
0.601536 0.038610 0.048627
0.629535 0.039116 0.047867
0.657533 0.039623 0.047106
0.685532 0.040130 0.046346
0.713531 0.040637 0.045586
0.741530 0.041144 0.044826
0.769528 0.041651 0.044065
0.797527 0.042158 0.043305
0.825526 0.042664 0.042545
0.853524 0.043171 0.041784
0.881523 0.043678 0.041024
0.000000 0.055389 0.062795
0.019531 0.055895 0.062035
0.047530 0.056402 0.061275
0.075529 0.056909 0.060515
0.103527 0.057416 0.059754
0.131526 0.057923 0.058994
0.159525 0.058430 0.058234
0.187523 0.058937 0.057473
0.215522 0.059443 0.056713
0.243521 0.059950 0.055953
0.271519 0.060457 0.055193
0.299518 0.060964 0.054432
0.327517 0.061471 0.053672
0.355516 0.061978 0.052912
0.383514 0.062485 0.052152
0.411513 0.062991 0.051391
0.439512 0.063498 0.050631
0.467510 0.064005 0.049871
0.495509 0.064512 0.049110
0.523508 0.065019 0.048350
0.551506 0.065526 0.047590
0.579505 0.066033 0.046830
0.607504 0.066539 0.046069
0.635503 0.067046 0.045309
0.663501 0.067553 0.044549
0.691500 0.068060 0.043788
0.719499 0.068567 0.043028
0.747497 0.069074 0.042268
0.775496 0.069581 0.041508
0.803495 0.070087 0.040747
0.831493 0.070594 0.039987
0.859492 0.071101 0.039227
0.887491 0.071608 0.038467
0.000000 0.083318 0.060238
0.025499 0.083825 0.059478
0.053498 0.084332 0.058717
0.081496 0.084839 0.057957
0.109495 0.085346 0.057197
0.137494 0.085853 0.056436
0.165492 0.086360 0.055676
0.193491 0.086866 0.054916
0.221490 0.087373 0.054156
0.249489 0.087880 0.053395
0.277487 0.088387 0.052635
0.305486 0.088894 0.051875
0.333485 0.089401 0.051114
0.361483 0.089908 0.050354
0.389482 0.090414 0.049594
0.417481 0.090921 0.048834
0.445479 0.091428 0.048073
0.473478 0.091935 0.047313
0.501477 0.092442 0.046553
0.529476 0.092949 0.045793
0.557474 0.093455 0.045032
0.585473 0.093962 0.044272
0.613472 0.094469 0.043512
0.641470 0.094976 0.042751
0.669469 0.095483 0.041991
0.697468 0.095990 0.041231
0.725466 0.096497 0.040471
0.753465 0.097003 0.039710
0.781464 0.097510 0.038950
0.809463 0.098017 0.038190
0.837265 0.098573 0.037724
0.864250 0.099333 0.038484
0.891235 0.100094 0.039244
0.003468 0.111248 0.057680
0.031467 0.111755 0.056920
0.059465 0.112262 0.056160
0.087464 0.112769 0.055399
0.115463 0.113276 0.054639
0.143462 0.113783 0.053879
0.171460 0.114289 0.053119
0.199459 0.114796 0.052358
0.227458 0.115303 0.051598
0.255456 0.115810 0.050838
0.283455 0.116317 0.050077
0.311454 0.116824 0.049317
0.339452 0.117330 0.048557
0.367451 0.117837 0.047797
0.395450 0.118344 0.047036
0.423449 0.118851 0.046276
0.451447 0.119358 0.045516
0.479446 0.119865 0.044755
0.507445 0.120372 0.043995
0.535443 0.120878 0.043235
0.563442 0.121385 0.042475
0.591441 0.121892 0.041714
0.619439 0.122399 0.040954
0.647438 0.122906 0.040194
0.675437 0.123413 0.039433
0.703436 0.123920 0.038673
0.731434 0.124426 0.037913
0.758868 0.125075 0.038000
0.785853 0.125835 0.038761
0.812838 0.126595 0.039521
0.839823 0.127355 0.040281
0.866808 0.128116 0.041042
0.893793 0.128876 0.041802
0.009436 0.139178 0.055123
0.037435 0.139685 0.054362
0.065433 0.140192 0.053602
0.093432 0.140699 0.052842
0.121431 0.141205 0.052081
0.149429 0.141712 0.051321
0.177428 0.142219 0.050561
0.205427 0.142726 0.049801
0.233425 0.143233 0.049040
0.261424 0.143740 0.048280
0.289423 0.144247 0.047520
0.317422 0.144753 0.046759
0.345420 0.145260 0.045999
0.373419 0.145767 0.045239
0.401418 0.146274 0.044479
0.429416 0.146781 0.043718
0.457415 0.147288 0.042958
0.485414 0.147795 0.042198
0.513412 0.148301 0.041438
0.541411 0.148808 0.040677
0.569410 0.149315 0.039917
0.597409 0.149822 0.039157
0.625407 0.150329 0.038396
0.653406 0.150836 0.037636
0.680470 0.151576 0.038277
0.707455 0.152336 0.039037
0.734440 0.153097 0.039798
0.761425 0.153857 0.040558
0.788410 0.154617 0.041318
0.815395 0.155377 0.042079
0.842380 0.156138 0.042839
0.869365 0.156898 0.043599
0.896350 0.157658 0.044359
0.015404 0.167108 0.052565
0.043402 0.167615 0.051805
0.071401 0.168122 0.051044
0.099400 0.168628 0.050284
0.127398 0.169135 0.049524
0.155397 0.169642 0.048764
0.183396 0.170149 0.048003
0.211395 0.170656 0.047243
0.239393 0.171163 0.046483
0.267392 0.171670 0.045722
0.295391 0.172176 0.044962
0.323389 0.172683 0.044202
0.351388 0.173190 0.043442
0.379387 0.173697 0.042681
0.407385 0.174204 0.041921
0.435384 0.174711 0.041161
0.463383 0.175217 0.040400
0.491382 0.175724 0.039640
0.519380 0.176231 0.038880
0.547379 0.176738 0.038120
0.575088 0.177317 0.037794
0.602073 0.178078 0.038554
0.629058 0.178838 0.039314
0.656043 0.179598 0.040075
0.683028 0.180358 0.040835
0.710013 0.181119 0.041595
0.736998 0.181879 0.042355
0.763983 0.182639 0.043116
0.790968 0.183400 0.043876
0.817953 0.184160 0.044636
0.844938 0.184920 0.045396
0.871923 0.185680 0.046157
0.898908 0.186441 0.046917
0.021371 0.195038 0.050007
0.049370 0.195545 0.049247
0.077369 0.196051 0.048487
0.105367 0.196558 0.047726
0.133366 0.197065 0.046966
0.161365 0.197572 0.046206
0.189364 0.198079 0.045446
0.217362 0.198586 0.044685
0.245361 0.199092 0.043925
0.273360 0.199599 0.043165
0.301358 0.200106 0.042405
0.329357 0.200613 0.041644
0.357356 0.201120 0.040884
0.385354 0.201627 0.040124
0.413353 0.202134 0.039363
0.441352 0.202640 0.038603
0.469351 0.203147 0.037843
0.496691 0.203819 0.038070
0.523676 0.204579 0.038831
0.550661 0.205339 0.039591
0.577646 0.206100 0.040351
0.604631 0.206860 0.041112
0.631616 0.207620 0.041872
0.658601 0.208380 0.042632
0.685586 0.209141 0.043392
0.712571 0.209901 0.044153
0.739556 0.210661 0.044913
0.766541 0.211422 0.045673
0.793526 0.212182 0.046434
0.820511 0.212942 0.047194
0.847496 0.213702 0.047954
0.874481 0.214463 0.048714
0.901466 0.215223 0.049475
0.027339 0.222967 0.047450
0.055338 0.223474 0.046689
0.083337 0.223981 0.045929
0.111335 0.224488 0.045169
0.139334 0.224995 0.044409
0.167333 0.225502 0.043648
0.195331 0.226009 0.042888
0.223330 0.226515 0.042128
0.251329 0.227022 0.041367
0.279327 0.227529 0.040607
0.307326 0.228036 0.039847
0.335325 0.228543 0.039087
0.363324 0.229050 0.038326
0.391308 0.229560 0.037587
0.418293 0.230320 0.038347
0.445278 0.231081 0.039108
0.472263 0.231841 0.039868
0.499248 0.232601 0.040628
0.526233 0.233361 0.041388
0.553218 0.234122 0.042149
0.580203 0.234882 0.042909
0.607188 0.235642 0.043669
0.634173 0.236403 0.044430
0.661158 0.237163 0.045190
0.688143 0.237923 0.045950
0.715128 0.238683 0.046710
0.742113 0.239444 0.047471
0.769098 0.240204 0.048231
0.796083 0.240964 0.048991
0.823068 0.241724 0.049751
0.850053 0.242485 0.050512
0.877038 0.243245 0.051272
0.904023 0.244005 0.052032
0.033307 0.250897 0.044892
0.061306 0.251404 0.044132
0.089304 0.251911 0.043371
0.117303 0.252418 0.042611
0.145302 0.252925 0.041851
0.173300 0.253432 0.041091
0.201299 0.253938 0.040330
0.229298 0.254445 0.039570
0.257297 0.254952 0.038810
0.285295 0.255459 0.038050
0.312911 0.256062 0.037864
0.339896 0.256822 0.038624
0.366881 0.257582 0.039384
0.393866 0.258342 0.040145
0.420851 0.259103 0.040905
0.447836 0.259863 0.041665
0.474821 0.260623 0.042425
0.501806 0.261383 0.043186
0.528791 0.262144 0.043946
0.555776 0.262904 0.044706
0.582761 0.263664 0.045467
0.609746 0.264425 0.046227
0.636731 0.265185 0.046987
0.663716 0.265945 0.047747
0.690701 0.266705 0.048508
0.717686 0.267466 0.049268
0.744671 0.268226 0.050028
0.771656 0.268986 0.050789
0.798641 0.269747 0.051549
0.825626 0.270507 0.052309
0.852611 0.271267 0.053069
0.879596 0.272027 0.053830
0.906581 0.272788 0.054590
0.039275 0.278827 0.042334
0.067273 0.279334 0.041574
0.095272 0.279841 0.040814
0.123271 0.280348 0.040054
0.151270 0.280854 0.039293
0.179268 0.281361 0.038533
0.207267 0.281868 0.037773
0.234514 0.282563 0.038141
0.261499 0.283323 0.038901
0.288484 0.284084 0.039661
0.315469 0.284844 0.040421
0.342454 0.285604 0.041182
0.369439 0.286364 0.041942
0.396424 0.287125 0.042702
0.423409 0.287885 0.043463
0.450394 0.288645 0.044223
0.477379 0.289406 0.044983
0.504364 0.290166 0.045743
0.531349 0.290926 0.046504
0.558334 0.291686 0.047264
0.585319 0.292447 0.048024
0.612304 0.293207 0.048784
0.639289 0.293967 0.049545
0.666274 0.294727 0.050305
0.693259 0.295488 0.051065
0.720244 0.296248 0.051826
0.747229 0.297008 0.052586
0.774214 0.297769 0.053346
0.801199 0.298529 0.054106
0.828184 0.299289 0.054867
0.855169 0.300049 0.055627
0.882154 0.300810 0.056387
0.909139 0.301570 0.057148
0.045243 0.306757 0.039777
0.073241 0.307264 0.039017
0.101240 0.307771 0.038256
0.129131 0.308304 0.037657
0.156116 0.309065 0.038417
0.183101 0.309825 0.039178
0.210086 0.310585 0.039938
0.237071 0.311345 0.040698
0.264056 0.312106 0.041458
0.291041 0.312866 0.042219
0.318026 0.313626 0.042979
0.345011 0.314386 0.043739
0.371996 0.315147 0.044500
0.398981 0.315907 0.045260
0.425966 0.316667 0.046020
0.452951 0.317428 0.046780
0.479936 0.318188 0.047541
0.506921 0.318948 0.048301
0.533906 0.319708 0.049061
0.560891 0.320469 0.049822
0.587876 0.321229 0.050582
0.614861 0.321989 0.051342
0.641846 0.322750 0.052102
0.668831 0.323510 0.052863
0.695816 0.324270 0.053623
0.722801 0.325030 0.054383
0.749786 0.325791 0.055143
0.776771 0.326551 0.055904
0.803756 0.327311 0.056664
0.830741 0.328072 0.057424
0.857726 0.328832 0.058185
0.884711 0.329592 0.058945
0.911696 0.330352 0.059705
0.050734 0.334806 0.037934
0.077719 0.335566 0.038694
0.104704 0.336326 0.039454
0.131689 0.337087 0.040215
0.158674 0.337847 0.040975
0.185659 0.338607 0.041735
0.212644 0.339367 0.042496
0.239629 0.340128 0.043256
0.266614 0.340888 0.044016
0.293599 0.341648 0.044776
0.320584 0.342409 0.045537
0.347569 0.343169 0.046297
0.374554 0.343929 0.047057
0.401539 0.344689 0.047817
0.428524 0.345450 0.048578
0.455509 0.346210 0.049338
0.482494 0.346970 0.050098
0.509479 0.347731 0.050859
0.536464 0.348491 0.051619
0.563449 0.349251 0.052379
0.590434 0.350011 0.053139
0.617419 0.350772 0.053900
0.644404 0.351532 0.054660
0.671389 0.352292 0.055420
0.698374 0.353052 0.056181
0.725359 0.353813 0.056941
0.752344 0.354573 0.057701
0.779329 0.355333 0.058461
0.806314 0.356094 0.059222
0.833299 0.356854 0.059982
0.860284 0.357614 0.060742
0.887269 0.358374 0.061503
0.914254 0.359135 0.062263
0.053292 0.363588 0.040492
0.080276 0.364348 0.041252
0.107261 0.365109 0.042012
0.134246 0.365869 0.042772
0.161231 0.366629 0.043533
0.188216 0.367390 0.044293
0.215201 0.368150 0.045053
0.242186 0.368910 0.045813
0.269171 0.369670 0.046574
0.296156 0.370431 0.047334
0.323141 0.371191 0.048094
0.350126 0.371951 0.048855
0.377111 0.372711 0.049615
0.404096 0.373472 0.050375
0.431081 0.374232 0.051135
0.458066 0.374992 0.051896
0.485051 0.375753 0.052656
0.512036 0.376513 0.053416
0.539021 0.377273 0.054177
0.566006 0.378033 0.054937
0.592991 0.378794 0.055697
0.619976 0.379554 0.056457
0.646961 0.380314 0.057218
0.673946 0.381075 0.057978
0.700931 0.381835 0.058738
0.727916 0.382595 0.059498
0.754901 0.383355 0.060259
0.781886 0.384116 0.061019
0.808871 0.384876 0.061779
0.835856 0.385636 0.062540
0.862841 0.386396 0.063300
0.889826 0.387157 0.064060
0.916811 0.387917 0.064820
0.055849 0.392370 0.043049
0.082834 0.393131 0.043809
0.109819 0.393891 0.044570
0.136804 0.394651 0.045330
0.163789 0.395412 0.046090
0.190774 0.396172 0.046851
0.217759 0.396932 0.047611
0.244744 0.397692 0.048371
0.271729 0.398453 0.049131
0.298714 0.399213 0.049892
0.325699 0.399973 0.050652
0.352684 0.400734 0.051412
0.379669 0.401494 0.052172
0.406654 0.402254 0.052933
0.433639 0.403014 0.053693
0.460624 0.403775 0.054453
0.487609 0.404535 0.055214
0.514594 0.405295 0.055974
0.541579 0.406055 0.056734
0.568564 0.406816 0.057494
0.595549 0.407576 0.058255
0.622534 0.408336 0.059015
0.649519 0.409097 0.059775
0.676504 0.409857 0.060536
0.703489 0.410617 0.061296
0.730474 0.411377 0.062056
0.757459 0.412138 0.062816
0.784444 0.412898 0.063577
0.811429 0.413658 0.064337
0.838414 0.414419 0.065097
0.865399 0.415179 0.065857
0.892384 0.415939 0.066618
0.919369 0.416699 0.067378
0.058407 0.421153 0.045607
0.085392 0.421913 0.046367
0.112377 0.422673 0.047127
0.139362 0.423434 0.047888
0.166347 0.424194 0.048648
0.193332 0.424954 0.049408
0.220317 0.425714 0.050168
0.247302 0.426475 0.050929
0.274287 0.427235 0.051689
0.301272 0.427995 0.052449
0.328257 0.428756 0.053210
0.355242 0.429516 0.053970
0.382227 0.430276 0.054730
0.409212 0.431036 0.055490
0.436197 0.431797 0.056251
0.463182 0.432557 0.057011
0.490167 0.433317 0.057771
0.517152 0.434078 0.058531
0.544137 0.434838 0.059292
0.571122 0.435598 0.060052
0.598107 0.436358 0.060812
0.625092 0.437119 0.061573
0.652077 0.437879 0.062333
0.679062 0.438639 0.063093
0.706047 0.439399 0.063853
0.733032 0.440160 0.064614
0.760017 0.440920 0.065374
0.787002 0.441680 0.066134
0.813987 0.442441 0.066895
0.840972 0.443201 0.067655
0.867957 0.443961 0.068415
0.894942 0.444721 0.069175
0.921927 0.445482 0.069936
0.060964 0.449935 0.048164
0.087949 0.450695 0.048925
0.114934 0.451456 0.049685
0.141919 0.452216 0.050445
0.168904 0.452976 0.051205
0.195889 0.453737 0.051966
0.222874 0.454497 0.052726
0.249859 0.455257 0.053486
0.276844 0.456017 0.054247
0.303829 0.456778 0.055007
0.330814 0.457538 0.055767
0.357799 0.458298 0.056527
0.384784 0.459058 0.057288
0.411769 0.459819 0.058048
0.438754 0.460579 0.058808
0.465739 0.461339 0.059569
0.492724 0.462100 0.060329
0.519709 0.462860 0.061089
0.546694 0.463620 0.061849
0.573679 0.464380 0.062610
0.600664 0.465141 0.063370
0.627649 0.465901 0.064130
0.654634 0.466661 0.064891
0.681619 0.467422 0.065651
0.708604 0.468182 0.066411
0.735589 0.468942 0.067171
0.762574 0.469702 0.067932
0.789559 0.470463 0.068692
0.816544 0.471223 0.069452
0.843529 0.471983 0.070212
0.870514 0.472744 0.070973
0.897499 0.473504 0.071733
0.924484 0.474264 0.072493
0.063522 0.478717 0.050722
0.090507 0.479478 0.051482
0.117492 0.480238 0.052243
0.144477 0.480998 0.053003
0.171462 0.481759 0.053763
0.198447 0.482519 0.054523
0.225432 0.483279 0.055284
0.252417 0.484039 0.056044
0.279402 0.484800 0.056804
0.306387 0.485560 0.057565
0.333372 0.486320 0.058325
0.360357 0.487081 0.059085
0.387342 0.487841 0.059845
0.414327 0.488601 0.060606
0.441312 0.489361 0.061366
0.468297 0.490122 0.062126
0.495282 0.490882 0.062886
0.522267 0.491642 0.063647
0.549252 0.492403 0.064407
0.576237 0.493163 0.065167
0.603222 0.493923 0.065928
0.630207 0.494683 0.066688
0.657192 0.495444 0.067448
0.684177 0.496204 0.068208
0.711162 0.496964 0.068969
0.738147 0.497724 0.069729
0.765132 0.498485 0.070489
0.792117 0.499245 0.071250
0.819102 0.500005 0.072010
0.846087 0.500766 0.072770
0.873072 0.501526 0.073530
0.900057 0.502286 0.074291
0.927042 0.503046 0.075051
0.066080 0.507500 0.053280
0.093065 0.508260 0.054040
0.120050 0.509020 0.054800
0.147035 0.509781 0.055560
0.174020 0.510541 0.056321
0.201005 0.511301 0.057081
0.227990 0.512062 0.057841
0.254975 0.512822 0.058602
0.281960 0.513582 0.059362
0.308945 0.514342 0.060122
0.335930 0.515103 0.060882
0.362915 0.515863 0.061643
0.389900 0.516623 0.062403
0.416885 0.517383 0.063163
0.443870 0.518144 0.063924
0.470855 0.518904 0.064684
0.497840 0.519664 0.065444
0.524825 0.520425 0.066204
0.551810 0.521185 0.066965
0.578795 0.521945 0.067725
0.605780 0.522705 0.068485
0.632765 0.523466 0.069245
0.659750 0.524226 0.070006
0.686735 0.524986 0.070766
0.713720 0.525747 0.071526
0.740705 0.526507 0.072287
0.767690 0.527267 0.073047
0.794675 0.528027 0.073807
0.821660 0.528788 0.074567
0.848645 0.529548 0.075328
0.875630 0.530308 0.076088
0.902615 0.531068 0.076848
0.929600 0.531829 0.077609
0.068637 0.536282 0.055837
0.095622 0.537042 0.056598
0.122607 0.537803 0.057358
0.149592 0.538563 0.058118
0.176577 0.539323 0.058878
0.203562 0.540084 0.059639
0.230547 0.540844 0.060399
0.257532 0.541604 0.061159
0.284517 0.542364 0.061919
0.311502 0.543125 0.062680
0.338487 0.543885 0.063440
0.365472 0.544645 0.064200
0.392457 0.545406 0.064961
0.419442 0.546166 0.065721
0.446427 0.546926 0.066481
0.473412 0.547686 0.067241
0.500397 0.548447 0.068002
0.527382 0.549207 0.068762
0.554367 0.549967 0.069522
0.581352 0.550727 0.070283
0.608337 0.551488 0.071043
0.635322 0.552248 0.071803
0.662307 0.553008 0.072563
0.689292 0.553769 0.073324
0.716277 0.554529 0.074084
0.743262 0.555289 0.074844
0.770247 0.556049 0.075604
0.797232 0.556810 0.076365
0.824217 0.557570 0.077125
0.851202 0.558330 0.077885
0.878187 0.559091 0.078646
0.905172 0.559851 0.079406
0.932157 0.560611 0.080166
0.071195 0.565065 0.058395
0.098180 0.565825 0.059155
0.125165 0.566585 0.059915
0.152150 0.567345 0.060676
0.179135 0.568106 0.061436
0.206120 0.568866 0.062196
0.233105 0.569626 0.062957
0.260090 0.570386 0.063717
0.287075 0.571147 0.064477
0.314060 0.571907 0.065237
0.341045 0.572667 0.065998
0.368030 0.573428 0.066758
0.395015 0.574188 0.067518
0.422000 0.574948 0.068278
0.448985 0.575708 0.069039
0.475970 0.576469 0.069799
0.502955 0.577229 0.070559
0.529940 0.577989 0.071320
0.556925 0.578750 0.072080
0.583910 0.579510 0.072840
0.610895 0.580270 0.073600
0.637880 0.581030 0.074361
0.664865 0.581791 0.075121
0.691850 0.582551 0.075881
0.718835 0.583311 0.076642
0.745820 0.584071 0.077402
0.772805 0.584832 0.078162
0.799790 0.585592 0.078922
0.826775 0.586352 0.079683
0.853760 0.587113 0.080443
0.880745 0.587873 0.081203
0.907730 0.588633 0.081964
0.934715 0.589393 0.082724
0.073753 0.593847 0.060953
0.100738 0.594607 0.061713
0.127722 0.595367 0.062473
0.154707 0.596128 0.063233
0.181692 0.596888 0.063994
0.208677 0.597648 0.064754
0.235662 0.598409 0.065514
0.262647 0.599169 0.066274
0.289632 0.599929 0.067035
0.316617 0.600689 0.067795
0.343602 0.601450 0.068555
0.370587 0.602210 0.069316
0.397572 0.602970 0.070076
0.424557 0.603730 0.070836
0.451542 0.604491 0.071596
0.478527 0.605251 0.072357
0.505512 0.606011 0.073117
0.532497 0.606772 0.073877
0.559482 0.607532 0.074638
0.586467 0.608292 0.075398
0.613452 0.609052 0.076158
0.640437 0.609813 0.076918
0.667422 0.610573 0.077679
0.694407 0.611333 0.078439
0.721392 0.612094 0.079199
0.748377 0.612854 0.079959
0.775362 0.613614 0.080720
0.802347 0.614374 0.081480
0.829332 0.615135 0.082240
0.856317 0.615895 0.083001
0.883302 0.616655 0.083761
0.910287 0.617415 0.084521
0.937272 0.618176 0.085281
0.076310 0.622629 0.063510
0.103295 0.623389 0.064270
0.130280 0.624150 0.065031
0.157265 0.624910 0.065791
0.184250 0.625670 0.066551
0.211235 0.626431 0.067312
0.238220 0.627191 0.068072
0.265205 0.627951 0.068832
0.292190 0.628711 0.069592
0.319175 0.629472 0.070353
0.346160 0.630232 0.071113
0.373145 0.630992 0.071873
0.400130 0.631753 0.072633
0.427115 0.632513 0.073394
0.454100 0.633273 0.074154
0.481085 0.634033 0.074914
0.508070 0.634794 0.075675
0.535055 0.635554 0.076435
0.562040 0.636314 0.077195
0.589025 0.637074 0.077955
0.616010 0.637835 0.078716
0.642995 0.638595 0.079476
0.669980 0.639355 0.080236
0.696965 0.640116 0.080997
0.723950 0.640876 0.081757
0.750935 0.641636 0.082517
0.777920 0.642396 0.083277
0.804905 0.643157 0.084038
0.831890 0.643917 0.084798
0.858875 0.644677 0.085558
0.885860 0.645438 0.086318
0.912845 0.646198 0.087079
0.939830 0.646958 0.087839
0.078868 0.651412 0.066068
0.105853 0.652172 0.066828
0.132838 0.652932 0.067588
0.159823 0.653692 0.068349
0.186808 0.654453 0.069109
0.213793 0.655213 0.069869
0.240778 0.655973 0.070629
0.267763 0.656733 0.071390
0.294748 0.657494 0.072150
0.321733 0.658254 0.072910
0.348718 0.659014 0.073671
0.375703 0.659775 0.074431
0.402688 0.660535 0.075191
0.429673 0.661295 0.075951
0.456658 0.662055 0.076712
0.483643 0.662816 0.077472
0.510628 0.663576 0.078232
0.537613 0.664336 0.078992
0.564598 0.665097 0.079753
0.591583 0.665857 0.080513
0.618568 0.666617 0.081273
0.645553 0.667377 0.082034
0.672538 0.668138 0.082794
0.699523 0.668898 0.083554
0.726508 0.669658 0.084314
0.753493 0.670419 0.085075
0.780478 0.671179 0.085835
0.807463 0.671939 0.086595
0.834448 0.672699 0.087356
0.861433 0.673460 0.088116
0.888418 0.674220 0.088876
0.915403 0.674980 0.089636
0.942388 0.675740 0.090397
0.081425 0.680194 0.068625
0.108410 0.680954 0.069386
0.135395 0.681714 0.070146
0.162380 0.682475 0.070906
0.189365 0.683235 0.071666
0.216350 0.683995 0.072427
0.243335 0.684756 0.073187
0.270320 0.685516 0.073947
0.297305 0.686276 0.074708
0.324290 0.687036 0.075468
0.351275 0.687797 0.076228
0.378260 0.688557 0.076988
0.405245 0.689317 0.077749
0.432230 0.690078 0.078509
0.459215 0.690838 0.079269
0.486200 0.691598 0.080030
0.513185 0.692358 0.080790
0.540170 0.693119 0.081550
0.567155 0.693879 0.082310
0.594140 0.694639 0.083071
0.621125 0.695399 0.083831
0.648110 0.696160 0.084591
0.675095 0.696920 0.085352
0.702080 0.697680 0.086112
0.729065 0.698441 0.086872
0.756050 0.699201 0.087632
0.783035 0.699961 0.088393
0.810020 0.700721 0.089153
0.837005 0.701482 0.089913
0.863990 0.702242 0.090673
0.890975 0.703002 0.091434
0.917960 0.703763 0.092194
0.944945 0.704523 0.092954
0.083983 0.708976 0.071183
0.110968 0.709737 0.071943
0.137953 0.710497 0.072704
0.164938 0.711257 0.073464
0.191923 0.712017 0.074224
0.218908 0.712778 0.074984
0.245893 0.713538 0.075745
0.272878 0.714298 0.076505
0.299863 0.715058 0.077265
0.326848 0.715819 0.078026
0.353833 0.716579 0.078786
0.380818 0.717339 0.079546
0.407803 0.718100 0.080306
0.434788 0.718860 0.081067
0.461773 0.719620 0.081827
0.488758 0.720380 0.082587
0.515743 0.721141 0.083347
0.542728 0.721901 0.084108
0.569713 0.722661 0.084868
0.596698 0.723422 0.085628
0.623683 0.724182 0.086389
0.650668 0.724942 0.087149
0.677653 0.725702 0.087909
0.704638 0.726463 0.088669
0.731623 0.727223 0.089430
0.758608 0.727983 0.090190
0.785593 0.728743 0.090950
0.812578 0.729504 0.091711
0.839563 0.730264 0.092471
0.866548 0.731024 0.093231
0.893533 0.731785 0.093991
0.920518 0.732545 0.094752
0.947503 0.733305 0.095512
0.086541 0.737759 0.073741
0.113526 0.738519 0.074501
0.140511 0.739279 0.075261
0.167496 0.740039 0.076021
0.194481 0.740800 0.076782
0.221466 0.741560 0.077542
0.248451 0.742320 0.078302
0.275436 0.743081 0.079063
0.302421 0.743841 0.079823
0.329406 0.744601 0.080583
0.356391 0.745361 0.081343
0.383376 0.746122 0.082104
0.410361 0.746882 0.082864
0.437346 0.747642 0.083624
0.464331 0.748402 0.084385
0.491316 0.749163 0.085145
0.518301 0.749923 0.085905
0.545286 0.750683 0.086665
0.572271 0.751444 0.087426
0.599256 0.752204 0.088186
0.626241 0.752964 0.088946
0.653226 0.753724 0.089706
0.680211 0.754485 0.090467
0.707196 0.755245 0.091227
0.734181 0.756005 0.091987
0.761166 0.756766 0.092748
0.788151 0.757526 0.093508
0.815136 0.758286 0.094268
0.842121 0.759046 0.095028
0.869106 0.759807 0.095789
0.896091 0.760567 0.096549
0.923076 0.761327 0.097309
0.950718 0.762252 0.097577
0.089098 0.766541 0.076298
0.116083 0.767301 0.077059
0.143068 0.768061 0.077819
0.170053 0.768822 0.078579
0.197038 0.769582 0.079339
0.224023 0.770342 0.080100
0.251008 0.771103 0.080860
0.277993 0.771863 0.081620
0.304978 0.772623 0.082380
0.331963 0.773383 0.083141
0.358948 0.774144 0.083901
0.385933 0.774904 0.084661
0.412918 0.775664 0.085422
0.439903 0.776425 0.086182
0.466888 0.777185 0.086942
0.493873 0.777945 0.087702
0.520858 0.778705 0.088463
0.547843 0.779466 0.089223
0.574828 0.780226 0.089983
0.601813 0.780986 0.090744
0.628798 0.781746 0.091504
0.655783 0.782507 0.092264
0.682768 0.783267 0.093024
0.709753 0.784027 0.093785
0.736738 0.784788 0.094545
0.763723 0.785548 0.095305
0.790708 0.786308 0.096065
