fexer/Resources/LUTs/cinematic_teal_orange.cube
TITLE "Cinematic"
LUT_3D_SIZE 9
DOMAIN_MIN 0.0 0.0 0.0
DOMAIN_MAX 1.0 1.0 1.0
0.000000 0.027459 0.065353
0.097559 0.029486 0.062312
0.209554 0.031514 0.059271
0.321549 0.033541 0.056230
0.433544 0.035568 0.053189
0.545539 0.037596 0.050147
0.657533 0.039623 0.047106
0.769528 0.041651 0.044065
0.881523 0.043678 0.041024
0.009436 0.139178 0.055123
0.121431 0.141205 0.052081
0.233425 0.143233 0.049040
0.345420 0.145260 0.045999
0.457415 0.147288 0.042958
0.569410 0.149315 0.039917
0.680470 0.151576 0.038277
0.788410 0.154617 0.041318
0.896350 0.157658 0.044359
0.033307 0.250897 0.044892
0.145302 0.252925 0.041851
0.257297 0.254952 0.038810
0.366881 0.257582 0.039384
0.474821 0.260623 0.042425
0.582761 0.263664 0.045467
0.690701 0.266705 0.048508
0.798641 0.269747 0.051549
0.906581 0.272788 0.054590
0.053292 0.363588 0.040492
0.161231 0.366629 0.043533
0.269171 0.369670 0.046574
0.377111 0.372711 0.049615
0.485051 0.375753 0.052656
0.592991 0.378794 0.055697
0.700931 0.381835 0.058738
0.808871 0.384876 0.061779
0.916811 0.387917 0.064820
0.063522 0.478717 0.050722
0.171462 0.481759 0.053763
0.279402 0.484800 0.056804
0.387342 0.487841 0.059845
0.495282 0.490882 0.062886
0.603222 0.493923 0.065928
0.711162 0.496964 0.068969
0.819102 0.500005 0.072010
0.927042 0.503046 0.075051
0.073753 0.593847 0.060953
0.181692 0.596888 0.063994
0.289632 0.599929 0.067035
0.397572 0.602970 0.070076
0.505512 0.606011 0.073117
0.613452 0.609052 0.076158
0.721392 0.612094 0.079199
0.829332 0.615135 0.082240
0.937272 0.618176 0.085281
0.083983 0.708976 0.071183
0.191923 0.712017 0.074224
0.299863 0.715058 0.077265
0.407803 0.718100 0.080306
0.515743 0.721141 0.083347
0.623683 0.724182 0.086389
0.731623 0.727223 0.089430
0.839563 0.730264 0.092471
0.947503 0.733305 0.095512
0.094214 0.824106 0.081414
0.202153 0.827147 0.084455
0.310093 0.830188 0.087496
0.418033 0.833229 0.090537
0.525973 0.836270 0.093578
0.633913 0.839311 0.096619
0.744632 0.843047 0.097577
0.856626 0.847102 0.097577
0.968621 0.851156 0.097577
0.104444 0.939235 0.091644
0.212384 0.942276 0.094685
0.320524 0.945367 0.097577
0.432518 0.949422 0.097577
0.544513 0.953477 0.097577
0.656508 0.957532 0.097577
0.768503 0.961586 0.097577
0.880498 0.965641 0.097577
0.992492 0.969696 0.097577
0.000000 0.028147 0.169219
0.099969 0.030175 0.166178
0.211964 0.032202 0.163137
0.323959 0.034230 0.160096
0.435954 0.036257 0.157055
0.547948 0.038284 0.154014
0.659943 0.040312 0.150972
0.771938 0.042339 0.147931
0.883933 0.044367 0.144890
0.011846 0.139867 0.158989
0.123840 0.141894 0.155948
0.235835 0.143921 0.152906
0.347830 0.145949 0.149865
0.459825 0.147976 0.146824
0.571820 0.150004 0.143783
0.681503 0.152609 0.144209
0.789443 0.155650 0.147250
0.897383 0.158691 0.150291
0.035717 0.251586 0.148758
0.147712 0.253613 0.145717
0.259706 0.255641 0.142676
0.367914 0.258615 0.145316
0.475854 0.261656 0.148357
0.583794 0.264697 0.151398
0.691734 0.267738 0.154439
0.799674 0.270779 0.157480
0.907614 0.273820 0.160522
0.054324 0.364621 0.146423
0.162264 0.367662 0.149464
0.270204 0.370703 0.152505
0.378144 0.373744 0.155546
0.486084 0.376785 0.158588
0.594024 0.379826 0.161629
0.701964 0.382868 0.164670
0.809904 0.385909 0.167711
0.917844 0.388950 0.170752
0.064555 0.479750 0.156654
0.172495 0.482791 0.159695
0.280435 0.485832 0.162736
0.388375 0.488874 0.165777
0.496315 0.491915 0.168818
0.604255 0.494956 0.171859
0.712195 0.497997 0.174900
0.820135 0.501038 0.177941
0.928075 0.504079 0.180983
0.074785 0.594880 0.166884
0.182725 0.597921 0.169925
0.290665 0.600962 0.172966
0.398605 0.604003 0.176007
0.506545 0.607044 0.179049
0.614485 0.610085 0.182090
0.722425 0.613126 0.185131
0.830365 0.616167 0.188172
0.938305 0.619209 0.191213
0.085016 0.710009 0.177115
0.192956 0.713050 0.180156
0.300896 0.716091 0.183197
0.408836 0.719132 0.186238
0.516776 0.722173 0.189279
0.624716 0.725215 0.192320
0.732656 0.728256 0.195361
0.840596 0.731297 0.198402
0.948536 0.734338 0.201444
0.095246 0.825138 0.187345
0.203186 0.828180 0.190386
0.311126 0.831221 0.193427
0.419066 0.834262 0.196468
0.527006 0.837303 0.199510
0.635047 0.840369 0.202475
0.747041 0.844424 0.202475
0.859036 0.848479 0.202475
0.971031 0.852534 0.202475
0.105477 0.940268 0.197576
0.213417 0.943309 0.200617
0.322933 0.946744 0.202475
0.434928 0.950799 0.202475
0.546923 0.954854 0.202475
0.658918 0.958909 0.202475
0.770913 0.962963 0.202475
0.882907 0.967018 0.202475
0.994902 0.971073 0.202475
0.000000 0.028836 0.273085
0.102379 0.030863 0.270044
0.214374 0.032891 0.267003
0.326369 0.034918 0.263962
0.438363 0.036946 0.260921
0.550358 0.038973 0.257880
0.662353 0.041000 0.254839
0.774348 0.043028 0.251797
0.886343 0.045055 0.248756
0.014255 0.140555 0.262855
0.126250 0.142582 0.259814
0.238245 0.144610 0.256773
0.350240 0.146637 0.253731
0.462235 0.148665 0.250690
0.574229 0.150692 0.247649
0.682536 0.153642 0.250140
0.790476 0.156683 0.253182
0.898416 0.159724 0.256223
0.038127 0.252274 0.252624
0.150121 0.254302 0.249583
0.261007 0.256607 0.248207
0.368947 0.259648 0.251248
0.476886 0.262689 0.254289
0.584826 0.265730 0.257330
0.692766 0.268771 0.260371
0.800706 0.271812 0.263412
0.908646 0.274853 0.266453
0.055357 0.365654 0.252355
0.163297 0.368695 0.255396
0.271237 0.371736 0.258437
0.379177 0.374777 0.261478
0.487117 0.377818 0.264519
0.595057 0.380859 0.267560
0.702997 0.383900 0.270601
0.810937 0.386941 0.273643
0.918877 0.389983 0.276684
0.065588 0.480783 0.262585
0.173528 0.483824 0.265626
0.281468 0.486865 0.268668
0.389408 0.489906 0.271709
0.497347 0.492947 0.274750
0.605287 0.495989 0.277791
0.713227 0.499030 0.280832
0.821167 0.502071 0.283873
0.929107 0.505112 0.286914
0.075818 0.595912 0.272816
0.183758 0.598954 0.275857
0.291698 0.601995 0.278898
0.399638 0.605036 0.281939
0.507578 0.608077 0.284980
0.615518 0.611118 0.288021
0.723458 0.614159 0.291062
0.831398 0.617200 0.294104
0.939338 0.620241 0.297145
0.086049 0.711042 0.283046
0.193989 0.714083 0.286087
0.301929 0.717124 0.289129
0.409869 0.720165 0.292170
0.517809 0.723206 0.295211
0.625748 0.726247 0.298252
0.733688 0.729288 0.301293
0.841628 0.732330 0.304334
0.949570 0.735371 0.307374
0.096279 0.826171 0.293277
0.204219 0.829212 0.296318
0.312159 0.832253 0.299359
0.420099 0.835295 0.302400
0.528039 0.838336 0.305441
0.637456 0.841746 0.307374
0.749451 0.845801 0.307374
0.861446 0.849856 0.307374
0.973441 0.853911 0.307374
0.106510 0.941301 0.303507
0.214450 0.944342 0.306548
0.325343 0.948121 0.307374
0.437338 0.952176 0.307374
0.549333 0.956231 0.307374
0.661328 0.960286 0.307374
0.773322 0.964340 0.307374
0.885317 0.968395 0.307374
0.997312 0.972450 0.307374
0.000000 0.029524 0.376951
0.104789 0.031552 0.373910
0.216784 0.033579 0.370869
0.328778 0.035607 0.367828
0.440773 0.037634 0.364787
0.552768 0.039661 0.361746
0.664763 0.041689 0.358705
0.776758 0.043716 0.355664
0.888753 0.045744 0.352622
0.016665 0.141244 0.366721
0.128660 0.143271 0.363680
0.240655 0.145298 0.360639
0.352650 0.147326 0.357597
0.464644 0.149353 0.354556
0.575629 0.151633 0.353031
0.683569 0.154674 0.356072
0.791509 0.157715 0.359113
0.899449 0.160757 0.362154
0.040536 0.252963 0.356490
0.152531 0.254990 0.353449
0.262039 0.257639 0.354138
0.369979 0.260680 0.357179
0.477919 0.263722 0.360220
0.585859 0.266763 0.363262
0.693799 0.269804 0.366303
0.801739 0.272845 0.369344
0.909679 0.275886 0.372385
0.056390 0.366686 0.358286
0.164330 0.369728 0.361328
0.272270 0.372769 0.364369
0.380210 0.375810 0.367410
0.488150 0.378851 0.370451
0.596090 0.381892 0.373492
0.704030 0.384933 0.376533
0.811970 0.387974 0.379574
0.919910 0.391015 0.382615
0.066620 0.481816 0.368517
0.174560 0.484857 0.371558
0.282500 0.487898 0.374599
0.390440 0.490939 0.377640
0.498380 0.493980 0.380681
0.606320 0.497021 0.383723
0.714260 0.500063 0.386764
0.822200 0.503104 0.389805
0.930140 0.506145 0.392846
0.076851 0.596945 0.378747
0.184791 0.599986 0.381789
0.292731 0.603027 0.384830
0.400671 0.606069 0.387871
0.508611 0.609110 0.390912
0.616551 0.612151 0.393953
0.724491 0.615192 0.396994
0.832431 0.618233 0.400035
0.940371 0.621274 0.403076
0.087081 0.712075 0.388978
0.195021 0.715116 0.392019
0.302961 0.718157 0.395060
0.410901 0.721198 0.398101
0.518841 0.724239 0.401142
0.626781 0.727280 0.404184
0.734721 0.730321 0.407225
0.842661 0.733362 0.410266
0.951980 0.736748 0.412273
0.097312 0.827204 0.399208
0.205252 0.830245 0.402250
0.313192 0.833286 0.405291
0.421132 0.836327 0.408332
0.529072 0.839368 0.411373
0.639866 0.843123 0.412273
0.751861 0.847178 0.412273
0.863856 0.851233 0.412273
0.975851 0.855288 0.412273
0.107542 0.942333 0.409439
0.215758 0.945443 0.412273
0.327753 0.949498 0.412273
0.439748 0.953553 0.412273
0.551743 0.957608 0.412273
0.663737 0.961663 0.412273
0.775732 0.965717 0.412273
0.887727 0.969772 0.412273
0.999722 0.973827 0.412273
0.000000 0.030213 0.480817
0.107199 0.032240 0.477776
0.219193 0.034268 0.474735
0.331188 0.036295 0.471694
0.443183 0.038323 0.468653
0.555178 0.040350 0.465612
0.667173 0.042377 0.462571
0.779168 0.044405 0.459530
0.890251 0.046660 0.457856
0.019075 0.141932 0.470587
0.131070 0.143960 0.467546
0.243065 0.145987 0.464505
0.355059 0.148014 0.461464
0.467054 0.150042 0.458422
0.576662 0.152666 0.458963
0.684602 0.155707 0.462004
0.792542 0.158748 0.465045
0.900481 0.161789 0.468086
0.042946 0.253651 0.460356
0.154941 0.255679 0.457315
0.263072 0.258672 0.460070
0.371012 0.261713 0.463111
0.478952 0.264754 0.466152
0.586892 0.267795 0.469193
0.694832 0.270837 0.472234
0.802772 0.273878 0.475275
0.910712 0.276919 0.478317
0.057423 0.367719 0.464218
0.165363 0.370760 0.467259
0.273303 0.373801 0.470300
0.381243 0.376843 0.473341
0.489183 0.379884 0.476383
0.597123 0.382925 0.479424
0.705063 0.385966 0.482465
0.813003 0.389007 0.485506
0.920942 0.392048 0.488547
0.067653 0.482849 0.474449
0.175593 0.485890 0.477490
0.283533 0.488931 0.480531
0.391473 0.491972 0.483572
0.499413 0.495013 0.486613
0.607353 0.498054 0.489654
0.715293 0.501095 0.492695
0.823233 0.504136 0.495736
0.931173 0.507178 0.498778
0.077884 0.597978 0.484679
0.185824 0.601019 0.487720
0.293764 0.604060 0.490761
0.401704 0.607101 0.493802
0.509644 0.610142 0.496844
0.617584 0.613184 0.499885
0.725524 0.616225 0.502926
0.833464 0.619266 0.505967
0.941403 0.622307 0.509008
0.088114 0.713107 0.494910
0.196054 0.716148 0.497951
0.303994 0.719190 0.500992
0.411934 0.722231 0.504033
0.519874 0.725272 0.507074
0.627814 0.728313 0.510115
0.735754 0.731354 0.513156
0.843694 0.734395 0.516197
0.954389 0.738125 0.517172
0.098345 0.828237 0.505140
0.206285 0.831278 0.508181
0.314225 0.834319 0.511222
0.422165 0.837360 0.514263
0.530281 0.840445 0.517172
0.642276 0.844500 0.517172
0.754271 0.848555 0.517172
0.866266 0.852610 0.517172
0.978260 0.856665 0.517172
0.108575 0.943366 0.515371
0.218168 0.946820 0.517172
0.330163 0.950875 0.517172
0.442158 0.954930 0.517172
0.554152 0.958985 0.517172
0.666147 0.963040 0.517172
0.778142 0.967095 0.517172
0.890137 0.971149 0.517172
1.000000 0.975204 0.517172
0.000000 0.030901 0.584684
0.109609 0.032929 0.581642
0.221603 0.034956 0.578601
0.333598 0.036984 0.575560
0.445593 0.039011 0.572519
0.557588 0.041038 0.569478
0.669583 0.043066 0.566437
0.781577 0.045093 0.563396
0.891284 0.047693 0.563787
0.021485 0.142621 0.574453
0.133480 0.144648 0.571412
0.245474 0.146675 0.568371
0.357469 0.148703 0.565330
0.469464 0.150730 0.562289
0.577694 0.153699 0.564894
0.685634 0.156740 0.567935
0.793574 0.159781 0.570977
0.901514 0.162822 0.574018
0.045356 0.254340 0.564223
0.156165 0.256664 0.562960
0.264105 0.259705 0.566001
0.372045 0.262746 0.569043
0.479985 0.265787 0.572084
0.587925 0.268828 0.575125
0.695865 0.271869 0.578166
0.803805 0.274910 0.581207
0.911745 0.277952 0.584248
0.058455 0.368752 0.570150
0.166395 0.371793 0.573191
0.274335 0.374834 0.576232
0.382275 0.377875 0.579273
0.490215 0.380916 0.582314
0.598155 0.383958 0.585355
0.706095 0.386999 0.588396
0.814035 0.390040 0.591438
0.921975 0.393081 0.594479
0.068686 0.483881 0.580380
0.176626 0.486922 0.583421
0.284566 0.489964 0.586462
0.392506 0.493005 0.589504
0.500446 0.496046 0.592545
0.608386 0.499087 0.595586
0.716326 0.502128 0.598627
0.824266 0.505169 0.601668
0.932206 0.508210 0.604709
0.078916 0.599011 0.590611
0.186856 0.602052 0.593652
0.294796 0.605093 0.596693
0.402736 0.608134 0.599734
0.510676 0.611175 0.602775
0.618616 0.614216 0.605816
0.726556 0.617257 0.608857
0.834496 0.620299 0.611899
0.942436 0.623340 0.614940
0.089147 0.714140 0.600841
0.197087 0.717181 0.603882
0.305027 0.720222 0.606923
0.412967 0.723263 0.609965
0.520907 0.726305 0.613006
0.628847 0.729346 0.616047
0.736787 0.732387 0.619088
0.844804 0.735447 0.622071
0.956799 0.739502 0.622071
0.099377 0.829269 0.611072
0.207317 0.832311 0.614113
0.315257 0.835352 0.617154
0.423197 0.838393 0.620195
0.532691 0.841822 0.622071
0.644686 0.845877 0.622071
0.756681 0.849932 0.622071
0.868676 0.853987 0.622071
0.980670 0.858042 0.622071
0.109608 0.944399 0.621302
0.220578 0.948197 0.622071
0.332573 0.952252 0.622071
0.444567 0.956307 0.622071
0.556562 0.960362 0.622071
0.668557 0.964417 0.622071
0.780552 0.968472 0.622071
0.892547 0.972526 0.622071
1.000000 0.976581 0.622071
0.000024 0.031590 0.688550
0.112018 0.033617 0.685509
0.224013 0.035645 0.682467
0.336008 0.037672 0.679426
0.448003 0.039700 0.676385
0.559998 0.041727 0.673344
0.671992 0.043754 0.670303
0.783987 0.045782 0.667262
0.892317 0.048726 0.669719
0.023895 0.143309 0.678319
0.135889 0.145337 0.675278
0.247884 0.147364 0.672237
0.359879 0.149391 0.669196
0.470787 0.151690 0.667785
0.578727 0.154732 0.670826
0.686667 0.157773 0.673867
0.794607 0.160814 0.676908
0.902547 0.163855 0.679949
0.047766 0.255028 0.668089
0.157198 0.257697 0.668892
0.265138 0.260738 0.671933
0.373078 0.263779 0.674974
0.481018 0.266820 0.678015
0.588958 0.269861 0.681056
0.696898 0.272902 0.684098
0.804838 0.275943 0.687139
0.912778 0.278984 0.690180
0.059488 0.369785 0.676081
0.167428 0.372826 0.679123
0.275368 0.375867 0.682164
0.383308 0.378908 0.685205
0.491248 0.381949 0.688246
0.599188 0.384990 0.691287
0.707128 0.388031 0.694328
0.815068 0.391073 0.697369
0.923008 0.394114 0.700410
0.069719 0.484914 0.686312
0.177659 0.487955 0.689353
0.285599 0.490996 0.692394
0.393539 0.494037 0.695435
0.501479 0.497079 0.698476
0.609419 0.500120 0.701517
0.717359 0.503161 0.704559
0.825299 0.506202 0.707600
0.933239 0.509243 0.710641
0.079949 0.600044 0.696542
0.187889 0.603085 0.699584
0.295829 0.606126 0.702625
0.403769 0.609167 0.705666
0.511709 0.612208 0.708707
0.619649 0.615249 0.711748
0.727589 0.618290 0.714789
0.835529 0.621331 0.717830
0.943469 0.624372 0.720871
0.090180 0.715173 0.706773
0.198120 0.718214 0.709814
0.306060 0.721255 0.712855
0.414000 0.724296 0.715896
0.521940 0.727337 0.718937
0.629880 0.730378 0.721978
0.737820 0.733420 0.725020
0.847214 0.736824 0.726970
0.959209 0.740879 0.726970
0.100410 0.830302 0.717003
0.208350 0.833343 0.720045
0.316290 0.836384 0.723086
0.424230 0.839426 0.726127
0.535101 0.843199 0.726970
0.647096 0.847254 0.726970
0.759091 0.851309 0.726970
0.871085 0.855364 0.726970
0.983080 0.859419 0.726970
0.110993 0.945520 0.726970
0.222988 0.949575 0.726970
0.334982 0.953629 0.726970
0.446977 0.957684 0.726970
0.558972 0.961739 0.726970
0.670967 0.965794 0.726970
0.782962 0.969849 0.726970
0.894956 0.973903 0.726970
1.000000 0.977958 0.726970
0.002433 0.032278 0.792416
0.114428 0.034306 0.789375
0.226423 0.036333 0.786333
0.338418 0.038361 0.783292
0.450413 0.040388 0.780251
0.562407 0.042416 0.777210
0.674402 0.044443 0.774169
0.785409 0.046717 0.772609
0.893349 0.049758 0.775650
0.026304 0.143998 0.782185
0.138299 0.146025 0.779144
0.250294 0.148052 0.776103
0.362289 0.150080 0.773062
0.471820 0.152723 0.773716
0.579760 0.155764 0.776758
0.687700 0.158805 0.779799
0.795640 0.161847 0.782840
0.903580 0.164888 0.785881
0.050176 0.255717 0.771955
0.158230 0.258729 0.774824
0.266170 0.261770 0.777865
0.374110 0.264812 0.780906
0.482050 0.267853 0.783947
0.589990 0.270894 0.786988
0.697930 0.273935 0.790029
0.805870 0.276976 0.793070
0.913810 0.280017 0.796111
0.060521 0.370818 0.782013
0.168461 0.373859 0.785054
0.276401 0.376900 0.788095
0.384341 0.379941 0.791136
0.492281 0.382982 0.794177
0.600221 0.386023 0.797219
0.708161 0.389064 0.800260
0.816101 0.392105 0.803301
0.924041 0.395146 0.806342
0.070751 0.485947 0.792244
0.178691 0.488988 0.795285
0.286631 0.492029 0.798326
0.394571 0.495070 0.801367
0.502511 0.498111 0.804408
0.610451 0.501152 0.807449
0.718391 0.504194 0.810490
0.826331 0.507235 0.813531
0.934271 0.510276 0.816572
0.080982 0.601076 0.802474
0.188922 0.604117 0.805515
0.296862 0.607159 0.808556
0.404802 0.610200 0.811597
0.512742 0.613241 0.814639
0.620682 0.616282 0.817680
0.728622 0.619323 0.820721
0.836562 0.622364 0.823762
0.944502 0.625405 0.826803
0.091212 0.716206 0.812705
0.199152 0.719247 0.815746
0.307092 0.722288 0.818787
0.415032 0.725329 0.821828
0.522972 0.728370 0.824869
0.630912 0.731411 0.827910
0.738852 0.734452 0.830951
0.849624 0.738201 0.831869
0.961619 0.742256 0.831869
0.101443 0.831335 0.822935
0.209383 0.834376 0.825976
0.317323 0.837417 0.829017
0.425516 0.840522 0.831869
0.537511 0.844576 0.831869
0.649506 0.848631 0.831869
0.761500 0.852686 0.831869
0.873495 0.856741 0.831869
0.985490 0.860796 0.831869
0.113403 0.946897 0.831869
0.225397 0.950952 0.831869
0.337392 0.955006 0.831869
0.449387 0.959061 0.831869
0.561382 0.963116 0.831869
0.673377 0.967171 0.831869
0.785371 0.971226 0.831869
0.897366 0.975280 0.831869
1.000000 0.979335 0.831869
0.004843 0.032967 0.896282
0.116838 0.034994 0.893241
0.228833 0.037022 0.890200
0.340828 0.039049 0.887158
0.452822 0.041077 0.884117
0.564817 0.043104 0.881076
0.676812 0.045131 0.878035
0.786442 0.047750 0.878541
0.894382 0.050791 0.881582
0.028714 0.144686 0.886051
0.140709 0.146714 0.883010
0.252704 0.148741 0.879969
0.364699 0.150768 0.876928
0.472853 0.153756 0.879648
0.580793 0.156797 0.882689
0.688733 0.159838 0.885730
0.796673 0.162879 0.888771
0.904613 0.165920 0.891813
0.051323 0.256721 0.877714
0.159263 0.259762 0.880755
0.267203 0.262803 0.883796
0.375143 0.265844 0.886838
0.483083 0.268885 0.889879
0.591023 0.271927 0.892920
0.698963 0.274968 0.895961
0.806903 0.278009 0.899002
0.914843 0.281050 0.902043
0.061554 0.371850 0.887945
0.169494 0.374891 0.890986
0.277434 0.377933 0.894027
0.385374 0.380974 0.897068
0.493314 0.384015 0.900109
0.601254 0.387056 0.903150
0.709194 0.390097 0.906191
0.817134 0.393138 0.909232
0.925074 0.396179 0.912274
0.071784 0.486980 0.898175
0.179724 0.490021 0.901216
0.287664 0.493062 0.904257
0.395604 0.496103 0.907299
0.503544 0.499144 0.910340
0.611484 0.502185 0.913381
0.719424 0.505226 0.916422
0.827364 0.508268 0.919463
0.935304 0.511309 0.922504
0.082015 0.602109 0.908406
0.189955 0.605150 0.911447
0.297895 0.608191 0.914488
0.405835 0.611232 0.917529
0.513775 0.614274 0.920570
0.621715 0.617315 0.923611
0.729655 0.620356 0.926652
0.837595 0.623397 0.929693
0.945535 0.626438 0.932735
0.092245 0.717238 0.918636
0.200185 0.720280 0.921677
0.308125 0.723321 0.924718
0.416065 0.726362 0.927760
0.524005 0.729403 0.930801
0.631945 0.732444 0.933842
0.740039 0.735524 0.936767
0.852034 0.739578 0.936767
0.964029 0.743633 0.936767
0.102476 0.832368 0.928867
0.210416 0.835409 0.931908
0.318356 0.838450 0.934949
0.427926 0.841899 0.936767
0.539921 0.845953 0.936767
0.651915 0.850008 0.936767
0.763910 0.854063 0.936767
0.875905 0.858118 0.936767
0.987900 0.862173 0.936767
0.115812 0.948274 0.936767
0.227807 0.952329 0.936767
0.339802 0.956383 0.936767
0.451797 0.960438 0.936767
0.563792 0.964493 0.936767
0.675787 0.968548 0.936767
0.787781 0.972603 0.936767
0.899776 0.976657 0.936767
1.000000 0.980712 0.936767
