fexer/Resources/LUTs/cool_mist.cube
TITLE "Cool Mist"
LUT_3D_SIZE 33
DOMAIN_MIN 0.0 0.0 0.0
DOMAIN_MAX 1.0 1.0 1.0
0.129000 0.146600 0.188577
0.146312 0.148596 0.190153
0.163625 0.150592 0.191729
0.180937 0.152587 0.193304
0.198249 0.154583 0.194880
0.215561 0.156579 0.196455
0.232874 0.158575 0.198031
0.250186 0.160571 0.199607
0.267498 0.162566 0.201182
0.284810 0.164562 0.202758
0.302123 0.166558 0.204333
0.319435 0.168554 0.205909
0.336747 0.170549 0.207485
0.354060 0.172545 0.209060
0.371372 0.174541 0.210636
0.388684 0.176537 0.212212
0.405996 0.178533 0.213787
0.423309 0.180528 0.215363
0.440621 0.182524 0.216938
0.457933 0.184520 0.218514
0.475245 0.186516 0.220116
0.492558 0.188512 0.222112
0.509870 0.190507 0.224107
0.527182 0.192503 0.226103
0.544495 0.194499 0.228099
0.561807 0.196495 0.230095
0.579119 0.198490 0.232090
0.596431 0.200486 0.234086
0.613744 0.202482 0.236082
0.631056 0.204478 0.238078
0.648368 0.206474 0.240074
0.665680 0.208469 0.242069
0.682993 0.210465 0.244065
0.135714 0.168630 0.193878
0.153026 0.170626 0.195453
0.170339 0.172622 0.197029
0.187651 0.174618 0.198605
0.204963 0.176614 0.200180
0.222275 0.178609 0.201756
0.239588 0.180605 0.203331
0.256900 0.182601 0.204907
0.274212 0.184597 0.206483
0.291524 0.186593 0.208058
0.308837 0.188588 0.209634
0.326149 0.190584 0.211210
0.343461 0.192580 0.212785
0.360774 0.194576 0.214361
0.378086 0.196571 0.215936
0.395398 0.198567 0.217512
0.412710 0.200563 0.219088
0.430023 0.202559 0.220842
0.447335 0.204555 0.222838
0.464647 0.206550 0.224834
0.481959 0.208546 0.226830
0.499272 0.210542 0.228825
0.516584 0.212538 0.230821
0.533896 0.214534 0.232817
0.551209 0.216529 0.234813
0.568521 0.218525 0.236809
0.585833 0.220521 0.238804
0.603145 0.222517 0.240800
0.620458 0.224512 0.242796
0.637770 0.226508 0.244792
0.655082 0.228504 0.246788
0.672394 0.230500 0.248783
0.689707 0.232496 0.250779
0.142428 0.190661 0.199178
0.159740 0.192657 0.200754
0.177052 0.194652 0.202329
0.194365 0.196648 0.203905
0.211677 0.198644 0.205481
0.228989 0.200640 0.207056
0.246302 0.202636 0.208632
0.263614 0.204631 0.210208
0.280926 0.206627 0.211783
0.298238 0.208623 0.213359
0.315551 0.210619 0.214934
0.332863 0.212615 0.216510
0.350175 0.214610 0.218086
0.367487 0.216606 0.219661
0.384800 0.218602 0.221569
0.402112 0.220598 0.223565
0.419424 0.222593 0.225561
0.436737 0.224589 0.227556
0.454049 0.226585 0.229552
0.471361 0.228581 0.231548
0.488673 0.230577 0.233544
0.505986 0.232572 0.235539
0.523298 0.234568 0.237535
0.540610 0.236564 0.239531
0.557922 0.238560 0.241527
0.575235 0.240556 0.243523
0.592547 0.242551 0.245518
0.609859 0.244547 0.247514
0.627172 0.246543 0.249510
0.644484 0.248539 0.251506
0.661796 0.250535 0.253502
0.679108 0.252530 0.255497
0.696421 0.254526 0.257493
0.149142 0.212691 0.204479
0.166454 0.214687 0.206054
0.183766 0.216683 0.207630
0.201079 0.218679 0.209206
0.218391 0.220674 0.210781
0.235703 0.222670 0.212357
0.253016 0.224666 0.213932
0.270328 0.226662 0.215508
0.287640 0.228658 0.217084
0.304952 0.230653 0.218659
0.322265 0.232649 0.220300
0.339577 0.234645 0.222296
0.356889 0.236641 0.224291
0.374201 0.238637 0.226287
0.391514 0.240632 0.228283
0.408826 0.242628 0.230279
0.426138 0.244624 0.232274
0.443451 0.246620 0.234270
0.460763 0.248616 0.236266
0.478075 0.250611 0.238262
0.495387 0.252607 0.240258
0.512700 0.254603 0.242253
0.530012 0.256599 0.244249
0.547324 0.258594 0.246245
0.564636 0.260590 0.248241
0.581949 0.262586 0.250237
0.599261 0.264582 0.252232
0.616573 0.266578 0.254228
0.633886 0.268573 0.256224
0.651198 0.270569 0.258220
0.668510 0.272565 0.260215
0.685822 0.274561 0.262211
0.703135 0.276557 0.264207
0.155856 0.234722 0.209779
0.173168 0.236718 0.211355
0.190480 0.238713 0.212930
0.207793 0.240709 0.214506
0.225105 0.242705 0.216082
0.242417 0.244701 0.217657
0.259729 0.246696 0.219233
0.277042 0.248692 0.221026
0.294354 0.250688 0.223022
0.311666 0.252684 0.225018
0.328979 0.254680 0.227014
0.346291 0.256675 0.229009
0.363603 0.258671 0.231005
0.380915 0.260667 0.233001
0.398228 0.262663 0.234997
0.415540 0.264659 0.236993
0.432852 0.266654 0.238988
0.450164 0.268650 0.240984
0.467477 0.270646 0.242980
0.484789 0.272642 0.244976
0.502101 0.274638 0.246972
0.519414 0.276633 0.248967
0.536726 0.278629 0.250963
0.554038 0.280625 0.252959
0.571350 0.282621 0.254955
0.588663 0.284616 0.256951
0.605975 0.286612 0.258946
0.623287 0.288608 0.260942
0.640599 0.290604 0.262938
0.657912 0.292600 0.264934
0.675224 0.294595 0.266929
0.692536 0.296591 0.268925
0.709849 0.298587 0.270921
0.162570 0.256752 0.215080
0.179882 0.258748 0.216655
0.197194 0.260744 0.218231
0.214507 0.262740 0.219807
0.231819 0.264735 0.221753
0.249131 0.266731 0.223749
0.266443 0.268727 0.225745
0.283756 0.270723 0.227740
0.301068 0.272719 0.229736
0.318380 0.274714 0.231732
0.335693 0.276710 0.233728
0.353005 0.278706 0.235723
0.370317 0.280702 0.237719
0.387629 0.282697 0.239715
0.404942 0.284693 0.241711
0.422254 0.286689 0.243707
0.439566 0.288685 0.245702
0.456878 0.290681 0.247698
0.474191 0.292676 0.249694
0.491503 0.294672 0.251690
0.508815 0.296668 0.253686
0.526128 0.298664 0.255681
0.543440 0.300660 0.257677
0.560752 0.302655 0.259673
0.578064 0.304651 0.261669
0.595377 0.306647 0.263664
0.612689 0.308643 0.265660
0.630001 0.310638 0.267656
0.647313 0.312634 0.269652
0.664626 0.314630 0.271648
0.681938 0.316626 0.273643
0.699250 0.318622 0.275639
0.716563 0.320617 0.277635
0.169284 0.278783 0.220484
0.186596 0.280778 0.222480
0.203908 0.282774 0.224475
0.221221 0.284770 0.226471
0.238533 0.286766 0.228467
0.255845 0.288762 0.230463
0.273157 0.290757 0.232458
0.290470 0.292753 0.234454
0.307782 0.294749 0.236450
0.325094 0.296745 0.238446
0.342406 0.298741 0.240442
0.359719 0.300736 0.242437
0.377031 0.302732 0.244433
0.394343 0.304728 0.246429
0.411656 0.306724 0.248425
0.428968 0.308719 0.250421
0.446280 0.310715 0.252416
0.463592 0.312711 0.254412
0.480905 0.314707 0.256408
0.498217 0.316703 0.258404
0.515529 0.318698 0.260399
0.532841 0.320694 0.262395
0.550154 0.322690 0.264391
0.567466 0.324686 0.266387
0.584778 0.326682 0.268383
0.602091 0.328677 0.270378
0.619403 0.330673 0.272374
0.636715 0.332669 0.274370
0.654027 0.334665 0.276366
0.671340 0.336660 0.278362
0.688652 0.338656 0.280357
0.705964 0.340652 0.282353
0.723276 0.342648 0.284349
0.175998 0.300813 0.227198
0.193310 0.302809 0.229193
0.210622 0.304805 0.231189
0.227935 0.306800 0.233185
0.245247 0.308796 0.235181
0.262559 0.310792 0.237177
0.279871 0.312788 0.239172
0.297184 0.314784 0.241168
0.314496 0.316779 0.243164
0.331808 0.318775 0.245160
0.349120 0.320771 0.247156
0.366433 0.322767 0.249151
0.383745 0.324763 0.251147
0.401057 0.326758 0.253143
0.418370 0.328754 0.255139
0.435682 0.330750 0.257135
0.452994 0.332746 0.259130
0.470306 0.334741 0.261126
0.487619 0.336737 0.263122
0.504931 0.338733 0.265118
0.522243 0.340729 0.267113
0.539555 0.342725 0.269109
0.556868 0.344720 0.271105
0.574180 0.346716 0.273101
0.591492 0.348712 0.275097
0.608805 0.350708 0.277092
0.626117 0.352704 0.279088
0.643429 0.354699 0.281084
0.660741 0.356695 0.283080
0.678054 0.358691 0.285076
0.695366 0.360687 0.287071
0.712678 0.362683 0.289067
0.729990 0.364678 0.291063
0.182712 0.322844 0.233912
0.200024 0.324839 0.235907
0.217336 0.326835 0.237903
0.234648 0.328831 0.239899
0.251961 0.330827 0.241895
0.269273 0.332822 0.243891
0.286585 0.334818 0.245886
0.303898 0.336814 0.247882
0.321210 0.338810 0.249878
0.338522 0.340806 0.251874
0.355834 0.342801 0.253870
0.373147 0.344797 0.255865
0.390459 0.346793 0.257861
0.407771 0.348789 0.259857
0.425083 0.350785 0.261853
0.442396 0.352780 0.263848
0.459708 0.354776 0.265844
0.477020 0.356772 0.267840
0.494333 0.358768 0.269836
0.511645 0.360764 0.271832
0.528957 0.362759 0.273827
0.546269 0.364755 0.275823
0.563582 0.366751 0.277819
0.580894 0.368747 0.279815
0.598206 0.370742 0.281811
0.615518 0.372738 0.283806
0.632831 0.374734 0.285802
0.650143 0.376730 0.287798
0.667455 0.378726 0.289794
0.684768 0.380721 0.291789
0.702080 0.382717 0.293785
0.719392 0.384713 0.295781
0.736704 0.386709 0.297777
0.189426 0.344874 0.240626
0.206738 0.346870 0.242621
0.224050 0.348866 0.244617
0.241362 0.350861 0.246613
0.258675 0.352857 0.248609
0.275987 0.354853 0.250605
0.293299 0.356849 0.252600
0.310612 0.358844 0.254596
0.327924 0.360840 0.256592
0.345236 0.362836 0.258588
0.362548 0.364832 0.260583
0.379861 0.366828 0.262579
0.397173 0.368823 0.264575
0.414485 0.370819 0.266571
0.431797 0.372815 0.268567
0.449110 0.374811 0.270562
0.466422 0.376807 0.272558
0.483734 0.378802 0.274554
0.501047 0.380798 0.276550
0.518359 0.382794 0.278546
0.535671 0.384790 0.280541
0.552983 0.386786 0.282537
0.570296 0.388781 0.284533
0.587608 0.390777 0.286529
0.604920 0.392773 0.288525
0.622232 0.394769 0.290520
0.639545 0.396764 0.292516
0.656857 0.398760 0.294512
0.674169 0.400756 0.296508
0.691482 0.402752 0.298503
0.708794 0.404748 0.300499
0.726106 0.406743 0.302495
0.743418 0.408739 0.304491
0.196140 0.366904 0.247340
0.213452 0.368900 0.249335
0.230764 0.370896 0.251331
0.248076 0.372892 0.253327
0.265389 0.374888 0.255323
0.282701 0.376883 0.257319
0.300013 0.378879 0.259314
0.317325 0.380875 0.261310
0.334638 0.382871 0.263306
0.351950 0.384867 0.265302
0.369262 0.386862 0.267297
0.386575 0.388858 0.269293
0.403887 0.390854 0.271289
0.421199 0.392850 0.273285
0.438511 0.394845 0.275281
0.455824 0.396841 0.277276
0.473136 0.398837 0.279272
0.490448 0.400833 0.281268
0.507760 0.402829 0.283264
0.525073 0.404824 0.285260
0.542385 0.406820 0.287255
0.559697 0.408816 0.289251
0.577010 0.410812 0.291247
0.594322 0.412808 0.293243
0.611634 0.414803 0.295238
0.628946 0.416799 0.297234
0.646259 0.418795 0.299230
0.663571 0.420791 0.301226
0.680883 0.422786 0.303222
0.698195 0.424782 0.305217
0.715508 0.426778 0.307213
0.732820 0.428774 0.309209
0.750132 0.430770 0.311205
0.202854 0.388935 0.254054
0.220166 0.390931 0.256049
0.237478 0.392926 0.258045
0.254790 0.394922 0.260041
0.272103 0.396918 0.262037
0.289415 0.398914 0.264032
0.306727 0.400910 0.266028
0.324039 0.402905 0.268024
0.341352 0.404901 0.270020
0.358664 0.406897 0.272016
0.375976 0.408893 0.274011
0.393289 0.410889 0.276007
0.410601 0.412884 0.278003
0.427913 0.414880 0.279999
0.445225 0.416876 0.281995
0.462538 0.418872 0.283990
0.479850 0.420867 0.285986
0.497162 0.422863 0.287982
0.514474 0.424859 0.289978
0.531787 0.426855 0.291973
0.549099 0.428851 0.293969
0.566411 0.430846 0.295965
0.583724 0.432842 0.297961
0.601036 0.434838 0.299957
0.618348 0.436834 0.301952
0.635660 0.438830 0.303948
0.652973 0.440825 0.305944
0.670285 0.442821 0.307940
0.687597 0.444817 0.309936
0.704909 0.446813 0.311931
0.722222 0.448808 0.313927
0.739534 0.450804 0.315923
0.756846 0.452800 0.317919
0.209567 0.410965 0.260767
0.226880 0.412961 0.262763
0.244192 0.414957 0.264759
0.261504 0.416953 0.266755
0.278817 0.418948 0.268751
0.296129 0.420944 0.270746
0.313441 0.422940 0.272742
0.330753 0.424936 0.274738
0.348066 0.426932 0.276734
0.365378 0.428927 0.278730
0.382690 0.430923 0.280725
0.400002 0.432919 0.282721
0.417315 0.434915 0.284717
0.434627 0.436911 0.286713
0.451939 0.438906 0.288709
0.469252 0.440902 0.290704
0.486564 0.442898 0.292700
0.503876 0.444894 0.294696
0.521188 0.446889 0.296692
0.538501 0.448885 0.298687
0.555813 0.450881 0.300683
0.573125 0.452877 0.302679
0.590437 0.454873 0.304675
0.607750 0.456868 0.306671
0.625062 0.458864 0.308666
0.642374 0.460860 0.310662
0.659687 0.462856 0.312658
0.676999 0.464852 0.314654
0.694311 0.466847 0.316650
0.711623 0.468843 0.318645
0.728936 0.470839 0.320641
0.746248 0.472835 0.322637
0.763560 0.474831 0.324633
0.216281 0.432996 0.267481
0.233594 0.434992 0.269477
0.250906 0.436987 0.271473
0.268218 0.438983 0.273469
0.285531 0.440979 0.275465
0.302843 0.442975 0.277460
0.320155 0.444970 0.279456
0.337467 0.446966 0.281452
0.354780 0.448962 0.283448
0.372092 0.450958 0.285444
0.389404 0.452954 0.287439
0.406716 0.454949 0.289435
0.424029 0.456945 0.291431
0.441341 0.458941 0.293427
0.458653 0.460937 0.295422
0.475966 0.462933 0.297418
0.493278 0.464928 0.299414
0.510590 0.466924 0.301410
0.527902 0.468920 0.303406
0.545215 0.470916 0.305401
0.562527 0.472912 0.307397
0.579839 0.474907 0.309393
0.597151 0.476903 0.311389
0.614464 0.478899 0.313385
0.631776 0.480895 0.315380
0.649088 0.482890 0.317376
0.666401 0.484886 0.319372
0.683713 0.486882 0.321368
0.701025 0.488878 0.323363
0.718337 0.490874 0.325359
0.735650 0.492869 0.327355
0.752962 0.494865 0.329351
0.770274 0.496861 0.331347
0.222995 0.455026 0.274195
0.240308 0.457022 0.276191
0.257620 0.459018 0.278187
0.274932 0.461014 0.280183
0.292244 0.463009 0.282179
0.309557 0.465005 0.284174
0.326869 0.467001 0.286170
0.344181 0.468997 0.288166
0.361494 0.470992 0.290162
0.378806 0.472988 0.292157
0.396118 0.474984 0.294153
0.413430 0.476980 0.296149
0.430743 0.478976 0.298145
0.448055 0.480971 0.300141
0.465367 0.482967 0.302136
0.482679 0.484963 0.304132
0.499992 0.486959 0.306128
0.517304 0.488955 0.308124
0.534616 0.490950 0.310120
0.551929 0.492946 0.312115
0.569241 0.494942 0.314111
0.586553 0.496938 0.316107
0.603865 0.498934 0.318103
0.621178 0.500929 0.320099
0.638490 0.502925 0.322094
0.655802 0.504921 0.324090
0.673114 0.506917 0.326086
0.690427 0.508912 0.328082
0.707739 0.510908 0.330077
0.725051 0.512904 0.332073
0.742364 0.514900 0.334069
0.759676 0.516896 0.336065
0.776988 0.518891 0.338061
0.229709 0.477057 0.280909
0.247022 0.479052 0.282905
0.264334 0.481048 0.284901
0.281646 0.483044 0.286897
0.298958 0.485040 0.288893
0.316271 0.487036 0.290888
0.333583 0.489031 0.292884
0.350895 0.491027 0.294880
0.368208 0.493023 0.296876
0.385520 0.495019 0.298871
0.402832 0.497015 0.300867
0.420144 0.499010 0.302863
0.437457 0.501006 0.304859
0.454769 0.503002 0.306855
0.472081 0.504998 0.308850
0.489393 0.506993 0.310846
0.506706 0.508989 0.312842
0.524018 0.510985 0.314838
0.541330 0.512981 0.316834
0.558643 0.514977 0.318829
0.575955 0.516972 0.320825
0.593267 0.518968 0.322821
0.610579 0.520964 0.324817
0.627892 0.522960 0.326812
0.645204 0.524956 0.328808
0.662516 0.526951 0.330804
0.679828 0.528947 0.332800
0.697141 0.530943 0.334796
0.714453 0.532939 0.336791
0.731765 0.534934 0.338787
0.749078 0.536930 0.340783
0.766390 0.538926 0.342779
0.783702 0.540922 0.344775
0.236423 0.499087 0.287623
0.253736 0.501083 0.289619
0.271048 0.503079 0.291615
0.288360 0.505074 0.293611
0.305672 0.507070 0.295606
0.322985 0.509066 0.297602
0.340297 0.511062 0.299598
0.357609 0.513058 0.301594
0.374921 0.515053 0.303590
0.392234 0.517049 0.305585
0.409546 0.519045 0.307581
0.426858 0.521041 0.309577
0.444171 0.523037 0.311573
0.461483 0.525032 0.313569
0.478795 0.527028 0.315564
0.496107 0.529024 0.317560
0.513420 0.531020 0.319556
0.530732 0.533015 0.321552
0.548044 0.535011 0.323547
0.565357 0.537007 0.325543
0.582669 0.539003 0.327539
0.599981 0.540999 0.329535
0.617293 0.542994 0.331531
0.634606 0.544990 0.333526
0.651918 0.546986 0.335522
0.669230 0.548982 0.337518
0.686542 0.550978 0.339514
0.703855 0.552973 0.341510
0.721167 0.554969 0.343505
0.738479 0.556965 0.345501
0.755792 0.558961 0.347497
0.773104 0.560956 0.349493
0.790416 0.562952 0.351489
0.243137 0.521118 0.294337
0.260450 0.523113 0.296333
0.277762 0.525109 0.298329
0.295074 0.527105 0.300325
0.312386 0.529101 0.302320
0.329699 0.531096 0.304316
0.347011 0.533092 0.306312
0.364323 0.535088 0.308308
0.381635 0.537084 0.310304
0.398948 0.539080 0.312299
0.416260 0.541075 0.314295
0.433572 0.543071 0.316291
0.450885 0.545067 0.318287
0.468197 0.547063 0.320283
0.485509 0.549059 0.322278
0.502821 0.551054 0.324274
0.520134 0.553050 0.326270
0.537446 0.555046 0.328266
0.554758 0.557042 0.330261
0.572070 0.559037 0.332257
0.589383 0.561033 0.334253
0.606695 0.563029 0.336249
0.624007 0.565025 0.338245
0.641320 0.567021 0.340240
0.658632 0.569016 0.342236
0.675944 0.571012 0.344232
0.693256 0.573008 0.346228
0.710569 0.575004 0.348224
0.727881 0.577000 0.350219
0.745193 0.578995 0.352215
0.762505 0.580991 0.354211
0.779818 0.582987 0.356207
0.797130 0.584983 0.358202
0.249851 0.543148 0.301051
0.267163 0.545144 0.303047
0.284476 0.547140 0.305043
0.301788 0.549135 0.307039
0.319100 0.551131 0.309034
0.336413 0.553127 0.311030
0.353725 0.555123 0.313026
0.371037 0.557118 0.315022
0.388349 0.559114 0.317018
0.405662 0.561110 0.319013
0.422974 0.563106 0.321009
0.440286 0.565102 0.323005
0.457599 0.567097 0.325001
0.474911 0.569093 0.326996
0.492223 0.571089 0.328992
0.509535 0.573085 0.330988
0.526848 0.575081 0.332984
0.544160 0.577076 0.334980
0.561472 0.579072 0.336975
0.578784 0.581068 0.338971
0.596097 0.583064 0.340967
0.613409 0.585060 0.342963
0.630721 0.587055 0.344959
0.648034 0.589051 0.346954
0.665346 0.591047 0.348950
0.682658 0.593043 0.350946
0.699970 0.595038 0.352942
0.717283 0.597034 0.354937
0.734595 0.599030 0.356933
0.751907 0.601026 0.358929
0.769219 0.603022 0.360925
0.786532 0.605017 0.362921
0.803844 0.607013 0.364916
0.256565 0.565178 0.307765
0.273877 0.567174 0.309761
0.291190 0.569170 0.311757
0.308502 0.571166 0.313753
0.325814 0.573162 0.315748
0.343127 0.575157 0.317744
0.360439 0.577153 0.319740
0.377751 0.579149 0.321736
0.395063 0.581145 0.323731
0.412376 0.583140 0.325727
0.429688 0.585136 0.327723
0.447000 0.587132 0.329719
0.464312 0.589128 0.331715
0.481625 0.591124 0.333710
0.498937 0.593119 0.335706
0.516249 0.595115 0.337702
0.533562 0.597111 0.339698
0.550874 0.599107 0.341694
0.568186 0.601103 0.343689
0.585498 0.603098 0.345685
0.602811 0.605094 0.347681
0.620123 0.607090 0.349677
0.637435 0.609086 0.351673
0.654747 0.611082 0.353668
0.672060 0.613077 0.355664
0.689372 0.615073 0.357660
0.706684 0.617069 0.359656
0.723997 0.619065 0.361651
0.741309 0.621060 0.363647
0.758621 0.623056 0.365643
0.775933 0.625052 0.367639
0.793246 0.627048 0.369635
0.810558 0.629044 0.371630
0.263279 0.587209 0.314479
0.280591 0.589205 0.316475
0.297904 0.591200 0.318471
0.315216 0.593196 0.320466
0.332528 0.595192 0.322462
0.349841 0.597188 0.324458
0.367153 0.599184 0.326454
0.384465 0.601179 0.328450
0.401777 0.603175 0.330445
0.419090 0.605171 0.332441
0.436402 0.607167 0.334437
0.453714 0.609163 0.336433
0.471026 0.611158 0.338429
0.488339 0.613154 0.340424
0.505651 0.615150 0.342420
0.522963 0.617146 0.344416
0.540276 0.619141 0.346412
0.557588 0.621137 0.348408
0.574900 0.623133 0.350403
0.592212 0.625129 0.352399
0.609525 0.627125 0.354395
0.626837 0.629120 0.356391
0.644149 0.631116 0.358386
0.661461 0.633112 0.360382
0.678774 0.635108 0.362378
0.696086 0.637104 0.364374
0.713398 0.639099 0.366370
0.730711 0.641095 0.368365
0.748023 0.643091 0.370361
0.765335 0.645087 0.372357
0.782647 0.647082 0.374353
0.799960 0.649078 0.376349
0.817272 0.651074 0.378344
0.269993 0.609239 0.321193
0.287305 0.611235 0.323189
0.304618 0.613231 0.325185
0.321930 0.615227 0.327180
0.339242 0.617222 0.329176
0.356554 0.619218 0.331172
0.373867 0.621214 0.333168
0.391179 0.623210 0.335164
0.408491 0.625206 0.337159
0.425804 0.627201 0.339155
0.443116 0.629197 0.341151
0.460428 0.631193 0.343147
0.477740 0.633189 0.345143
0.495053 0.635185 0.347138
0.512365 0.637180 0.349134
0.529677 0.639176 0.351130
0.546989 0.641172 0.353126
0.564302 0.643168 0.355121
0.581614 0.645163 0.357117
0.598926 0.647159 0.359113
0.616239 0.649155 0.361109
0.633551 0.651151 0.363105
0.650863 0.653147 0.365100
0.668175 0.655142 0.367096
0.685488 0.657138 0.369092
0.702800 0.659134 0.371088
0.720112 0.661130 0.373084
0.737424 0.663126 0.375079
0.754737 0.665121 0.377075
0.772049 0.667117 0.379071
0.789361 0.669113 0.381067
0.806674 0.671109 0.383063
0.823986 0.673104 0.385058
0.276707 0.631270 0.327907
0.294019 0.633266 0.329903
0.311332 0.635261 0.331899
0.328644 0.637257 0.333894
0.345956 0.639253 0.335890
0.363268 0.641249 0.337886
0.380581 0.643244 0.339882
0.397893 0.645240 0.341878
0.415205 0.647236 0.343873
0.432518 0.649232 0.345869
0.449830 0.651228 0.347865
0.467142 0.653223 0.349861
0.484454 0.655219 0.351856
0.501767 0.657215 0.353852
0.519079 0.659211 0.355848
0.536391 0.661207 0.357844
0.553703 0.663202 0.359840
0.571016 0.665198 0.361835
0.588328 0.667194 0.363831
0.605640 0.669190 0.365827
0.622953 0.671185 0.367823
0.640265 0.673181 0.369819
0.657577 0.675177 0.371814
0.674889 0.677173 0.373810
0.692202 0.679169 0.375806
0.709514 0.681164 0.377802
0.726826 0.683160 0.379798
0.744138 0.685156 0.381793
0.761451 0.687152 0.383789
0.778763 0.689148 0.385785
0.796075 0.691143 0.387781
0.813388 0.693139 0.389776
0.830700 0.695135 0.391772
0.283421 0.653300 0.334621
0.300733 0.655296 0.336617
0.318046 0.657292 0.338613
0.335358 0.659288 0.340608
0.352670 0.661283 0.342604
0.369982 0.663279 0.344600
0.387295 0.665275 0.346596
0.404607 0.667271 0.348592
0.421919 0.669266 0.350587
0.439231 0.671262 0.352583
0.456544 0.673258 0.354579
0.473856 0.675254 0.356575
0.491168 0.677250 0.358570
0.508481 0.679245 0.360566
0.525793 0.681241 0.362562
0.543105 0.683237 0.364558
0.560417 0.685233 0.366554
0.577730 0.687229 0.368549
0.595042 0.689224 0.370545
0.612354 0.691220 0.372541
0.629666 0.693216 0.374537
0.646979 0.695212 0.376533
0.664291 0.697208 0.378528
0.681603 0.699203 0.380524
0.698916 0.701199 0.382520
0.716228 0.703195 0.384516
0.733540 0.705191 0.386511
0.750852 0.707186 0.388507
0.768165 0.709182 0.390503
0.785477 0.711178 0.392499
0.802789 0.713174 0.394495
0.820101 0.715170 0.396490
0.837414 0.717165 0.398486
0.290135 0.675331 0.341335
0.307447 0.677326 0.343331
0.324760 0.679322 0.345327
0.342072 0.681318 0.347322
0.359384 0.683314 0.349318
0.376696 0.685310 0.351314
0.394009 0.687305 0.353310
0.411321 0.689301 0.355305
0.428633 0.691297 0.357301
0.445945 0.693293 0.359297
0.463258 0.695288 0.361293
0.480570 0.697284 0.363289
0.497882 0.699280 0.365284
0.515195 0.701276 0.367280
0.532507 0.703272 0.369276
0.549819 0.705267 0.371272
0.567131 0.707263 0.373268
0.584444 0.709259 0.375263
0.601756 0.711255 0.377259
0.619068 0.713251 0.379255
0.636380 0.715246 0.381251
0.653693 0.717242 0.383247
0.671005 0.719238 0.385242
0.688317 0.721234 0.387238
0.705630 0.723230 0.389234
0.722942 0.725225 0.391230
0.740254 0.727221 0.393225
0.757566 0.729217 0.395221
0.774879 0.731213 0.397217
0.792191 0.733208 0.399213
0.809503 0.735204 0.401209
0.826815 0.737200 0.403204
0.844128 0.739196 0.405200
0.296849 0.697361 0.348049
0.314161 0.699357 0.350045
0.331473 0.701353 0.352040
0.348786 0.703348 0.354036
0.366098 0.705344 0.356032
0.383410 0.707340 0.358028
0.400723 0.709336 0.360024
0.418035 0.711332 0.362019
0.435347 0.713327 0.364015
0.452659 0.715323 0.366011
0.469972 0.717319 0.368007
0.487284 0.719315 0.370003
0.504596 0.721311 0.371998
0.521908 0.723306 0.373994
0.539221 0.725302 0.375990
0.556533 0.727298 0.377986
0.573845 0.729294 0.379982
0.591158 0.731289 0.381977
0.608470 0.733285 0.383973
0.625782 0.735281 0.385969
0.643094 0.737277 0.387965
0.660407 0.739273 0.389960
0.677719 0.741268 0.391956
0.695031 0.743264 0.393952
0.712343 0.745260 0.395948
0.729656 0.747256 0.397944
0.746968 0.749252 0.399939
0.764280 0.751247 0.401935
0.781593 0.753243 0.403931
0.798905 0.755239 0.405927
0.816217 0.757235 0.407923
0.833529 0.759230 0.409918
0.850842 0.761226 0.412319
0.303563 0.719392 0.354763
0.320875 0.721387 0.356759
0.338187 0.723383 0.358754
0.355500 0.725379 0.360750
0.372812 0.727375 0.362746
0.390124 0.729370 0.364742
0.407437 0.731366 0.366738
0.424749 0.733362 0.368733
0.442061 0.735358 0.370729
0.459373 0.737354 0.372725
0.476686 0.739349 0.374721
0.493998 0.741345 0.376717
0.511310 0.743341 0.378712
0.528622 0.745337 0.380708
0.545935 0.747333 0.382704
0.563247 0.749328 0.384700
0.580559 0.751324 0.386695
0.597872 0.753320 0.388691
0.615184 0.755316 0.390687
0.632496 0.757311 0.392683
0.649808 0.759307 0.394679
0.667121 0.761303 0.396674
0.684433 0.763299 0.398670
0.701745 0.765295 0.400666
0.719057 0.767290 0.402662
0.736370 0.769286 0.404658
0.753682 0.771282 0.406653
