fexer/Resources/LUTs/cool_mist.cube
TITLE "Cool Mist"
LUT_3D_SIZE 9
DOMAIN_MIN 0.0 0.0 0.0
DOMAIN_MAX 1.0 1.0 1.0
0.129000 0.146600 0.188577
0.198249 0.154583 0.194880
0.267498 0.162566 0.201182
0.336747 0.170549 0.207485
0.405996 0.178533 0.213787
0.475245 0.186516 0.220116
0.544495 0.194499 0.228099
0.613744 0.202482 0.236082
0.682993 0.210465 0.244065
0.155856 0.234722 0.209779
0.225105 0.242705 0.216082
0.294354 0.250688 0.223022
0.363603 0.258671 0.231005
0.432852 0.266654 0.238988
0.502101 0.274638 0.246972
0.571350 0.282621 0.254955
0.640599 0.290604 0.262938
0.709849 0.298587 0.270921
0.182712 0.322844 0.233912
0.251961 0.330827 0.241895
0.321210 0.338810 0.249878
0.390459 0.346793 0.257861
0.459708 0.354776 0.265844
0.528957 0.362759 0.273827
0.598206 0.370742 0.281811
0.667455 0.378726 0.289794
0.736704 0.386709 0.297777
0.209567 0.410965 0.260767
0.278817 0.418948 0.268751
0.348066 0.426932 0.276734
0.417315 0.434915 0.284717
0.486564 0.442898 0.292700
0.555813 0.450881 0.300683
0.625062 0.458864 0.308666
0.694311 0.466847 0.316650
0.763560 0.474831 0.324633
0.236423 0.499087 0.287623
0.305672 0.507070 0.295606
0.374921 0.515053 0.303590
0.444171 0.523037 0.311573
0.513420 0.531020 0.319556
0.582669 0.539003 0.327539
0.651918 0.546986 0.335522
0.721167 0.554969 0.343505
0.790416 0.562952 0.351489
0.263279 0.587209 0.314479
0.332528 0.595192 0.322462
0.401777 0.603175 0.330445
0.471026 0.611158 0.338429
0.540276 0.619141 0.346412
0.609525 0.627125 0.354395
0.678774 0.635108 0.362378
0.748023 0.643091 0.370361
0.817272 0.651074 0.378344
0.290135 0.675331 0.341335
0.359384 0.683314 0.349318
0.428633 0.691297 0.357301
0.497882 0.699280 0.365284
0.567131 0.707263 0.373268
0.636380 0.715246 0.381251
0.705630 0.723230 0.389234
0.774879 0.731213 0.397217
0.844128 0.739196 0.405200
0.316991 0.763452 0.368191
0.386240 0.771436 0.376174
0.455489 0.779419 0.384157
0.524738 0.787402 0.392140
0.593987 0.795385 0.400123
0.663236 0.803368 0.408107
0.732485 0.811351 0.417373
0.801734 0.819334 0.427037
0.870984 0.827318 0.436701
0.343847 0.851574 0.395047
0.413096 0.859557 0.403030
0.482345 0.867540 0.411228
0.551594 0.875524 0.420892
0.620843 0.883507 0.430555
0.690092 0.891490 0.440219
0.759341 0.899473 0.449883
0.828590 0.907456 0.459547
0.897839 0.915439 0.469211
0.131711 0.149311 0.251984
0.200960 0.157294 0.258286
0.270209 0.165277 0.264589
0.339458 0.173261 0.270891
0.408707 0.181244 0.277194
0.477957 0.189227 0.284093
0.547206 0.197210 0.292076
0.616455 0.205193 0.300059
0.685704 0.213176 0.308042
0.158567 0.237433 0.273186
0.227816 0.245416 0.279488
0.297065 0.253399 0.286999
0.366314 0.261382 0.294982
0.435563 0.269365 0.302965
0.504812 0.277349 0.310949
0.574062 0.285332 0.318932
0.643311 0.293315 0.326915
0.712560 0.301298 0.334898
0.185423 0.325555 0.297889
0.254672 0.333538 0.305872
0.323921 0.341521 0.313855
0.393170 0.349504 0.321838
0.462419 0.357487 0.329821
0.531668 0.365470 0.337804
0.600917 0.373454 0.345788
0.670166 0.381437 0.353771
0.739416 0.389420 0.361754
0.212279 0.413676 0.324745
0.281528 0.421660 0.332728
0.350777 0.429643 0.340711
0.420026 0.437626 0.348694
0.489275 0.445609 0.356677
0.558524 0.453592 0.364660
0.627773 0.461575 0.372643
0.697022 0.469558 0.380627
0.766271 0.477542 0.388610
0.239134 0.501798 0.351600
0.308384 0.509781 0.359584
0.377633 0.517764 0.367567
0.446882 0.525748 0.375550
0.516131 0.533731 0.383533
0.585380 0.541714 0.391516
0.654629 0.549697 0.399499
0.723878 0.557680 0.407482
0.793127 0.565663 0.415466
0.265990 0.589920 0.378456
0.335239 0.597903 0.386439
0.404488 0.605886 0.394422
0.473738 0.613869 0.402406
0.542987 0.621853 0.410389
0.612236 0.629836 0.418372
0.681485 0.637819 0.426355
0.750734 0.645802 0.434338
0.819983 0.653785 0.442321
0.292846 0.678042 0.405312
0.362095 0.686025 0.413295
0.431344 0.694008 0.421278
0.500593 0.701991 0.429261
0.569842 0.709974 0.437245
0.639092 0.717957 0.445228
0.708341 0.725941 0.453211
0.777590 0.733924 0.461194
0.846839 0.741907 0.469177
0.319702 0.766164 0.432168
0.388951 0.774147 0.440151
0.458200 0.782130 0.448134
0.527449 0.790113 0.456117
0.596698 0.798096 0.464100
0.665947 0.806079 0.472257
0.735196 0.814062 0.481921
0.804446 0.822046 0.491585
0.873695 0.830029 0.501249
0.346558 0.854285 0.459024
0.415807 0.862268 0.467007
0.485056 0.870252 0.475776
0.554305 0.878235 0.485439
0.623554 0.886218 0.495103
0.692803 0.894201 0.504767
0.762052 0.902184 0.514431
0.831301 0.910167 0.524095
0.900550 0.918150 0.533759
0.134422 0.152022 0.315390
0.203671 0.160005 0.321692
0.272920 0.167989 0.327995
0.342170 0.175972 0.334297
0.411419 0.183955 0.340600
0.480668 0.191938 0.348070
0.549917 0.199921 0.356053
0.619166 0.207904 0.364036
0.688415 0.215887 0.372019
0.161278 0.240144 0.336592
0.230527 0.248127 0.342993
0.299776 0.256110 0.350976
0.369025 0.264093 0.358959
0.438274 0.272077 0.366943
0.507524 0.280060 0.374926
0.576773 0.288043 0.382909
0.646022 0.296026 0.390892
0.715271 0.304009 0.398875
0.188134 0.328266 0.361866
0.257383 0.336249 0.369849
0.326632 0.344232 0.377832
0.395881 0.352215 0.385815
0.465130 0.360198 0.393798
0.534379 0.368182 0.401782
0.603628 0.376165 0.409765
0.672878 0.384148 0.417748
0.742127 0.392131 0.425731
0.214990 0.416388 0.388722
0.284239 0.424371 0.396705
0.353488 0.432354 0.404688
0.422737 0.440337 0.412671
0.491986 0.448320 0.420654
0.561235 0.456303 0.428637
0.630484 0.464286 0.436621
0.699733 0.472270 0.444604
0.768982 0.480253 0.452587
0.241846 0.504509 0.415577
0.311095 0.512492 0.423561
0.380344 0.520476 0.431544
0.449593 0.528459 0.439527
0.518842 0.536442 0.447510
0.588091 0.544425 0.455493
0.657340 0.552408 0.463476
0.726589 0.560391 0.471459
0.795838 0.568375 0.479443
0.268701 0.592631 0.442433
0.337950 0.600614 0.450416
0.407200 0.608597 0.458400
0.476449 0.616581 0.466383
0.545698 0.624564 0.474366
0.614947 0.632547 0.482349
0.684196 0.640530 0.490332
0.753445 0.648513 0.498315
0.822694 0.656496 0.506298
0.295557 0.680753 0.469289
0.364806 0.688736 0.477272
0.434055 0.696719 0.485255
0.503304 0.704702 0.493239
0.572554 0.712685 0.501222
0.641803 0.720669 0.509205
0.711052 0.728652 0.517188
0.780301 0.736635 0.525171
0.849550 0.744618 0.533287
0.322413 0.768875 0.496145
0.391662 0.776858 0.504128
0.460911 0.784841 0.512111
0.530160 0.792824 0.520094
0.599409 0.800807 0.528078
0.668658 0.808790 0.536805
0.737908 0.816774 0.546469
0.807157 0.824757 0.556133
0.876406 0.832740 0.565797
0.349269 0.856996 0.523001
0.418518 0.864980 0.530984
0.487767 0.872963 0.540323
0.557016 0.880946 0.549987
0.626265 0.888929 0.559651
0.695514 0.896912 0.569315
0.764763 0.904895 0.578979
0.834013 0.912878 0.588643
0.903262 0.920862 0.598306
0.137133 0.154733 0.378796
0.206382 0.162717 0.385099
0.275632 0.170700 0.391401
0.344881 0.178683 0.397704
0.414130 0.186666 0.404064
0.483379 0.194649 0.412047
0.552628 0.202632 0.420030
0.621877 0.210615 0.428013
0.691126 0.218599 0.435996
0.163989 0.242855 0.399998
0.233238 0.250838 0.406970
0.302487 0.258821 0.414953
0.371736 0.266805 0.422936
0.440986 0.274788 0.430920
0.510235 0.282771 0.438903
0.579484 0.290754 0.446886
0.648733 0.298737 0.454869
0.717982 0.306720 0.462852
0.190845 0.330977 0.425843
0.260094 0.338960 0.433826
0.329343 0.346943 0.441809
0.398592 0.354926 0.449792
0.467841 0.362909 0.457775
0.537090 0.370893 0.465759
0.606340 0.378876 0.473742
0.675589 0.386859 0.481725
0.744838 0.394842 0.489708
0.217701 0.419099 0.452699
0.286950 0.427082 0.460682
0.356199 0.435065 0.468665
0.425448 0.443048 0.476648
0.494697 0.451031 0.484631
0.563946 0.459014 0.492614
0.633195 0.466998 0.500598
0.702444 0.474981 0.508581
0.771694 0.482964 0.516564
0.244557 0.507220 0.479554
0.313806 0.515204 0.487538
0.383055 0.523187 0.495521
0.452304 0.531170 0.503504
0.521553 0.539153 0.511487
0.590802 0.547136 0.519470
0.660051 0.555119 0.527453
0.729300 0.563102 0.535437
0.798549 0.571086 0.543420
0.271412 0.595342 0.506410
0.340662 0.603325 0.514393
0.409911 0.611309 0.522377
0.479160 0.619292 0.530360
0.548409 0.627275 0.538343
0.617658 0.635258 0.546326
0.686907 0.643241 0.554309
0.756156 0.651224 0.562292
0.825405 0.659207 0.570276
0.298268 0.683464 0.533266
0.367517 0.691447 0.541249
0.436766 0.699430 0.549232
0.506016 0.707413 0.557216
0.575265 0.715397 0.565199
0.644514 0.723380 0.573182
0.713763 0.731363 0.581165
0.783012 0.739346 0.589148
0.852261 0.747329 0.597835
0.325124 0.771586 0.560122
0.394373 0.779569 0.568105
0.463622 0.787552 0.576088
0.532871 0.795535 0.584071
0.602121 0.803518 0.592055
0.671370 0.811501 0.601353
0.740619 0.819485 0.611017
0.809868 0.827468 0.620681
0.879117 0.835451 0.630345
0.351980 0.859708 0.586978
0.421229 0.867691 0.595207
0.490478 0.875674 0.604871
0.559727 0.883657 0.614535
0.628976 0.891640 0.624199
0.698225 0.899623 0.633863
0.767475 0.907606 0.643527
0.836724 0.915590 0.653190
0.905973 0.923573 0.662854
0.139844 0.157444 0.442202
0.209094 0.165428 0.448505
0.278343 0.173411 0.454807
0.347592 0.181394 0.461110
0.416841 0.189377 0.468041
0.486090 0.197360 0.476024
0.555339 0.205343 0.484007
0.624588 0.213327 0.491990
0.693837 0.221310 0.499973
0.166700 0.245566 0.463404
0.235949 0.253549 0.470947
0.305198 0.261533 0.478930
0.374448 0.269516 0.486914
0.443697 0.277499 0.494897
0.512946 0.285482 0.502880
0.582195 0.293465 0.510863
0.651444 0.301448 0.518846
0.720693 0.309431 0.526829
0.193556 0.333688 0.489820
0.262805 0.341671 0.497803
0.332054 0.349654 0.505786
0.401303 0.357637 0.513769
0.470552 0.365621 0.521752
0.539802 0.373604 0.529736
0.609051 0.381587 0.537719
0.678300 0.389570 0.545702
0.747549 0.397553 0.553685
0.220412 0.421810 0.516676
0.289661 0.429793 0.524659
0.358910 0.437776 0.532642
0.428159 0.445759 0.540625
0.497408 0.453742 0.548608
0.566657 0.461726 0.556591
0.635907 0.469709 0.564575
0.705156 0.477692 0.572558
0.774405 0.485675 0.580541
0.247268 0.509932 0.543532
0.316517 0.517915 0.551515
0.385766 0.525898 0.559498
0.455015 0.533881 0.567481
0.524264 0.541864 0.575464
0.593513 0.549847 0.583447
0.662762 0.557830 0.591430
0.732011 0.565814 0.599414
0.801261 0.573797 0.607397
0.274124 0.598053 0.570387
0.343373 0.606036 0.578371
0.412622 0.614020 0.586354
0.481871 0.622003 0.594337
0.551120 0.629986 0.602320
0.620369 0.637969 0.610303
0.689618 0.645952 0.618286
0.758867 0.653935 0.626269
0.828116 0.661919 0.634253
0.300979 0.686175 0.597243
0.370229 0.694158 0.605226
0.439478 0.702141 0.613210
0.508727 0.710125 0.621193
0.577976 0.718108 0.629176
0.647225 0.726091 0.637159
0.716474 0.734074 0.645142
0.785723 0.742057 0.653125
0.854972 0.750040 0.662383
0.327835 0.774297 0.624099
0.397084 0.782280 0.632082
0.466333 0.790263 0.640065
0.535583 0.798246 0.648048
0.604832 0.806229 0.656237
0.674081 0.814213 0.665901
0.743330 0.822196 0.675565
0.812579 0.830179 0.685229
0.881828 0.838162 0.694892
0.354691 0.862419 0.650955
0.423940 0.870402 0.659755
0.493189 0.878385 0.669419
0.562438 0.886368 0.679083
0.631687 0.894351 0.688747
0.700937 0.902334 0.698411
0.770186 0.910318 0.708074
0.839435 0.918301 0.717738
0.908684 0.926284 0.727402
0.142556 0.160156 0.505609
0.211805 0.168139 0.511911
0.281054 0.176122 0.518214
0.350303 0.184105 0.524516
0.419552 0.192088 0.532018
0.488801 0.200071 0.540001
0.558050 0.208054 0.547984
0.627299 0.216038 0.555967
0.696548 0.224021 0.563950
0.169411 0.248277 0.526941
0.238661 0.256261 0.534924
0.307910 0.264244 0.542907
0.377159 0.272227 0.550891
0.446408 0.280210 0.558874
0.515657 0.288193 0.566857
0.584906 0.296176 0.574840
0.654155 0.304159 0.582823
0.723404 0.312143 0.590806
0.196267 0.336399 0.553797
0.265516 0.344382 0.561780
0.334765 0.352365 0.569763
0.404015 0.360349 0.577746
0.473264 0.368332 0.585730
0.542513 0.376315 0.593713
0.611762 0.384298 0.601696
0.681011 0.392281 0.609679
0.750260 0.400264 0.617662
0.223123 0.424521 0.580653
0.292372 0.432504 0.588636
0.361621 0.440487 0.596619
0.430870 0.448470 0.604602
0.500119 0.456453 0.612585
0.569369 0.464437 0.620569
0.638618 0.472420 0.628552
0.707867 0.480403 0.636535
0.777116 0.488386 0.644518
0.249979 0.512643 0.607509
0.319228 0.520626 0.615492
0.388477 0.528609 0.623475
0.457726 0.536592 0.631458
0.526975 0.544575 0.639441
0.596224 0.552558 0.647424
0.665473 0.560542 0.655408
0.734723 0.568525 0.663391
0.803972 0.576508 0.671374
0.276835 0.600764 0.634364
0.346084 0.608748 0.642348
0.415333 0.616731 0.650331
0.484582 0.624714 0.658314
0.553831 0.632697 0.666297
0.623080 0.640680 0.674280
0.692329 0.648663 0.682263
0.761578 0.656646 0.690246
0.830827 0.664630 0.698230
0.303691 0.688886 0.661220
0.372940 0.696869 0.669203
0.442189 0.704853 0.677187
0.511438 0.712836 0.685170
0.580687 0.720819 0.693153
0.649936 0.728802 0.701136
0.719185 0.736785 0.709119
0.788434 0.744768 0.717267
0.857683 0.752751 0.726930
0.330546 0.777008 0.688076
0.399795 0.784991 0.696059
0.469045 0.792974 0.704042
0.538294 0.800957 0.712026
0.607543 0.808941 0.720785
0.676792 0.816924 0.730449
0.746041 0.824907 0.740113
0.815290 0.832890 0.749776
0.884539 0.840873 0.759440
0.357402 0.865130 0.714932
0.426651 0.873113 0.724303
0.495900 0.881096 0.733967
0.565149 0.889079 0.743631
0.634399 0.897062 0.753295
0.703648 0.905045 0.762958
0.772897 0.913029 0.772622
0.842146 0.921012 0.782286
0.911395 0.928995 0.791950
0.145267 0.162867 0.569015
0.214516 0.170850 0.575318
0.283765 0.178833 0.581620
0.353014 0.186816 0.588012
0.422263 0.194799 0.595995
0.491512 0.202782 0.603978
0.560761 0.210766 0.611961
0.630010 0.218749 0.619944
0.699259 0.226732 0.627928
0.172123 0.250988 0.590918
0.241372 0.258972 0.598901
0.310621 0.266955 0.606884
0.379870 0.274938 0.614868
0.449119 0.282921 0.622851
0.518368 0.290904 0.630834
0.587617 0.298887 0.638817
0.656866 0.306871 0.646800
0.726115 0.314854 0.654783
0.198978 0.339110 0.617774
0.268227 0.347093 0.625757
0.337477 0.355077 0.633740
0.406726 0.363060 0.641723
0.475975 0.371043 0.649707
0.545224 0.379026 0.657690
0.614473 0.387009 0.665673
0.683722 0.394992 0.673656
0.752971 0.402975 0.681639
0.225834 0.427232 0.644630
0.295083 0.435215 0.652613
0.364332 0.443198 0.660596
0.433581 0.451181 0.668579
0.502831 0.459165 0.676562
0.572080 0.467148 0.684546
0.641329 0.475131 0.692529
0.710578 0.483114 0.700512
0.779827 0.491097 0.708495
0.252690 0.515354 0.671486
0.321939 0.523337 0.679469
0.391188 0.531320 0.687452
0.460437 0.539303 0.695435
0.529686 0.547286 0.703418
0.598935 0.555270 0.711401
0.668185 0.563253 0.719385
0.737434 0.571236 0.727368
0.806683 0.579219 0.735351
0.279546 0.603476 0.698341
0.348795 0.611459 0.706325
0.418044 0.619442 0.714308
0.487293 0.627425 0.722291
0.556542 0.635408 0.730274
0.625791 0.643391 0.738257
0.695040 0.651374 0.746240
0.764289 0.659358 0.754224
0.833539 0.667341 0.762207
0.306402 0.691597 0.725197
0.375651 0.699580 0.733180
0.444900 0.707564 0.741164
0.514149 0.715547 0.749147
0.583398 0.723530 0.757130
0.652647 0.731513 0.765113
0.721896 0.739496 0.773096
0.791145 0.747479 0.781814
0.860394 0.755463 0.791478
0.333257 0.779719 0.752053
0.402507 0.787702 0.760036
0.471756 0.795685 0.768019
0.541005 0.803669 0.776003
0.610254 0.811652 0.785333
0.679503 0.819635 0.794997
0.748752 0.827618 0.804660
0.818001 0.835601 0.814324
0.887250 0.843584 0.823988
0.360113 0.867841 0.779187
0.429362 0.875824 0.788851
0.498612 0.883807 0.798515
0.567861 0.891790 0.808179
0.637110 0.899773 0.817842
0.706359 0.907757 0.827506
0.775608 0.915740 0.837170
0.844857 0.923723 0.846834
0.914106 0.931706 0.856498
0.147978 0.165578 0.632421
0.217227 0.173561 0.638724
0.286476 0.181544 0.645026
0.355725 0.189527 0.651989
0.424974 0.197510 0.659972
0.494223 0.205494 0.667955
0.563472 0.213477 0.675938
0.632721 0.221460 0.683921
0.701971 0.229443 0.691905
0.174834 0.253700 0.654895
0.244083 0.261683 0.662878
0.313332 0.269666 0.670862
0.382581 0.277649 0.678845
0.451830 0.285632 0.686828
0.521079 0.293615 0.694811
0.590328 0.301598 0.702794
0.659577 0.309582 0.710777
0.728826 0.317565 0.718760
0.201689 0.341821 0.681751
0.270939 0.349805 0.689734
0.340188 0.357788 0.697717
0.409437 0.365771 0.705701
0.478686 0.373754 0.713684
0.547935 0.381737 0.721667
0.617184 0.389720 0.729650
0.686433 0.397703 0.737633
0.755682 0.405687 0.745616
0.228545 0.429943 0.708607
0.297794 0.437926 0.716590
0.367043 0.445909 0.724573
0.436293 0.453893 0.732556
0.505542 0.461876 0.740539
0.574791 0.469859 0.748523
0.644040 0.477842 0.756506
0.713289 0.485825 0.764489
0.782538 0.493808 0.772472
0.255401 0.518065 0.735463
0.324650 0.526048 0.743446
0.393899 0.534031 0.751429
0.463148 0.542014 0.759412
0.532397 0.549997 0.767395
0.601647 0.557981 0.775378
0.670896 0.565964 0.783362
0.740145 0.573947 0.791345
0.809394 0.581930 0.799328
0.282257 0.606187 0.762319
0.351506 0.614170 0.770302
0.420755 0.622153 0.778285
0.490004 0.630136 0.786268
0.559253 0.638119 0.794251
0.628502 0.646102 0.802234
0.697752 0.654086 0.810217
0.767001 0.662069 0.818201
0.836250 0.670052 0.826184
0.309113 0.694308 0.789174
0.378362 0.702292 0.797158
0.447611 0.710275 0.805141
0.516860 0.718258 0.813124
0.586109 0.726241 0.821107
0.655358 0.734224 0.829090
0.724607 0.742207 0.837073
0.793856 0.750190 0.846362
0.863106 0.758174 0.856026
0.335969 0.782430 0.816030
0.405218 0.790413 0.824013
0.474467 0.798397 0.831997
0.543716 0.806380 0.840217
0.612965 0.814363 0.849881
0.682214 0.822346 0.859544
0.751463 0.830329 0.869208
0.820712 0.838312 0.878872
0.889961 0.846295 0.888536
0.362824 0.870552 0.843735
0.432074 0.878535 0.853399
0.501323 0.886518 0.863063
0.570572 0.894501 0.872726
0.639821 0.902485 0.882390
0.709070 0.910468 0.892054
0.778319 0.918451 0.901718
0.847568 0.926434 0.911382
0.916817 0.934417 0.921045
0.150689 0.168289 0.695828
0.219938 0.176272 0.702130
0.289187 0.184255 0.708433
0.358436 0.192238 0.715966
0.427685 0.200222 0.723949
0.496934 0.208205 0.731932
0.566183 0.216188 0.739915
0.635433 0.224171 0.747899
0.704682 0.232154 0.755882
0.177545 0.256411 0.718872
0.246794 0.264394 0.726855
0.316043 0.272377 0.734839
0.385292 0.280360 0.742822
0.454541 0.288343 0.750805
0.523790 0.296326 0.758788
0.593039 0.304310 0.766771
0.662288 0.312293 0.774754
0.731538 0.320276 0.782738
0.204401 0.344532 0.745728
0.273650 0.352516 0.753711
0.342899 0.360499 0.761694
0.412148 0.368482 0.769678
0.481397 0.376465 0.777661
0.550646 0.384448 0.785644
0.619895 0.392431 0.793627
0.689144 0.400415 0.801610
0.758393 0.408398 0.809593
0.231256 0.432654 0.772584
0.300506 0.440637 0.780567
0.369755 0.448621 0.788550
0.439004 0.456604 0.796533
0.508253 0.464587 0.804517
0.577502 0.472570 0.812500
0.646751 0.480553 0.820483
0.716000 0.488536 0.828466
0.785249 0.496519 0.836449
0.258112 0.520776 0.799440
0.327361 0.528759 0.807423
0.396610 0.536742 0.815406
0.465860 0.544725 0.823389
0.535109 0.552709 0.831372
0.604358 0.560692 0.839356
0.673607 0.568675 0.847339
0.742856 0.576658 0.855322
0.812105 0.584641 0.863305
0.284968 0.608898 0.826296
0.354217 0.616881 0.834279
0.423466 0.624864 0.842262
0.492715 0.632847 0.850245
0.561964 0.640830 0.858228
0.631214 0.648814 0.866211
0.700463 0.656797 0.874195
0.769712 0.664780 0.882178
0.838961 0.672763 0.890161
0.311824 0.697020 0.853151
0.381073 0.705003 0.861135
0.450322 0.712986 0.869118
0.519571 0.720969 0.877101
0.588820 0.728952 0.885084
0.658069 0.736935 0.893067
0.727318 0.744918 0.901246
0.796568 0.752902 0.910910
0.865817 0.760885 0.920574
0.338680 0.785141 0.880007
0.407929 0.793124 0.887990
0.477178 0.801108 0.895974
0.546427 0.809091 0.904765
0.615676 0.817074 0.914428
0.684925 0.825057 0.924092
0.754174 0.833040 0.933756
0.823423 0.841023 0.943420
0.892672 0.849007 0.953084
0.365536 0.873263 0.908283
0.434785 0.881246 0.917947
0.504034 0.889229 0.927610
0.573283 0.897213 0.937274
0.642532 0.905196 0.946938
0.711781 0.913179 0.956602
0.781030 0.921162 0.966266
0.850279 0.929145 0.975929
0.919528 0.937128 0.985593
