fexer/Resources/LUTs/cool_mist.cube
TITLE "Cool Mist"
LUT_3D_SIZE 5
DOMAIN_MIN 0.0 0.0 0.0
DOMAIN_MAX 1.0 1.0 1.0
0.129000 0.146600 0.188577
0.267498 0.162566 0.201182
0.405996 0.178533 0.213787
0.544495 0.194499 0.228099
0.682993 0.210465 0.244065
0.182712 0.322844 0.233912
0.321210 0.338810 0.249878
0.459708 0.354776 0.265844
0.598206 0.370742 0.281811
0.736704 0.386709 0.297777
0.236423 0.499087 0.287623
0.374921 0.515053 0.303590
0.513420 0.531020 0.319556
0.651918 0.546986 0.335522
0.790416 0.562952 0.351489
0.290135 0.675331 0.341335
0.428633 0.691297 0.357301
0.567131 0.707263 0.373268
0.705630 0.723230 0.389234
0.844128 0.739196 0.405200
0.343847 0.851574 0.395047
0.482345 0.867540 0.411228
0.620843 0.883507 0.430555
0.759341 0.899473 0.449883
0.897839 0.915439 0.469211
0.134422 0.152022 0.315390
0.272920 0.167989 0.327995
0.411419 0.183955 0.340600
0.549917 0.199921 0.356053
0.688415 0.215887 0.372019
0.188134 0.328266 0.361866
0.326632 0.344232 0.377832
0.465130 0.360198 0.393798
0.603628 0.376165 0.409765
0.742127 0.392131 0.425731
0.241846 0.504509 0.415577
0.380344 0.520476 0.431544
0.518842 0.536442 0.447510
0.657340 0.552408 0.463476
0.795838 0.568375 0.479443
0.295557 0.680753 0.469289
0.434055 0.696719 0.485255
0.572554 0.712685 0.501222
0.711052 0.728652 0.517188
0.849550 0.744618 0.533287
0.349269 0.856996 0.523001
0.487767 0.872963 0.540323
0.626265 0.888929 0.559651
0.764763 0.904895 0.578979
0.903262 0.920862 0.598306
0.139844 0.157444 0.442202
0.278343 0.173411 0.454807
0.416841 0.189377 0.468041
0.555339 0.205343 0.484007
0.693837 0.221310 0.499973
0.193556 0.333688 0.489820
0.332054 0.349654 0.505786
0.470552 0.365621 0.521752
0.609051 0.381587 0.537719
0.747549 0.397553 0.553685
0.247268 0.509932 0.543532
0.385766 0.525898 0.559498
0.524264 0.541864 0.575464
0.662762 0.557830 0.591430
0.801261 0.573797 0.607397
0.300979 0.686175 0.597243
0.439478 0.702141 0.613210
0.577976 0.718108 0.629176
0.716474 0.734074 0.645142
0.854972 0.750040 0.662383
0.354691 0.862419 0.650955
0.493189 0.878385 0.669419
0.631687 0.894351 0.688747
0.770186 0.910318 0.708074
0.908684 0.926284 0.727402
0.145267 0.162867 0.569015
0.283765 0.178833 0.581620
0.422263 0.194799 0.595995
0.560761 0.210766 0.611961
0.699259 0.226732 0.627928
0.198978 0.339110 0.617774
0.337477 0.355077 0.633740
0.475975 0.371043 0.649707
0.614473 0.387009 0.665673
0.752971 0.402975 0.681639
0.252690 0.515354 0.671486
0.391188 0.531320 0.687452
0.529686 0.547286 0.703418
0.668185 0.563253 0.719385
0.806683 0.579219 0.735351
0.306402 0.691597 0.725197
0.444900 0.707564 0.741164
0.583398 0.723530 0.757130
0.721896 0.739496 0.773096
0.860394 0.755463 0.791478
0.360113 0.867841 0.779187
0.498612 0.883807 0.798515
0.637110 0.899773 0.817842
0.775608 0.915740 0.837170
0.914106 0.931706 0.856498
0.150689 0.168289 0.695828
0.289187 0.184255 0.708433
0.427685 0.200222 0.723949
0.566183 0.216188 0.739915
0.704682 0.232154 0.755882
0.204401 0.344532 0.745728
0.342899 0.360499 0.761694
0.481397 0.376465 0.777661
0.619895 0.392431 0.793627
0.758393 0.408398 0.809593
0.258112 0.520776 0.799440
0.396610 0.536742 0.815406
0.535109 0.552709 0.831372
0.673607 0.568675 0.847339
0.812105 0.584641 0.863305
0.311824 0.697020 0.853151
0.450322 0.712986 0.869118
0.588820 0.728952 0.885084
0.727318 0.744918 0.901246
0.865817 0.760885 0.920574
0.365536 0.873263 0.908283
0.504034 0.889229 0.927610
0.642532 0.905196 0.946938
0.781030 0.921162 0.966266
0.919528 0.937128 0.985593
