fexer/Resources/LUTs/dreamy_soft.cube
TITLE "Dreamy"
LUT_3D_SIZE 33
DOMAIN_MIN 0.0 0.0 0.0
DOMAIN_MAX 1.0 1.0 1.0
0.190400 0.194800 0.203200
0.208038 0.196404 0.204804
0.225676 0.198008 0.206408
0.243314 0.199612 0.208012
0.260951 0.201217 0.209617
0.278589 0.202821 0.211221
0.296227 0.204425 0.212825
0.313865 0.206029 0.214429
0.331503 0.207633 0.216033
0.349141 0.209237 0.217637
0.366779 0.210841 0.219241
0.384416 0.212445 0.220845
0.402054 0.214050 0.222450
0.419692 0.215654 0.224054
0.437330 0.217258 0.225658
0.454968 0.218862 0.227262
0.472606 0.220466 0.228866
0.490244 0.222070 0.230470
0.507881 0.223674 0.232074
0.525519 0.225278 0.233678
0.543157 0.226883 0.235283
0.560795 0.228487 0.236887
0.578433 0.230091 0.238491
0.596071 0.231695 0.240095
0.613709 0.233299 0.241699
0.631346 0.234903 0.243303
0.648984 0.236507 0.244907
0.666622 0.238111 0.246511
0.684260 0.239716 0.248116
0.701898 0.241320 0.249720
0.719536 0.242924 0.251324
0.737174 0.244528 0.252928
0.754811 0.246132 0.254532
0.195796 0.216230 0.208596
0.213434 0.217834 0.210201
0.231072 0.219438 0.211805
0.248710 0.221043 0.213409
0.266348 0.222647 0.215013
0.283986 0.224251 0.216617
0.301624 0.225855 0.218221
0.319261 0.227459 0.219825
0.336899 0.229063 0.221429
0.354537 0.230667 0.223034
0.372175 0.232271 0.224638
0.389813 0.233876 0.226242
0.407451 0.235480 0.227846
0.425089 0.237084 0.229450
0.442726 0.238688 0.231054
0.460364 0.240292 0.232658
0.478002 0.241896 0.234262
0.495640 0.243500 0.235867
0.513278 0.245104 0.237471
0.530916 0.246709 0.239075
0.548554 0.248313 0.240679
0.566191 0.249917 0.242283
0.583829 0.251521 0.243887
0.601467 0.253125 0.245491
0.619105 0.254729 0.247095
0.636743 0.256333 0.248700
0.654381 0.257937 0.250304
0.672019 0.259542 0.251908
0.689656 0.261146 0.253512
0.707294 0.262750 0.255116
0.724932 0.264354 0.256720
0.742570 0.265958 0.258324
0.760208 0.267562 0.259928
0.201193 0.237660 0.213993
0.218831 0.239264 0.215597
0.236468 0.240868 0.217201
0.254106 0.242473 0.218805
0.271744 0.244077 0.220409
0.289382 0.245681 0.222013
0.307020 0.247285 0.223618
0.324658 0.248889 0.225222
0.342296 0.250493 0.226826
0.359934 0.252097 0.228430
0.377571 0.253702 0.230034
0.395209 0.255306 0.231638
0.412847 0.256910 0.233242
0.430485 0.258514 0.234846
0.448123 0.260118 0.236451
0.465761 0.261722 0.238055
0.483399 0.263326 0.239659
0.501036 0.264930 0.241263
0.518674 0.266535 0.242867
0.536312 0.268139 0.244471
0.553950 0.269743 0.246075
0.571588 0.271347 0.247679
0.589226 0.272951 0.249284
0.606864 0.274555 0.250888
0.624501 0.276159 0.252492
0.642139 0.277763 0.254096
0.659777 0.279368 0.255700
0.677415 0.280972 0.257304
0.695053 0.282576 0.258908
0.712691 0.284180 0.260512
0.730329 0.285784 0.262117
0.747966 0.287388 0.263721
0.765604 0.288992 0.265325
0.206589 0.259090 0.219389
0.224227 0.260694 0.220993
0.241865 0.262299 0.222597
0.259503 0.263903 0.224202
0.277141 0.265507 0.225806
0.294778 0.267111 0.227410
0.312416 0.268715 0.229014
0.330054 0.270319 0.230618
0.347692 0.271923 0.232222
0.365330 0.273528 0.233826
0.382968 0.275132 0.235430
0.400606 0.276736 0.237035
0.418243 0.278340 0.238639
0.435881 0.279944 0.240243
0.453519 0.281548 0.241847
0.471157 0.283152 0.243451
0.488795 0.284756 0.245055
0.506433 0.286361 0.246659
0.524071 0.287965 0.248263
0.541708 0.289569 0.249868
0.559346 0.291173 0.251472
0.576984 0.292777 0.253076
0.594622 0.294381 0.254680
0.612260 0.295985 0.256284
0.629898 0.297589 0.257888
0.647536 0.299194 0.259492
0.665173 0.300798 0.261096
0.682811 0.302402 0.262701
0.700449 0.304006 0.264305
0.718087 0.305610 0.265909
0.735725 0.307214 0.267513
0.753363 0.308818 0.269117
0.771001 0.310422 0.270721
0.211986 0.280520 0.224786
0.229623 0.282125 0.226390
0.247261 0.283729 0.227994
0.264899 0.285333 0.229598
0.282537 0.286937 0.231202
0.300175 0.288541 0.232806
0.317813 0.290145 0.234410
0.335451 0.291749 0.236014
0.353088 0.293353 0.237619
0.370726 0.294958 0.239223
0.388364 0.296562 0.240827
0.406002 0.298166 0.242431
0.423640 0.299770 0.244035
0.441278 0.301374 0.245639
0.458916 0.302978 0.247243
0.476553 0.304582 0.248847
0.494191 0.306187 0.250452
0.511829 0.307791 0.252056
0.529467 0.309395 0.253660
0.547105 0.310999 0.255264
0.564743 0.312603 0.256868
0.582381 0.314207 0.258472
0.600018 0.315811 0.260076
0.617656 0.317415 0.261680
0.635294 0.319020 0.263285
0.652932 0.320624 0.264889
0.670570 0.322228 0.266493
0.688208 0.323832 0.268097
0.705846 0.325436 0.269701
0.723483 0.327040 0.271305
0.741121 0.328644 0.272909
0.758759 0.330248 0.274514
0.776397 0.331853 0.276118
0.217382 0.301951 0.230182
0.235020 0.303555 0.231786
0.252658 0.305159 0.233390
0.270296 0.306763 0.234994
0.287933 0.308367 0.236598
0.305571 0.309971 0.238203
0.323209 0.311575 0.239807
0.340847 0.313179 0.241411
0.358485 0.314784 0.243015
0.376123 0.316388 0.244619
0.393761 0.317992 0.246223
0.411398 0.319596 0.247827
0.429036 0.321200 0.249431
0.446674 0.322804 0.251036
0.464312 0.324408 0.252640
0.481950 0.326013 0.254244
0.499588 0.327617 0.255848
0.517226 0.329221 0.257452
0.534863 0.330825 0.259056
0.552501 0.332429 0.260660
0.570139 0.334033 0.262264
0.587777 0.335637 0.263869
0.605415 0.337241 0.265473
0.623053 0.338846 0.267077
0.640691 0.340450 0.268681
0.658328 0.342054 0.270285
0.675966 0.343658 0.271889
0.693604 0.345262 0.273493
0.711242 0.346866 0.275098
0.728880 0.348470 0.276702
0.746518 0.350074 0.278306
0.764156 0.351679 0.279910
0.781793 0.353283 0.281514
0.222778 0.323381 0.235578
0.240416 0.324985 0.237182
0.258054 0.326589 0.238787
0.275692 0.328193 0.240391
0.293330 0.329797 0.241995
0.310968 0.331401 0.243599
0.328605 0.333005 0.245203
0.346243 0.334610 0.246807
0.363881 0.336214 0.248411
0.381519 0.337818 0.250015
0.399157 0.339422 0.251620
0.416795 0.341026 0.253224
0.434433 0.342630 0.254828
0.452070 0.344234 0.256432
0.469708 0.345839 0.258036
0.487346 0.347443 0.259640
0.504984 0.349047 0.261244
0.522622 0.350651 0.262848
0.540260 0.352255 0.264453
0.557898 0.353859 0.266057
0.575536 0.355463 0.267661
0.593173 0.357067 0.269265
0.610811 0.358672 0.270869
0.628449 0.360276 0.272473
0.646087 0.361880 0.274077
0.663725 0.363484 0.275682
0.681363 0.365088 0.277286
0.699001 0.366692 0.278890
0.716638 0.368296 0.280494
0.734276 0.369900 0.282098
0.751914 0.371505 0.283702
0.769552 0.373109 0.285306
0.787190 0.374713 0.286910
0.228175 0.344811 0.240975
0.245813 0.346415 0.242579
0.263450 0.348019 0.244183
0.281088 0.349623 0.245787
0.298726 0.351227 0.247391
0.316364 0.352831 0.248995
0.334002 0.354436 0.250599
0.351640 0.356040 0.252204
0.369278 0.357644 0.253808
0.386915 0.359248 0.255412
0.404553 0.360852 0.257016
0.422191 0.362456 0.258620
0.439829 0.364060 0.260224
0.457467 0.365664 0.261828
0.475105 0.367269 0.263433
0.492743 0.368873 0.265037
0.510380 0.370477 0.266641
0.528018 0.372081 0.268245
0.545656 0.373685 0.269849
0.563294 0.375289 0.271453
0.580932 0.376893 0.273057
0.598570 0.378498 0.274661
0.616208 0.380102 0.276266
0.633845 0.381706 0.277870
0.651483 0.383310 0.279474
0.669121 0.384914 0.281078
0.686759 0.386518 0.282682
0.704397 0.388122 0.284286
0.722035 0.389726 0.285890
0.739673 0.391331 0.287494
0.757310 0.392935 0.289099
0.774948 0.394539 0.290703
0.792586 0.396143 0.292307
0.233571 0.366241 0.246371
0.251209 0.367845 0.247975
0.268847 0.369449 0.249579
0.286485 0.371053 0.251183
0.304123 0.372657 0.252788
0.321760 0.374262 0.254392
0.339398 0.375866 0.255996
0.357036 0.377470 0.257600
0.374674 0.379074 0.259204
0.392312 0.380678 0.260808
0.409950 0.382282 0.262412
0.427588 0.383886 0.264017
0.445225 0.385490 0.265621
0.462863 0.387095 0.267225
0.480501 0.388699 0.268829
0.498139 0.390303 0.270433
0.515777 0.391907 0.272037
0.533415 0.393511 0.273641
0.551053 0.395115 0.275245
0.568690 0.396719 0.276850
0.586328 0.398324 0.278454
0.603966 0.399928 0.280058
0.621604 0.401532 0.281662
0.639242 0.403136 0.283266
0.656880 0.404740 0.284870
0.674518 0.406344 0.286474
0.692155 0.407948 0.288078
0.709793 0.409552 0.289683
0.727431 0.411157 0.291287
0.745069 0.412761 0.292891
0.762707 0.414365 0.294495
0.780345 0.415969 0.296099
0.797983 0.417573 0.297703
0.238967 0.387671 0.251767
0.256605 0.389275 0.253372
0.274243 0.390879 0.254976
0.291881 0.392483 0.256580
0.309519 0.394088 0.258184
0.327157 0.395692 0.259788
0.344795 0.397296 0.261392
0.362433 0.398900 0.262996
0.380070 0.400504 0.264601
0.397708 0.402108 0.266205
0.415346 0.403712 0.267809
0.432984 0.405316 0.269413
0.450622 0.406921 0.271017
0.468260 0.408525 0.272621
0.485898 0.410129 0.274225
0.503535 0.411733 0.275829
0.521173 0.413337 0.277434
0.538811 0.414941 0.279038
0.556449 0.416545 0.280642
0.574087 0.418149 0.282246
0.591725 0.419754 0.283850
0.609363 0.421358 0.285454
0.627000 0.422962 0.287058
0.644638 0.424566 0.288662
0.662276 0.426170 0.290267
0.679914 0.427774 0.291871
0.697552 0.429378 0.293475
0.715190 0.430983 0.295079
0.732828 0.432587 0.296683
0.750465 0.434191 0.298287
0.768103 0.435795 0.299891
0.785741 0.437399 0.301495
0.803379 0.439003 0.303100
0.244364 0.409101 0.257164
0.262002 0.410705 0.258768
0.279640 0.412309 0.260372
0.297277 0.413914 0.261976
0.314915 0.415518 0.263580
0.332553 0.417122 0.265185
0.350191 0.418726 0.266789
0.367829 0.420330 0.268393
0.385467 0.421934 0.269997
0.403105 0.423538 0.271601
0.420742 0.425142 0.273205
0.438380 0.426747 0.274809
0.456018 0.428351 0.276413
0.473656 0.429955 0.278018
0.491294 0.431559 0.279622
0.508932 0.433163 0.281226
0.526570 0.434767 0.282830
0.544207 0.436371 0.284434
0.561845 0.437975 0.286038
0.579483 0.439580 0.287642
0.597121 0.441184 0.289246
0.614759 0.442788 0.290851
0.632397 0.444392 0.292455
0.650035 0.445996 0.294059
0.667672 0.447600 0.295663
0.685310 0.449204 0.297267
0.702948 0.450809 0.298871
0.720586 0.452413 0.300475
0.738224 0.454017 0.302079
0.755862 0.455621 0.303684
0.773500 0.457225 0.305288
0.791137 0.458829 0.306892
0.808775 0.460433 0.308496
0.249760 0.430531 0.262560
0.267398 0.432135 0.264164
0.285036 0.433740 0.265769
0.302674 0.435344 0.267373
0.320312 0.436948 0.268977
0.337950 0.438552 0.270581
0.355587 0.440156 0.272185
0.373225 0.441760 0.273789
0.390863 0.443364 0.275393
0.408501 0.444968 0.276997
0.426139 0.446573 0.278602
0.443777 0.448177 0.280206
0.461415 0.449781 0.281810
0.479052 0.451385 0.283414
0.496690 0.452989 0.285018
0.514328 0.454593 0.286622
0.531966 0.456197 0.288226
0.549604 0.457801 0.289830
0.567242 0.459406 0.291435
0.584880 0.461010 0.293039
0.602517 0.462614 0.294643
0.620155 0.464218 0.296247
0.637793 0.465822 0.297851
0.655431 0.467426 0.299455
0.673069 0.469030 0.301059
0.690707 0.470634 0.302663
0.708345 0.472239 0.304268
0.725982 0.473843 0.305872
0.743620 0.475447 0.307476
0.761258 0.477051 0.309080
0.778896 0.478655 0.310684
0.796534 0.480259 0.312288
0.814172 0.481863 0.313892
0.255157 0.451961 0.267957
0.272795 0.453566 0.269561
0.290432 0.455170 0.271165
0.308070 0.456774 0.272769
0.325708 0.458378 0.274373
0.343346 0.459982 0.275977
0.360984 0.461586 0.277581
0.378622 0.463190 0.279186
0.396260 0.464794 0.280790
0.413897 0.466399 0.282394
0.431535 0.468003 0.283998
0.449173 0.469607 0.285602
0.466811 0.471211 0.287206
0.484449 0.472815 0.288810
0.502087 0.474419 0.290414
0.519725 0.476023 0.292019
0.537362 0.477627 0.293623
0.555000 0.479232 0.295227
0.572638 0.480836 0.296831
0.590276 0.482440 0.298435
0.607914 0.484044 0.300039
0.625552 0.485648 0.301643
0.643190 0.487252 0.303247
0.660827 0.488856 0.304852
0.678465 0.490460 0.306456
0.696103 0.492065 0.308060
0.713741 0.493669 0.309664
0.731379 0.495273 0.311268
0.749017 0.496877 0.312872
0.766655 0.498481 0.314476
0.784292 0.500085 0.316080
0.801930 0.501689 0.317685
0.819568 0.503294 0.319289
0.260553 0.473392 0.273353
0.278191 0.474996 0.274957
0.295829 0.476600 0.276561
0.313467 0.478204 0.278165
0.331104 0.479808 0.279770
0.348742 0.481412 0.281374
0.366380 0.483016 0.282978
0.384018 0.484620 0.284582
0.401656 0.486225 0.286186
0.419294 0.487829 0.287790
0.436932 0.489433 0.289394
0.454569 0.491037 0.290998
0.472207 0.492641 0.292603
0.489845 0.494245 0.294207
0.507483 0.495849 0.295811
0.525121 0.497453 0.297415
0.542759 0.499058 0.299019
0.560397 0.500662 0.300623
0.578034 0.502266 0.302227
0.595672 0.503870 0.303831
0.613310 0.505474 0.305436
0.630948 0.507078 0.307040
0.648586 0.508682 0.308644
0.666224 0.510286 0.310248
0.683862 0.511891 0.311852
0.701500 0.513495 0.313456
0.719137 0.515099 0.315060
0.736775 0.516703 0.316664
0.754413 0.518307 0.318269
0.772051 0.519911 0.319873
0.789689 0.521515 0.321477
0.807327 0.523120 0.323081
0.824965 0.524724 0.324685
0.265949 0.494822 0.278749
0.283587 0.496426 0.280354
0.301225 0.498030 0.281958
0.318863 0.499634 0.283562
0.336501 0.501238 0.285166
0.354139 0.502842 0.286770
0.371777 0.504446 0.288374
0.389414 0.506051 0.289978
0.407052 0.507655 0.291582
0.424690 0.509259 0.293187
0.442328 0.510863 0.294791
0.459966 0.512467 0.296395
0.477604 0.514071 0.297999
0.495242 0.515675 0.299603
0.512879 0.517279 0.301207
0.530517 0.518884 0.302811
0.548155 0.520488 0.304415
0.565793 0.522092 0.306020
0.583431 0.523696 0.307624
0.601069 0.525300 0.309228
0.618707 0.526904 0.310832
0.636344 0.528508 0.312436
0.653982 0.530112 0.314040
0.671620 0.531717 0.315644
0.689258 0.533321 0.317248
0.706896 0.534925 0.318853
0.724534 0.536529 0.320457
0.742172 0.538133 0.322061
0.759809 0.539737 0.323665
0.777447 0.541341 0.325269
0.795085 0.542945 0.326873
0.812723 0.544550 0.328477
0.830361 0.546154 0.330082
0.271346 0.516252 0.284146
0.288984 0.517856 0.285750
0.306622 0.519460 0.287354
0.324259 0.521064 0.288958
0.341897 0.522668 0.290562
0.359535 0.524272 0.292166
0.377173 0.525877 0.293771
0.394811 0.527481 0.295375
0.412449 0.529085 0.296979
0.430087 0.530689 0.298583
0.447724 0.532293 0.300187
0.465362 0.533897 0.301791
0.483000 0.535501 0.303395
0.500638 0.537105 0.304999
0.518276 0.538710 0.306604
0.535914 0.540314 0.308208
0.553552 0.541918 0.309812
0.571189 0.543522 0.311416
0.588827 0.545126 0.313020
0.606465 0.546730 0.314624
0.624103 0.548334 0.316228
0.641741 0.549938 0.317832
0.659379 0.551543 0.319437
0.677017 0.553147 0.321041
0.694654 0.554751 0.322645
0.712292 0.556355 0.324249
0.729930 0.557959 0.325853
0.747568 0.559563 0.327457
0.765206 0.561167 0.329061
0.782844 0.562771 0.330666
0.800482 0.564376 0.332270
0.818119 0.565980 0.333874
0.835757 0.567584 0.335478
0.276742 0.537682 0.289542
0.294380 0.539286 0.291146
0.312018 0.540890 0.292750
0.329656 0.542494 0.294355
0.347294 0.544098 0.295959
0.364932 0.545703 0.297563
0.382569 0.547307 0.299167
0.400207 0.548911 0.300771
0.417845 0.550515 0.302375
0.435483 0.552119 0.303979
0.453121 0.553723 0.305583
0.470759 0.555327 0.307188
0.488397 0.556931 0.308792
0.506034 0.558536 0.310396
0.523672 0.560140 0.312000
0.541310 0.561744 0.313604
0.558948 0.563348 0.315208
0.576586 0.564952 0.316812
0.594224 0.566556 0.318417
0.611862 0.568160 0.320021
0.629499 0.569764 0.321625
0.647137 0.571369 0.323229
0.664775 0.572973 0.324833
0.682413 0.574577 0.326437
0.700051 0.576181 0.328041
0.717689 0.577785 0.329645
0.735327 0.579389 0.331250
0.752964 0.580993 0.332854
0.770602 0.582597 0.334458
0.788240 0.584202 0.336062
0.805878 0.585806 0.337666
0.823516 0.587410 0.339270
0.841154 0.589014 0.340874
0.282139 0.559112 0.294939
0.299776 0.560716 0.296543
0.317414 0.562320 0.298147
0.335052 0.563924 0.299751
0.352690 0.565529 0.301355
0.370328 0.567133 0.302959
0.387966 0.568737 0.304563
0.405604 0.570341 0.306167
0.423241 0.571945 0.307772
0.440879 0.573549 0.309376
0.458517 0.575153 0.310980
0.476155 0.576757 0.312584
0.493793 0.578362 0.314188
0.511431 0.579966 0.315792
0.529069 0.581570 0.317396
0.546706 0.583174 0.319001
0.564344 0.584778 0.320605
0.581982 0.586382 0.322209
0.599620 0.587986 0.323813
0.617258 0.589590 0.325417
0.634896 0.591195 0.327021
0.652534 0.592799 0.328625
0.670171 0.594403 0.330229
0.687809 0.596007 0.331834
0.705447 0.597611 0.333438
0.723085 0.599215 0.335042
0.740723 0.600819 0.336646
0.758361 0.602423 0.338250
0.775999 0.604028 0.339854
0.793636 0.605632 0.341458
0.811274 0.607236 0.343062
0.828912 0.608840 0.344667
0.846550 0.610444 0.346271
0.287535 0.580542 0.300335
0.305173 0.582146 0.301939
0.322811 0.583750 0.303543
0.340449 0.585355 0.305147
0.358086 0.586959 0.306751
0.375724 0.588563 0.308356
0.393362 0.590167 0.309960
0.411000 0.591771 0.311564
0.428638 0.593375 0.313168
0.446276 0.594979 0.314772
0.463914 0.596583 0.316376
0.481551 0.598188 0.317980
0.499189 0.599792 0.319585
0.516827 0.601396 0.321189
0.534465 0.603000 0.322793
0.552103 0.604604 0.324397
0.569741 0.606208 0.326001
0.587379 0.607812 0.327605
0.605016 0.609416 0.329209
0.622654 0.611021 0.330813
0.640292 0.612625 0.332418
0.657930 0.614229 0.334022
0.675568 0.615833 0.335626
0.693206 0.617437 0.337230
0.710844 0.619041 0.338834
0.728481 0.620645 0.340438
0.746119 0.622249 0.342042
0.763757 0.623854 0.343646
0.781395 0.625458 0.345251
0.799033 0.627062 0.346855
0.816671 0.628666 0.348459
0.834309 0.630270 0.350063
0.851946 0.631874 0.351667
0.292931 0.601972 0.305731
0.310569 0.603576 0.307335
0.328207 0.605181 0.308940
0.345845 0.606785 0.310544
0.363483 0.608389 0.312148
0.381121 0.609993 0.313752
0.398759 0.611597 0.315356
0.416396 0.613201 0.316960
0.434034 0.614805 0.318564
0.451672 0.616409 0.320169
0.469310 0.618014 0.321773
0.486948 0.619618 0.323377
0.504586 0.621222 0.324981
0.522224 0.622826 0.326585
0.539861 0.624430 0.328189
0.557499 0.626034 0.329793
0.575137 0.627638 0.331397
0.592775 0.629242 0.333002
0.610413 0.630847 0.334606
0.628051 0.632451 0.336210
0.645689 0.634055 0.337814
0.663326 0.635659 0.339418
0.680964 0.637263 0.341022
0.698602 0.638867 0.342626
0.716240 0.640471 0.344230
0.733878 0.642075 0.345835
0.751516 0.643680 0.347439
0.769154 0.645284 0.349043
0.786791 0.646888 0.350647
0.804429 0.648492 0.352251
0.822067 0.650096 0.353855
0.839705 0.651700 0.355459
0.857343 0.653304 0.357063
0.298328 0.623402 0.311128
0.315966 0.625007 0.312732
0.333603 0.626611 0.314336
0.351241 0.628215 0.315940
0.368879 0.629819 0.317544
0.386517 0.631423 0.319148
0.404155 0.633027 0.320753
0.421793 0.634631 0.322357
0.439431 0.636235 0.323961
0.457068 0.637840 0.325565
0.474706 0.639444 0.327169
0.492344 0.641048 0.328773
0.509982 0.642652 0.330377
0.527620 0.644256 0.331981
0.545258 0.645860 0.333586
0.562896 0.647464 0.335190
0.580533 0.649068 0.336794
0.598171 0.650673 0.338398
0.615809 0.652277 0.340002
0.633447 0.653881 0.341606
0.651085 0.655485 0.343210
0.668723 0.657089 0.344814
0.686361 0.658693 0.346419
0.703999 0.660297 0.348023
0.721636 0.661901 0.349627
0.739274 0.663506 0.351231
0.756912 0.665110 0.352835
0.774550 0.666714 0.354439
0.792188 0.668318 0.356043
0.809826 0.669922 0.357647
0.827464 0.671526 0.359252
0.845101 0.673130 0.360856
0.862739 0.674734 0.362460
0.303724 0.644832 0.316524
0.321362 0.646437 0.318128
0.339000 0.648041 0.319732
0.356638 0.649645 0.321337
0.374276 0.651249 0.322941
0.391913 0.652853 0.324545
0.409551 0.654457 0.326149
0.427189 0.656061 0.327753
0.444827 0.657666 0.329357
0.462465 0.659270 0.330961
0.480103 0.660874 0.332565
0.497741 0.662478 0.334170
0.515378 0.664082 0.335774
0.533016 0.665686 0.337378
0.550654 0.667290 0.338982
0.568292 0.668894 0.340586
0.585930 0.670499 0.342190
0.603568 0.672103 0.343794
0.621206 0.673707 0.345398
0.638843 0.675311 0.347003
0.656481 0.676915 0.348607
0.674119 0.678519 0.350211
0.691757 0.680123 0.351815
0.709395 0.681727 0.353419
0.727033 0.683332 0.355023
0.744671 0.684936 0.356627
0.762308 0.686540 0.358231
0.779946 0.688144 0.359836
0.797584 0.689748 0.361440
0.815222 0.691352 0.363044
0.832860 0.692956 0.364648
0.850498 0.694560 0.366252
0.868136 0.696165 0.367856
0.309121 0.666263 0.321921
0.326758 0.667867 0.323525
0.344396 0.669471 0.325129
0.362034 0.671075 0.326733
0.379672 0.672679 0.328337
0.397310 0.674283 0.329941
0.414948 0.675887 0.331545
0.432586 0.677492 0.333149
0.450223 0.679096 0.334754
0.467861 0.680700 0.336358
0.485499 0.682304 0.337962
0.503137 0.683908 0.339566
0.520775 0.685512 0.341170
0.538413 0.687116 0.342774
0.556051 0.688720 0.344378
0.573688 0.690325 0.345982
0.591326 0.691929 0.347587
0.608964 0.693533 0.349191
0.626602 0.695137 0.350795
0.644240 0.696741 0.352399
0.661878 0.698345 0.354003
0.679516 0.699949 0.355607
0.697153 0.701553 0.357211
0.714791 0.703158 0.358815
0.732429 0.704762 0.360420
0.750067 0.706366 0.362024
0.767705 0.707970 0.363628
0.785343 0.709574 0.365232
0.802981 0.711178 0.366836
0.820618 0.712782 0.368440
0.838256 0.714386 0.370044
0.855894 0.715991 0.371648
0.873532 0.717595 0.373253
0.314517 0.687693 0.327317
0.332155 0.689297 0.328921
0.349793 0.690901 0.330525
0.367430 0.692505 0.332129
0.385068 0.694109 0.333733
0.402706 0.695713 0.335338
0.420344 0.697318 0.336942
0.437982 0.698922 0.338546
0.455620 0.700526 0.340150
0.473258 0.702130 0.341754
0.490896 0.703734 0.343358
0.508533 0.705338 0.344962
0.526171 0.706942 0.346566
0.543809 0.708546 0.348171
0.561447 0.710151 0.349775
0.579085 0.711755 0.351379
0.596723 0.713359 0.352983
0.614361 0.714963 0.354587
0.631998 0.716567 0.356191
0.649636 0.718171 0.357795
0.667274 0.719775 0.359399
0.684912 0.721379 0.361004
0.702550 0.722984 0.362608
0.720188 0.724588 0.364212
0.737826 0.726192 0.365816
0.755463 0.727796 0.367420
0.773101 0.729400 0.369024
0.790739 0.731004 0.370628
0.808377 0.732608 0.372232
0.826015 0.734212 0.373837
0.843653 0.735817 0.375441
0.861291 0.737421 0.377045
0.878928 0.739025 0.378649
0.319913 0.709123 0.332713
0.337551 0.710727 0.334317
0.355189 0.712331 0.335922
0.372827 0.713935 0.337526
0.390465 0.715539 0.339130
0.408103 0.717143 0.340734
0.425740 0.718748 0.342338
0.443378 0.720352 0.343942
0.461016 0.721956 0.345546
0.478654 0.723560 0.347150
0.496292 0.725164 0.348755
0.513930 0.726768 0.350359
0.531568 0.728372 0.351963
0.549205 0.729977 0.353567
0.566843 0.731581 0.355171
0.584481 0.733185 0.356775
0.602119 0.734789 0.358379
0.619757 0.736393 0.359983
0.637395 0.737997 0.361588
0.655033 0.739601 0.363192
0.672670 0.741205 0.364796
0.690308 0.742810 0.366400
0.707946 0.744414 0.368004
0.725584 0.746018 0.369608
0.743222 0.747622 0.371212
0.760860 0.749226 0.372817
0.778498 0.750830 0.374421
0.796135 0.752434 0.376025
0.813773 0.754038 0.377629
0.831411 0.755643 0.379233
0.849049 0.757247 0.380837
0.866687 0.758851 0.382772
0.884325 0.760455 0.384738
0.325310 0.730553 0.338110
0.342948 0.732157 0.339714
0.360585 0.733761 0.341318
0.378223 0.735365 0.342922
0.395861 0.736969 0.344526
0.413499 0.738574 0.346130
0.431137 0.740178 0.347734
0.448775 0.741782 0.349339
0.466413 0.743386 0.350943
0.484050 0.744990 0.352547
0.501688 0.746594 0.354151
0.519326 0.748198 0.355755
0.536964 0.749803 0.357359
0.554602 0.751407 0.358963
0.572240 0.753011 0.360567
0.589878 0.754615 0.362172
0.607515 0.756219 0.363776
0.625153 0.757823 0.365380
0.642791 0.759427 0.366984
0.660429 0.761031 0.368588
0.678067 0.762636 0.370192
0.695705 0.764240 0.371796
0.713343 0.765844 0.373401
0.730980 0.767448 0.375005
0.748618 0.769052 0.376609
0.766256 0.770656 0.378213
0.783894 0.772260 0.379817
0.801532 0.773864 0.381523
0.819170 0.775469 0.383488
0.836808 0.777073 0.385453
0.854445 0.778677 0.387418
0.872083 0.780281 0.389383
0.889721 0.781885 0.391348
0.330706 0.751983 0.343506
0.348344 0.753587 0.345110
0.365982 0.755191 0.346714
0.383620 0.756795 0.348318
0.401258 0.758400 0.349923
0.418895 0.760004 0.351527
0.436533 0.761608 0.353131
0.454171 0.763212 0.354735
0.471809 0.764816 0.356339
0.489447 0.766420 0.357943
0.507085 0.768024 0.359547
0.524723 0.769628 0.361151
0.542360 0.771233 0.362756
0.559998 0.772837 0.364360
0.577636 0.774441 0.365964
0.595274 0.776045 0.367568
0.612912 0.777649 0.369172
0.630550 0.779253 0.370776
0.648188 0.780857 0.372380
0.665825 0.782462 0.373985
0.683463 0.784066 0.375589
0.701101 0.785670 0.377193
0.718739 0.787274 0.378797
0.736377 0.788878 0.380401
0.754015 0.790482 0.382238
0.771653 0.792086 0.384203
0.789290 0.793690 0.386168
0.806928 0.795295 0.388133
