fexer/Resources/LUTs/dreamy_soft.cube
TITLE "Dreamy"
LUT_3D_SIZE 5
DOMAIN_MIN 0.0 0.0 0.0
DOMAIN_MAX 1.0 1.0 1.0
0.190400 0.194800 0.203200
0.331503 0.207633 0.216033
0.472606 0.220466 0.228866
0.613709 0.233299 0.241699
0.754811 0.246132 0.254532
0.233571 0.366241 0.246371
0.374674 0.379074 0.259204
0.515777 0.391907 0.272037
0.656880 0.404740 0.284870
0.797983 0.417573 0.297703
0.276742 0.537682 0.289542
0.417845 0.550515 0.302375
0.558948 0.563348 0.315208
0.700051 0.576181 0.328041
0.841154 0.589014 0.340874
0.319913 0.709123 0.332713
0.461016 0.721956 0.345546
0.602119 0.734789 0.358379
0.743222 0.747622 0.371212
0.884325 0.760455 0.384738
0.363084 0.880564 0.375884
0.504187 0.893397 0.390461
0.645290 0.906230 0.406181
0.786393 0.919063 0.421902
0.927496 0.931896 0.437622
0.194758 0.199158 0.335828
0.335861 0.211991 0.348661
0.476964 0.224824 0.361494
0.618067 0.237657 0.374327
0.759170 0.250490 0.387160
0.237929 0.370599 0.378999
0.379032 0.383432 0.391832
0.520135 0.396265 0.404665
0.661238 0.409098 0.417498
0.802341 0.421931 0.430331
0.281100 0.542040 0.422170
0.422203 0.554873 0.435003
0.563306 0.567706 0.447836
0.704409 0.580539 0.460669
0.845512 0.593372 0.473502
0.324271 0.713481 0.465341
0.465374 0.726314 0.478174
0.606477 0.739147 0.491007
0.747580 0.751980 0.503840
0.888683 0.764813 0.518346
0.367443 0.884922 0.508512
0.508545 0.897755 0.524069
0.649648 0.910588 0.539790
0.790751 0.923421 0.555510
0.931854 0.936254 0.571231
0.199116 0.203516 0.468456
0.340219 0.216349 0.481289
0.481322 0.229182 0.494122
0.622425 0.242015 0.506955
0.763528 0.254848 0.519788
0.242287 0.374957 0.511627
0.383390 0.387790 0.524460
0.524493 0.400623 0.537293
0.665596 0.413456 0.550126
0.806699 0.426289 0.562959
0.285459 0.546398 0.554798
0.426561 0.559231 0.567631
0.567664 0.572064 0.580464
0.708767 0.584897 0.593297
0.849870 0.597730 0.606130
0.328630 0.717839 0.597969
0.469732 0.730672 0.610802
0.610835 0.743505 0.623635
0.751938 0.756338 0.636468
0.893041 0.769171 0.651955
0.371801 0.889280 0.641958
0.512904 0.902113 0.657678
0.654006 0.914946 0.673398
0.795109 0.927779 0.689119
0.936212 0.940612 0.704839
0.203474 0.207874 0.601084
0.344577 0.220707 0.613917
0.485680 0.233541 0.626750
0.626783 0.246374 0.639583
0.767886 0.259207 0.652416
0.246646 0.379315 0.644255
0.387748 0.392148 0.657088
0.528851 0.404981 0.669921
0.669954 0.417814 0.682754
0.811057 0.430648 0.695587
0.289817 0.550756 0.687426
0.430920 0.563589 0.700259
0.572022 0.576422 0.713092
0.713125 0.589255 0.725925
0.854228 0.602088 0.738758
0.332988 0.722197 0.730597
0.474091 0.735030 0.743430
0.615194 0.747863 0.756263
0.756296 0.760696 0.769843
0.897399 0.773529 0.785563
0.376159 0.893638 0.775566
0.517262 0.906471 0.791287
0.658365 0.919304 0.807007
0.799467 0.932137 0.822727
0.940570 0.944970 0.838448
0.207833 0.212233 0.733712
0.348935 0.225066 0.746545
0.490038 0.237899 0.759378
0.631141 0.250732 0.772211
0.772244 0.263565 0.785044
0.251004 0.383674 0.776883
0.392107 0.396507 0.789716
0.533209 0.409340 0.802549
0.674312 0.422173 0.815382
0.815415 0.435006 0.828215
0.294175 0.555115 0.820054
0.435278 0.567948 0.832887
0.576381 0.580781 0.845720
0.717483 0.593614 0.858553
0.858586 0.606447 0.871386
0.337346 0.726555 0.863225
0.478449 0.739389 0.876058
0.619552 0.752222 0.888891
0.760655 0.765055 0.903451
0.901757 0.777888 0.919172
0.380517 0.897996 0.909175
0.521620 0.910829 0.924895
0.662723 0.923662 0.940616
0.803826 0.936495 0.956336
0.944929 0.949329 0.972056
