fexer/Resources/LUTs/dreamy_soft.cube
TITLE "Dreamy"
LUT_3D_SIZE 9
DOMAIN_MIN 0.0 0.0 0.0
DOMAIN_MAX 1.0 1.0 1.0
0.190400 0.194800 0.203200
0.260951 0.201217 0.209617
0.331503 0.207633 0.216033
0.402054 0.214050 0.222450
0.472606 0.220466 0.228866
0.543157 0.226883 0.235283
0.613709 0.233299 0.241699
0.684260 0.239716 0.248116
0.754811 0.246132 0.254532
0.211986 0.280520 0.224786
0.282537 0.286937 0.231202
0.353088 0.293353 0.237619
0.423640 0.299770 0.244035
0.494191 0.306187 0.250452
0.564743 0.312603 0.256868
0.635294 0.319020 0.263285
0.705846 0.325436 0.269701
0.776397 0.331853 0.276118
0.233571 0.366241 0.246371
0.304123 0.372657 0.252788
0.374674 0.379074 0.259204
0.445225 0.385490 0.265621
0.515777 0.391907 0.272037
0.586328 0.398324 0.278454
0.656880 0.404740 0.284870
0.727431 0.411157 0.291287
0.797983 0.417573 0.297703
0.255157 0.451961 0.267957
0.325708 0.458378 0.274373
0.396260 0.464794 0.280790
0.466811 0.471211 0.287206
0.537362 0.477627 0.293623
0.607914 0.484044 0.300039
0.678465 0.490460 0.306456
0.749017 0.496877 0.312872
0.819568 0.503294 0.319289
0.276742 0.537682 0.289542
0.347294 0.544098 0.295959
0.417845 0.550515 0.302375
0.488397 0.556931 0.308792
0.558948 0.563348 0.315208
0.629499 0.569764 0.321625
0.700051 0.576181 0.328041
0.770602 0.582597 0.334458
0.841154 0.589014 0.340874
0.298328 0.623402 0.311128
0.368879 0.629819 0.317544
0.439431 0.636235 0.323961
0.509982 0.642652 0.330377
0.580533 0.649068 0.336794
0.651085 0.655485 0.343210
0.721636 0.661901 0.349627
0.792188 0.668318 0.356043
0.862739 0.674734 0.362460
0.319913 0.709123 0.332713
0.390465 0.715539 0.339130
0.461016 0.721956 0.345546
0.531568 0.728372 0.351963
0.602119 0.734789 0.358379
0.672670 0.741205 0.364796
0.743222 0.747622 0.371212
0.813773 0.754038 0.377629
0.884325 0.760455 0.384738
0.341499 0.794843 0.354299
0.412050 0.801260 0.360715
0.482602 0.807676 0.367132
0.553153 0.814093 0.373548
0.623705 0.820509 0.379965
0.694256 0.826926 0.387599
0.764807 0.833342 0.395459
0.835359 0.839759 0.403320
0.905910 0.846175 0.411180
0.363084 0.880564 0.375884
0.433636 0.886980 0.382601
0.504187 0.893397 0.390461
0.574739 0.899813 0.398321
0.645290 0.906230 0.406181
0.715842 0.912646 0.414041
0.786393 0.919063 0.421902
0.856944 0.925479 0.429762
0.927496 0.931896 0.437622
0.192579 0.196979 0.269514
0.263131 0.203396 0.275931
0.333682 0.209812 0.282347
0.404233 0.216229 0.288764
0.474785 0.222645 0.295180
0.545336 0.229062 0.301597
0.615888 0.235478 0.308013
0.686439 0.241895 0.314430
0.756991 0.248311 0.320846
0.214165 0.282700 0.291100
0.284716 0.289116 0.297516
0.355267 0.295533 0.303933
0.425819 0.301949 0.310349
0.496370 0.308366 0.316766
0.566922 0.314782 0.323182
0.637473 0.321199 0.329599
0.708025 0.327615 0.336015
0.778576 0.334032 0.342432
0.235750 0.368420 0.312685
0.306302 0.374837 0.319102
0.376853 0.381253 0.325518
0.447404 0.387670 0.331935
0.517956 0.394086 0.338351
0.588507 0.400503 0.344768
0.659059 0.406919 0.351184
0.729610 0.413336 0.357601
0.800162 0.419752 0.364017
0.257336 0.454141 0.334271
0.327887 0.460557 0.340687
0.398439 0.466974 0.347104
0.468990 0.473390 0.353520
0.539541 0.479807 0.359937
0.610093 0.486223 0.366353
0.680644 0.492640 0.372770
0.751196 0.499056 0.379186
0.821747 0.505473 0.385603
0.278921 0.539861 0.355856
0.349473 0.546277 0.362273
0.420024 0.552694 0.368689
0.490576 0.559111 0.375106
0.561127 0.565527 0.381522
0.631678 0.571944 0.387939
0.702230 0.578360 0.394355
0.772781 0.584777 0.400772
0.843333 0.591193 0.407188
0.300507 0.625581 0.377442
0.371058 0.631998 0.383858
0.441610 0.638414 0.390275
0.512161 0.644831 0.396691
0.582713 0.651247 0.403108
0.653264 0.657664 0.409524
0.723815 0.664081 0.415941
0.794367 0.670497 0.422357
0.864918 0.676914 0.428774
0.322092 0.711302 0.399027
0.392644 0.717718 0.405444
0.463195 0.724135 0.411860
0.533747 0.730551 0.418277
0.604298 0.736968 0.424693
0.674850 0.743384 0.431110
0.745401 0.749801 0.437526
0.815952 0.756218 0.443943
0.886504 0.762634 0.451542
0.343678 0.797022 0.420613
0.414229 0.803439 0.427029
0.484781 0.809855 0.433446
0.555332 0.816272 0.439862
0.625884 0.822688 0.446543
0.696435 0.829105 0.454403
0.766987 0.835521 0.462264
0.837538 0.841938 0.470124
0.908089 0.848354 0.477984
0.365263 0.882743 0.442198
0.435815 0.889159 0.449405
0.506366 0.895576 0.457265
0.576918 0.901992 0.465125
0.647469 0.908409 0.472986
0.718021 0.914825 0.480846
0.788572 0.921242 0.488706
0.859124 0.927658 0.496566
0.929675 0.934075 0.504426
0.194758 0.199158 0.335828
0.265310 0.205575 0.342245
0.335861 0.211991 0.348661
0.406412 0.218408 0.355078
0.476964 0.224824 0.361494
0.547515 0.231241 0.367911
0.618067 0.237657 0.374327
0.688618 0.244074 0.380744
0.759170 0.250490 0.387160
0.216344 0.284879 0.357414
0.286895 0.291295 0.363830
0.357447 0.297712 0.370247
0.427998 0.304128 0.376663
0.498549 0.310545 0.383080
0.569101 0.316961 0.389496
0.639652 0.323378 0.395913
0.710204 0.329794 0.402329
0.780755 0.336211 0.408746
0.237929 0.370599 0.378999
0.308481 0.377016 0.385416
0.379032 0.383432 0.391832
0.449584 0.389849 0.398249
0.520135 0.396265 0.404665
0.590686 0.402682 0.411082
0.661238 0.409098 0.417498
0.731789 0.415515 0.423915
0.802341 0.421931 0.430331
0.259515 0.456320 0.400585
0.330066 0.462736 0.407001
0.400618 0.469153 0.413418
0.471169 0.475569 0.419834
0.541721 0.481986 0.426251
0.612272 0.488402 0.432667
0.682823 0.494819 0.439084
0.753375 0.501235 0.445500
0.823926 0.507652 0.451917
0.281100 0.542040 0.422170
0.351652 0.548457 0.428587
0.422203 0.554873 0.435003
0.492755 0.561290 0.441420
0.563306 0.567706 0.447836
0.633858 0.574123 0.454253
0.704409 0.580539 0.460669
0.774960 0.586956 0.467086
0.845512 0.593372 0.473502
0.302686 0.627761 0.443756
0.373237 0.634177 0.450172
0.443789 0.640594 0.456589
0.514340 0.647010 0.463005
0.584892 0.653427 0.469422
0.655443 0.659843 0.475838
0.725995 0.666260 0.482255
0.796546 0.672676 0.488671
0.867097 0.679093 0.495088
0.324271 0.713481 0.465341
0.394823 0.719898 0.471758
0.465374 0.726314 0.478174
0.535926 0.732731 0.484591
0.606477 0.739147 0.491007
0.677029 0.745564 0.497424
0.747580 0.751980 0.503840
0.818132 0.758397 0.510486
0.888683 0.764813 0.518346
0.345857 0.799201 0.486927
0.416408 0.805618 0.493343
0.486960 0.812035 0.499760
0.557511 0.818451 0.506176
0.628063 0.824868 0.513348
0.698614 0.831284 0.521208
0.769166 0.837701 0.529068
0.839717 0.844117 0.536928
0.910268 0.850534 0.544788
0.367443 0.884922 0.508512
0.437994 0.891338 0.516209
0.508545 0.897755 0.524069
0.579097 0.904171 0.531930
0.649648 0.910588 0.539790
0.720200 0.917005 0.547650
0.790751 0.923421 0.555510
0.861303 0.929838 0.563370
0.931854 0.936254 0.571231
0.196937 0.201337 0.402142
0.267489 0.207754 0.408559
0.338040 0.214170 0.414975
0.408592 0.220587 0.421392
0.479143 0.227003 0.427808
0.549694 0.233420 0.434225
0.620246 0.239836 0.440641
0.690797 0.246253 0.447058
0.761349 0.252669 0.453474
0.218523 0.287058 0.423728
0.289074 0.293474 0.430144
0.359626 0.299891 0.436561
0.430177 0.306307 0.442977
0.500729 0.312724 0.449394
0.571280 0.319140 0.455810
0.641831 0.325557 0.462227
0.712383 0.331973 0.468643
0.782934 0.338390 0.475060
0.240108 0.372778 0.445313
0.310660 0.379195 0.451730
0.381211 0.385611 0.458146
0.451763 0.392028 0.464563
0.522314 0.398444 0.470979
0.592866 0.404861 0.477396
0.663417 0.411277 0.483812
0.733968 0.417694 0.490229
0.804520 0.424110 0.496645
0.261694 0.458499 0.466899
0.332245 0.464915 0.473315
0.402797 0.471332 0.479732
0.473348 0.477748 0.486148
0.543900 0.484165 0.492565
0.614451 0.490581 0.498981
0.685002 0.496998 0.505398
0.755554 0.503414 0.511814
0.826105 0.509831 0.518231
0.283279 0.544219 0.488484
0.353831 0.550636 0.494901
0.424382 0.557052 0.501317
0.494934 0.563469 0.507734
0.565485 0.569885 0.514150
0.636037 0.576302 0.520567
0.706588 0.582718 0.526983
0.777139 0.589135 0.533400
0.847691 0.595551 0.539816
0.304865 0.629940 0.510070
0.375416 0.636356 0.516486
0.445968 0.642773 0.522903
0.516519 0.649189 0.529319
0.587071 0.655606 0.535736
0.657622 0.662022 0.542152
0.728174 0.668439 0.548569
0.798725 0.674855 0.554985
0.869276 0.681272 0.561402
0.326451 0.715660 0.531655
0.397002 0.722077 0.538072
0.467553 0.728493 0.544488
0.538105 0.734910 0.550905
0.608656 0.741326 0.557321
0.679208 0.747743 0.563738
0.749759 0.754159 0.570154
0.820311 0.760576 0.577290
0.890862 0.766992 0.585150
0.348036 0.801381 0.553241
0.418588 0.807797 0.559657
0.489139 0.814214 0.566074
0.559690 0.820630 0.572490
0.630242 0.827047 0.580152
0.700793 0.833463 0.588012
0.771345 0.839880 0.595872
0.841896 0.846296 0.603732
0.912448 0.852713 0.611593
0.369622 0.887101 0.575153
0.440173 0.893518 0.583013
0.510725 0.899934 0.590874
0.581276 0.906351 0.598734
0.651827 0.912767 0.606594
0.722379 0.919184 0.614454
0.792930 0.925600 0.622315
0.863482 0.932017 0.630175
0.934033 0.938433 0.638035
0.199116 0.203516 0.468456
0.269668 0.209933 0.474873
0.340219 0.216349 0.481289
0.410771 0.222766 0.487706
0.481322 0.229182 0.494122
0.551873 0.235599 0.500539
0.622425 0.242015 0.506955
0.692976 0.248432 0.513372
0.763528 0.254848 0.519788
0.220702 0.289237 0.490042
0.291253 0.295653 0.496458
0.361805 0.302070 0.502875
0.432356 0.308486 0.509291
0.502908 0.314903 0.515708
0.573459 0.321319 0.522124
0.644010 0.327736 0.528541
0.714562 0.334152 0.534957
0.785113 0.340569 0.541374
0.242287 0.374957 0.511627
0.312839 0.381374 0.518044
0.383390 0.387790 0.524460
0.453942 0.394207 0.530877
0.524493 0.400623 0.537293
0.595045 0.407040 0.543710
0.665596 0.413456 0.550126
0.736147 0.419873 0.556543
0.806699 0.426289 0.562959
0.263873 0.460678 0.533213
0.334424 0.467094 0.539629
0.404976 0.473511 0.546046
0.475527 0.479927 0.552462
0.546079 0.486344 0.558879
0.616630 0.492760 0.565295
0.687182 0.499177 0.571712
0.757733 0.505593 0.578128
0.828284 0.512010 0.584545
0.285459 0.546398 0.554798
0.356010 0.552815 0.561215
0.426561 0.559231 0.567631
0.497113 0.565648 0.574048
0.567664 0.572064 0.580464
0.638216 0.578481 0.586881
0.708767 0.584897 0.593297
0.779319 0.591314 0.599714
0.849870 0.597730 0.606130
0.307044 0.632119 0.576384
0.377596 0.638535 0.582800
0.448147 0.644952 0.589217
0.518698 0.651368 0.595633
0.589250 0.657785 0.602050
0.659801 0.664201 0.608466
0.730353 0.670618 0.614883
0.800904 0.677034 0.621299
0.871456 0.683451 0.627716
0.328630 0.717839 0.597969
0.399181 0.724256 0.604386
0.469732 0.730672 0.610802
0.540284 0.737089 0.617219
0.610835 0.743505 0.623635
0.681387 0.749922 0.630052
0.751938 0.756338 0.636468
0.822490 0.762755 0.644094
0.893041 0.769171 0.651955
0.350215 0.803560 0.619555
0.420767 0.809976 0.625971
0.491318 0.816393 0.632388
0.561869 0.822809 0.639096
0.632421 0.829226 0.646956
0.702972 0.835642 0.654816
0.773524 0.842059 0.662677
0.844075 0.848475 0.670537
0.914627 0.854892 0.678397
0.371801 0.889280 0.641958
0.442352 0.895697 0.649818
0.512904 0.902113 0.657678
0.583455 0.908530 0.665538
0.654006 0.914946 0.673398
0.724558 0.921363 0.681259
0.795109 0.927779 0.689119
0.865661 0.934196 0.696979
0.936212 0.940612 0.704839
0.201295 0.205695 0.534770
0.271847 0.212112 0.541187
0.342398 0.218528 0.547603
0.412950 0.224945 0.554020
0.483501 0.231361 0.560436
0.554053 0.237778 0.566853
0.624604 0.244194 0.573269
0.695155 0.250611 0.579686
0.765707 0.257027 0.586102
0.222881 0.291416 0.556356
0.293432 0.297832 0.562772
0.363984 0.304249 0.569189
0.434535 0.310665 0.575605
0.505087 0.317082 0.582022
0.575638 0.323498 0.588438
0.646190 0.329915 0.594855
0.716741 0.336331 0.601271
0.787292 0.342748 0.607688
0.244466 0.377136 0.577941
0.315018 0.383553 0.584358
0.385569 0.389969 0.590774
0.456121 0.396386 0.597191
0.526672 0.402802 0.603607
0.597224 0.409219 0.610024
0.667775 0.415635 0.616440
0.738327 0.422052 0.622857
0.808878 0.428468 0.629273
0.266052 0.462857 0.599527
0.336603 0.469273 0.605943
0.407155 0.475690 0.612360
0.477706 0.482106 0.618776
0.548258 0.488523 0.625193
0.618809 0.494939 0.631609
0.689361 0.501356 0.638026
0.759912 0.507772 0.644442
0.830464 0.514189 0.650859
0.287638 0.548577 0.621112
0.358189 0.554994 0.627529
0.428740 0.561410 0.633945
0.499292 0.567827 0.640362
0.569843 0.574243 0.646778
0.640395 0.580660 0.653195
0.710946 0.587076 0.659611
0.781498 0.593493 0.666028
0.852049 0.599909 0.672444
0.309223 0.634298 0.642698
0.379775 0.640714 0.649114
0.450326 0.647131 0.655531
0.520877 0.653547 0.661947
0.591429 0.659964 0.668364
0.661980 0.666380 0.674780
0.732532 0.672797 0.681197
0.803083 0.679213 0.687613
0.873635 0.685630 0.694030
0.330809 0.720018 0.664283
0.401360 0.726435 0.670700
0.471912 0.732851 0.677116
0.542463 0.739268 0.683533
0.613014 0.745684 0.689949
0.683566 0.752101 0.696366
0.754117 0.758517 0.703039
0.824669 0.764934 0.710899
0.895220 0.771350 0.718759
0.352394 0.805739 0.685869
0.422946 0.812155 0.692285
0.493497 0.818572 0.698702
0.564049 0.824988 0.705900
0.634600 0.831405 0.713760
0.705151 0.837821 0.721621
0.775703 0.844238 0.729481
0.846254 0.850654 0.737341
0.916806 0.857071 0.745201
0.373980 0.891459 0.708762
0.444531 0.897876 0.716622
0.515083 0.904292 0.724482
0.585634 0.910709 0.732342
0.656186 0.917125 0.740203
0.726737 0.923542 0.748063
0.797288 0.929958 0.755923
0.867840 0.936375 0.763783
0.938391 0.942791 0.771644
0.203474 0.207874 0.601084
0.274026 0.214291 0.607501
0.344577 0.220707 0.613917
0.415129 0.227124 0.620334
0.485680 0.233541 0.626750
0.556232 0.239957 0.633167
0.626783 0.246374 0.639583
0.697335 0.252790 0.646000
0.767886 0.259207 0.652416
0.225060 0.293595 0.622670
0.295611 0.300011 0.629086
0.366163 0.306428 0.635503
0.436714 0.312844 0.641919
0.507266 0.319261 0.648336
0.577817 0.325677 0.654752
0.648369 0.332094 0.661169
0.718920 0.338511 0.667585
0.789471 0.344927 0.674002
0.246646 0.379315 0.644255
0.317197 0.385732 0.650672
0.387748 0.392148 0.657088
0.458300 0.398565 0.663505
0.528851 0.404981 0.669921
0.599403 0.411398 0.676338
0.669954 0.417814 0.682754
0.740506 0.424231 0.689171
0.811057 0.430648 0.695587
0.268231 0.465036 0.665841
0.338783 0.471452 0.672257
0.409334 0.477869 0.678674
0.479885 0.484285 0.685090
0.550437 0.490702 0.691507
0.620988 0.497118 0.697923
0.691540 0.503535 0.704340
0.762091 0.509951 0.710756
0.832643 0.516368 0.717173
0.289817 0.550756 0.687426
0.360368 0.557173 0.693843
0.430920 0.563589 0.700259
0.501471 0.570006 0.706676
0.572022 0.576422 0.713092
0.642574 0.582839 0.719509
0.713125 0.589255 0.725925
0.783677 0.595672 0.732342
0.854228 0.602088 0.738758
0.311402 0.636477 0.709012
0.381954 0.642893 0.715428
0.452505 0.649310 0.721845
0.523057 0.655726 0.728261
0.593608 0.662143 0.734678
0.664159 0.668559 0.741094
0.734711 0.674976 0.747511
0.805262 0.681392 0.753927
0.875814 0.687809 0.760344
0.332988 0.722197 0.730597
0.403539 0.728614 0.737014
0.474091 0.735030 0.743430
0.544642 0.741447 0.749847
0.615194 0.747863 0.756263
0.685745 0.754280 0.762680
0.756296 0.760696 0.769843
0.826848 0.767113 0.777703
0.897399 0.773529 0.785563
0.354573 0.807918 0.752183
0.425125 0.814334 0.758599
0.495676 0.820751 0.765016
0.566228 0.827167 0.772704
0.636779 0.833584 0.780565
0.707331 0.840000 0.788425
0.777882 0.846417 0.796285
0.848433 0.852833 0.804145
0.918985 0.859250 0.812006
0.376159 0.893638 0.775566
0.446710 0.900055 0.783426
0.517262 0.906471 0.791287
0.587813 0.912888 0.799147
0.658365 0.919304 0.807007
0.728916 0.925721 0.814867
0.799467 0.932137 0.822727
0.870019 0.938554 0.830588
0.940570 0.944970 0.838448
0.205654 0.210054 0.667398
0.276205 0.216470 0.673815
0.346756 0.222887 0.680231
0.417308 0.229303 0.686648
0.487859 0.235720 0.693064
0.558411 0.242136 0.699481
0.628962 0.248553 0.705897
0.699514 0.254969 0.712314
0.770065 0.261386 0.718730
0.227239 0.295774 0.688984
0.297791 0.302191 0.695400
0.368342 0.308607 0.701817
0.438893 0.315024 0.708233
0.509445 0.321440 0.714650
0.579996 0.327857 0.721066
0.650548 0.334273 0.727483
0.721099 0.340690 0.733899
0.791651 0.347106 0.740316
0.248825 0.381495 0.710569
0.319376 0.387911 0.716986
0.389928 0.394328 0.723402
0.460479 0.400744 0.729819
0.531030 0.407161 0.736235
0.601582 0.413577 0.742652
0.672133 0.419994 0.749068
0.742685 0.426410 0.755485
0.813236 0.432827 0.761901
0.270410 0.467215 0.732155
0.340962 0.473631 0.738571
0.411513 0.480048 0.744988
0.482065 0.486465 0.751404
0.552616 0.492881 0.757821
0.623167 0.499298 0.764237
0.693719 0.505714 0.770654
0.764270 0.512131 0.777070
0.834822 0.518547 0.783487
0.291996 0.552935 0.753740
0.362547 0.559352 0.760157
0.433099 0.565768 0.766573
0.503650 0.572185 0.772990
0.574201 0.578601 0.779406
0.644753 0.585018 0.785823
0.715304 0.591435 0.792239
0.785856 0.597851 0.798656
0.856407 0.604268 0.805072
0.313581 0.638656 0.775326
0.384133 0.645072 0.781742
0.454684 0.651489 0.788159
0.525236 0.657905 0.794575
0.595787 0.664322 0.800992
0.666338 0.670738 0.807408
0.736890 0.677155 0.813825
0.807441 0.683572 0.820241
0.877993 0.689988 0.826658
0.335167 0.724376 0.796911
0.405718 0.730793 0.803328
0.476270 0.737209 0.809744
0.546821 0.743626 0.816161
0.617373 0.750042 0.822577
0.687924 0.756459 0.828994
0.758475 0.762875 0.836647
0.829027 0.769292 0.844507
0.899578 0.775708 0.852368
0.356752 0.810097 0.818497
0.427304 0.816513 0.824913
0.497855 0.822930 0.831649
0.568407 0.829346 0.839509
0.638958 0.835763 0.847369
0.709510 0.842179 0.855229
0.780061 0.848596 0.863089
0.850612 0.855012 0.870950
0.921164 0.861429 0.878810
0.378338 0.895817 0.842370
0.448889 0.902234 0.850231
0.519441 0.908650 0.858091
0.589992 0.915067 0.865951
0.660544 0.921483 0.873811
0.731095 0.927900 0.881672
0.801647 0.934316 0.889532
0.872198 0.940733 0.897392
0.942749 0.947149 0.905252
0.207833 0.212233 0.733712
0.278384 0.218649 0.740129
0.348935 0.225066 0.746545
0.419487 0.231482 0.752962
0.490038 0.237899 0.759378
0.560590 0.244315 0.765795
0.631141 0.250732 0.772211
0.701693 0.257148 0.778628
0.772244 0.263565 0.785044
0.229418 0.297953 0.755298
0.299970 0.304370 0.761714
0.370521 0.310786 0.768131
0.441072 0.317203 0.774547
0.511624 0.323619 0.780964
0.582175 0.330036 0.787380
0.652727 0.336452 0.793797
0.723278 0.342869 0.800213
0.793830 0.349285 0.806630
0.251004 0.383674 0.776883
0.321555 0.390090 0.783300
0.392107 0.396507 0.789716
0.462658 0.402923 0.796133
0.533209 0.409340 0.802549
0.603761 0.415756 0.808966
0.674312 0.422173 0.815382
0.744864 0.428589 0.821799
0.815415 0.435006 0.828215
0.272589 0.469394 0.798469
0.343141 0.475811 0.804885
0.413692 0.482227 0.811302
0.484244 0.488644 0.817718
0.554795 0.495060 0.824135
0.625346 0.501477 0.830551
0.695898 0.507893 0.836968
0.766449 0.514310 0.843384
0.837001 0.520726 0.849801
0.294175 0.555115 0.820054
0.364726 0.561531 0.826471
0.435278 0.567948 0.832887
0.505829 0.574364 0.839304
0.576381 0.580781 0.845720
0.646932 0.587197 0.852137
0.717483 0.593614 0.858553
0.788035 0.600030 0.864970
0.858586 0.606447 0.871386
0.315760 0.640835 0.841640
0.386312 0.647252 0.848056
0.456863 0.653668 0.854473
0.527415 0.660085 0.860889
0.597966 0.666501 0.867306
0.668518 0.672918 0.873722
0.739069 0.679334 0.880139
0.809620 0.685751 0.886555
0.880172 0.692167 0.892972
0.337346 0.726555 0.863225
0.407897 0.732972 0.869642
0.478449 0.739389 0.876058
0.549000 0.745805 0.882475
0.619552 0.752222 0.888891
0.690103 0.758638 0.895591
0.760655 0.765055 0.903451
0.831206 0.771471 0.911312
0.901757 0.777888 0.919172
0.358931 0.812276 0.884811
0.429483 0.818692 0.891227
0.500034 0.825109 0.898453
0.570586 0.831525 0.906313
0.641137 0.837942 0.914173
0.711689 0.844359 0.922034
0.782240 0.850775 0.929894
0.852792 0.857192 0.937754
0.923343 0.863608 0.945614
0.380517 0.897996 0.909175
0.451068 0.904413 0.917035
0.521620 0.910829 0.924895
0.592171 0.917246 0.932755
0.662723 0.923662 0.940616
0.733274 0.930079 0.948476
0.803826 0.936495 0.956336
0.874377 0.942912 0.964196
0.944929 0.949329 0.972056
