fexer/Resources/LUTs/faded_matte.cube
TITLE "Faded Matte"
LUT_3D_SIZE 5
DOMAIN_MIN 0.0 0.0 0.0
DOMAIN_MAX 1.0 1.0 1.0
0.191900 0.189150 0.183900
0.332527 0.199889 0.194639
0.473154 0.210628 0.205378
0.613781 0.221367 0.216117
0.754407 0.232105 0.226855
0.228026 0.355164 0.220026
0.368653 0.365903 0.230765
0.509280 0.376642 0.241504
0.649907 0.387381 0.252243
0.790534 0.398120 0.262982
0.264152 0.521178 0.256152
0.404779 0.531917 0.266891
0.545406 0.542656 0.277630
0.686033 0.553395 0.288369
0.826660 0.564134 0.299108
0.300279 0.687193 0.292279
0.440905 0.697931 0.303017
0.581532 0.708670 0.313756
0.722159 0.719409 0.324495
0.862786 0.730148 0.335234
0.336405 0.853207 0.328405
0.477032 0.863946 0.339144
0.617658 0.874684 0.349882
0.758285 0.885423 0.360621
0.898912 0.896162 0.371360
0.195547 0.192797 0.317435
0.336174 0.203536 0.328174
0.476801 0.214275 0.338913
0.617428 0.225014 0.349652
0.758054 0.235752 0.360390
0.231673 0.358811 0.353561
0.372300 0.369550 0.364300
0.512927 0.380289 0.375039
0.653554 0.391028 0.385778
0.794181 0.401767 0.396517
0.267799 0.524825 0.389687
0.408426 0.535564 0.400426
0.549053 0.546303 0.411165
0.689680 0.557042 0.421904
0.830307 0.567781 0.432643
0.303926 0.690840 0.425814
0.444552 0.701578 0.436552
0.585179 0.712317 0.447291
0.725806 0.723056 0.458030
0.866433 0.733795 0.468769
0.340052 0.856854 0.461940
0.480679 0.867593 0.472679
0.621305 0.878331 0.483417
0.761932 0.889070 0.494156
0.902559 0.899809 0.504895
0.199194 0.196444 0.450970
0.339821 0.207183 0.461709
0.480448 0.217922 0.472448
0.621074 0.228660 0.483186
0.761701 0.239399 0.493925
0.235320 0.362458 0.487096
0.375947 0.373197 0.497835
0.516574 0.383936 0.508574
0.657201 0.394675 0.519313
0.797828 0.405414 0.530052
0.271446 0.528472 0.523222
0.412073 0.539211 0.533961
0.552700 0.549950 0.544700
0.693327 0.560689 0.555439
0.833954 0.571428 0.566178
0.307572 0.694486 0.559348
0.448199 0.705225 0.570087
0.588826 0.715964 0.580826
0.729453 0.726703 0.591565
0.870080 0.737442 0.602304
0.343699 0.860501 0.595475
0.484326 0.871240 0.606214
0.624952 0.881978 0.616952
0.765579 0.892717 0.627691
0.906206 0.903456 0.638430
0.202841 0.200091 0.584505
0.343468 0.210830 0.595244
0.484095 0.221569 0.605983
0.624721 0.232307 0.616721
0.765348 0.243046 0.627460
0.238967 0.366105 0.620631
0.379594 0.376844 0.631370
0.520221 0.387583 0.642109
0.660848 0.398322 0.652848
0.801474 0.409060 0.663586
0.275093 0.532119 0.656757
0.415720 0.542858 0.667496
0.556347 0.553597 0.678235
0.696974 0.564336 0.688974
0.837601 0.575075 0.699713
0.311219 0.698133 0.692883
0.451846 0.708872 0.703622
0.592473 0.719611 0.714361
0.733100 0.730350 0.725100
0.873727 0.741089 0.735839
0.347346 0.864148 0.729010
0.487972 0.874886 0.739748
0.628599 0.885625 0.750487
0.769226 0.896364 0.761226
0.909853 0.907103 0.771965
0.206488 0.203738 0.718040
0.347115 0.214477 0.728779
0.487742 0.225216 0.739518
0.628368 0.235954 0.750256
0.768995 0.246693 0.760995
0.242614 0.369752 0.754166
0.383241 0.380491 0.764905
0.523868 0.391230 0.775644
0.664495 0.401969 0.786383
0.805121 0.412707 0.797121
0.278740 0.535766 0.790292
0.419367 0.546505 0.801031
0.559994 0.557244 0.811770
0.700621 0.567983 0.822509
0.841248 0.578722 0.833248
0.314866 0.701780 0.826418
0.455493 0.712519 0.837157
0.596120 0.723258 0.847896
0.736747 0.733997 0.858635
0.877374 0.744736 0.869374
0.350993 0.867795 0.862545
0.491619 0.878533 0.873283
0.632246 0.889272 0.884022
0.772873 0.900011 0.894761
0.913500 0.910750 0.905500
