fexer/Resources/LUTs/faded_matte.cube
TITLE "Faded Matte"
LUT_3D_SIZE 9
DOMAIN_MIN 0.0 0.0 0.0
DOMAIN_MAX 1.0 1.0 1.0
0.191900 0.189150 0.183900
0.262213 0.194519 0.189269
0.332527 0.199889 0.194639
0.402840 0.205258 0.200008
0.473154 0.210628 0.205378
0.543467 0.215997 0.210747
0.613781 0.221367 0.216117
0.684094 0.226736 0.221486
0.754407 0.232105 0.226855
0.209963 0.272157 0.201963
0.280277 0.277527 0.207333
0.350590 0.282896 0.212702
0.420903 0.288265 0.218071
0.491217 0.293635 0.223441
0.561530 0.299004 0.228810
0.631844 0.304374 0.234180
0.702157 0.309743 0.239549
0.772470 0.315112 0.244918
0.228026 0.355164 0.220026
0.298340 0.360534 0.225396
0.368653 0.365903 0.230765
0.438966 0.371272 0.236134
0.509280 0.376642 0.241504
0.579593 0.382011 0.246873
0.649907 0.387381 0.252243
0.720220 0.392750 0.257612
0.790534 0.398120 0.262982
0.246089 0.438171 0.238089
0.316403 0.443541 0.243459
0.386716 0.448910 0.248828
0.457030 0.454280 0.254198
0.527343 0.459649 0.259567
0.597656 0.465018 0.264936
0.667970 0.470388 0.270306
0.738283 0.475757 0.275675
0.808597 0.481127 0.281045
0.264152 0.521178 0.256152
0.334466 0.526548 0.261522
0.404779 0.531917 0.266891
0.475093 0.537287 0.272261
0.545406 0.542656 0.277630
0.615719 0.548025 0.282999
0.686033 0.553395 0.288369
0.756346 0.558764 0.293738
0.826660 0.564134 0.299108
0.282215 0.604185 0.274215
0.352529 0.609555 0.279585
0.422842 0.614924 0.284954
0.493156 0.620294 0.290324
0.563469 0.625663 0.295693
0.633783 0.631033 0.301063
0.704096 0.636402 0.306432
0.774409 0.641771 0.311801
0.844723 0.647141 0.317171
0.300279 0.687193 0.292279
0.370592 0.692562 0.297648
0.440905 0.697931 0.303017
0.511219 0.703301 0.308387
0.581532 0.708670 0.313756
0.651846 0.714040 0.319126
0.722159 0.719409 0.324495
0.792473 0.724779 0.329865
0.862786 0.730148 0.335234
0.318342 0.770200 0.310342
0.388655 0.775569 0.315711
0.458968 0.780938 0.321080
0.529282 0.786308 0.326450
0.599595 0.791677 0.331819
0.669909 0.797047 0.337189
0.740222 0.802416 0.342558
0.810536 0.807786 0.347928
0.880849 0.813155 0.353297
0.336405 0.853207 0.328405
0.406718 0.858576 0.333774
0.477032 0.863946 0.339144
0.547345 0.869315 0.344513
0.617658 0.874684 0.349882
0.687972 0.880054 0.355252
0.758285 0.885423 0.360621
0.828599 0.890793 0.365991
0.898912 0.896162 0.371360
0.193723 0.190973 0.250667
0.264037 0.196343 0.256037
0.334350 0.201712 0.261406
0.404664 0.207082 0.266776
0.474977 0.212451 0.272145
0.545291 0.217821 0.277515
0.615604 0.223190 0.282884
0.685917 0.228559 0.288253
0.756231 0.233929 0.293623
0.211787 0.273981 0.268731
0.282100 0.279350 0.274100
0.352413 0.284719 0.279469
0.422727 0.290089 0.284839
0.493040 0.295458 0.290208
0.563354 0.300828 0.295578
0.633667 0.306197 0.300947
0.703981 0.311567 0.306317
0.774294 0.316936 0.311686
0.229850 0.356988 0.286794
0.300163 0.362357 0.292163
0.370477 0.367727 0.297533
0.440790 0.373096 0.302902
0.511103 0.378465 0.308271
0.581417 0.383835 0.313641
0.651730 0.389204 0.319010
0.722044 0.394574 0.324380
0.792357 0.399943 0.329749
0.247913 0.439995 0.304857
0.318226 0.445364 0.310226
0.388540 0.450734 0.315596
0.458853 0.456103 0.320965
0.529166 0.461472 0.326334
0.599480 0.466842 0.331704
0.669793 0.472211 0.337073
0.740107 0.477581 0.342443
0.810420 0.482950 0.347812
0.265976 0.523002 0.322920
0.336289 0.528371 0.328289
0.406603 0.533741 0.333659
0.476916 0.539110 0.339028
0.547230 0.544480 0.344398
0.617543 0.549849 0.349767
0.687856 0.555218 0.355136
0.758170 0.560588 0.360506
0.828483 0.565957 0.365875
0.284039 0.606009 0.340983
0.354352 0.611378 0.346352
0.424666 0.616748 0.351722
0.494979 0.622117 0.357091
0.565293 0.627487 0.362461
0.635606 0.632856 0.367830
0.705919 0.638225 0.373199
0.776233 0.643595 0.378569
0.846546 0.648964 0.383938
0.302102 0.689016 0.359046
0.372415 0.694385 0.364415
0.442729 0.699755 0.369785
0.513042 0.705124 0.375154
0.583356 0.710494 0.380524
0.653669 0.715863 0.385893
0.723983 0.721233 0.391263
0.794296 0.726602 0.396632
0.864609 0.731971 0.402001
0.320165 0.772023 0.377109
0.390479 0.777393 0.382479
0.460792 0.782762 0.387848
0.531105 0.788131 0.393217
0.601419 0.793501 0.398587
0.671732 0.798870 0.403956
0.742046 0.804240 0.409326
0.812359 0.809609 0.414695
0.882673 0.814979 0.420065
0.338228 0.855030 0.395172
0.408542 0.860400 0.400542
0.478855 0.865769 0.405911
0.549168 0.871138 0.411280
0.619482 0.876508 0.416650
0.689795 0.881877 0.422019
0.760109 0.887247 0.427389
0.830422 0.892616 0.432758
0.900736 0.897986 0.438128
0.195547 0.192797 0.317435
0.265860 0.198166 0.322804
0.336174 0.203536 0.328174
0.406487 0.208905 0.333543
0.476801 0.214275 0.338913
0.547114 0.219644 0.344282
0.617428 0.225014 0.349652
0.687741 0.230383 0.355021
0.758054 0.235752 0.360390
0.213610 0.275804 0.335498
0.283923 0.281173 0.340867
0.354237 0.286543 0.346237
0.424550 0.291912 0.351606
0.494864 0.297282 0.356976
0.565177 0.302651 0.362345
0.635491 0.308021 0.367715
0.705804 0.313390 0.373084
0.776117 0.318759 0.378453
0.231673 0.358811 0.353561
0.301987 0.364181 0.358931
0.372300 0.369550 0.364300
0.442613 0.374919 0.369669
0.512927 0.380289 0.375039
0.583240 0.385658 0.380408
0.653554 0.391028 0.385778
0.723867 0.396397 0.391147
0.794181 0.401767 0.396517
0.249736 0.441818 0.371624
0.320050 0.447188 0.376994
0.390363 0.452557 0.382363
0.460677 0.457927 0.387733
0.530990 0.463296 0.393102
0.601303 0.468665 0.398471
0.671617 0.474035 0.403841
0.741930 0.479404 0.409210
0.812244 0.484774 0.414580
0.267799 0.524825 0.389687
0.338113 0.530195 0.395057
0.408426 0.535564 0.400426
0.478740 0.540934 0.405796
0.549053 0.546303 0.411165
0.619366 0.551672 0.416534
0.689680 0.557042 0.421904
0.759993 0.562411 0.427273
0.830307 0.567781 0.432643
0.285862 0.607832 0.407750
0.356176 0.613202 0.413120
0.426489 0.618571 0.418489
0.496803 0.623941 0.423859
0.567116 0.629310 0.429228
0.637430 0.634680 0.434598
0.707743 0.640049 0.439967
0.778056 0.645418 0.445336
0.848370 0.650788 0.450706
0.303926 0.690840 0.425814
0.374239 0.696209 0.431183
0.444552 0.701578 0.436552
0.514866 0.706948 0.441922
0.585179 0.712317 0.447291
0.655493 0.717687 0.452661
0.725806 0.723056 0.458030
0.796119 0.728425 0.463399
0.866433 0.733795 0.468769
0.321989 0.773847 0.443877
0.392302 0.779216 0.449246
0.462615 0.784585 0.454615
0.532929 0.789955 0.459985
0.603242 0.795324 0.465354
0.673556 0.800694 0.470724
0.743869 0.806063 0.476093
0.814183 0.811433 0.481463
0.884496 0.816802 0.486832
0.340052 0.856854 0.461940
0.410365 0.862223 0.467309
0.480679 0.867593 0.472679
0.550992 0.872962 0.478048
0.621305 0.878331 0.483417
0.691619 0.883701 0.488787
0.761932 0.889070 0.494156
0.832246 0.894440 0.499526
0.902559 0.899809 0.504895
0.197370 0.194620 0.384202
0.267684 0.199990 0.389572
0.337997 0.205359 0.394941
0.408311 0.210729 0.400311
0.478624 0.216098 0.405680
0.548938 0.221468 0.411050
0.619251 0.226837 0.416419
0.689564 0.232206 0.421788
0.759878 0.237576 0.427158
0.215434 0.277628 0.402266
0.285747 0.282997 0.407635
0.356060 0.288366 0.413004
0.426374 0.293736 0.418374
0.496687 0.299105 0.423743
0.567001 0.304475 0.429113
0.637314 0.309844 0.434482
0.707628 0.315214 0.439852
0.777941 0.320583 0.445221
0.233497 0.360635 0.420329
0.303810 0.366004 0.425698
0.374123 0.371373 0.431067
0.444437 0.376743 0.436437
0.514750 0.382112 0.441806
0.585064 0.387482 0.447176
0.655377 0.392851 0.452545
0.725691 0.398221 0.457915
0.796004 0.403590 0.463284
0.251560 0.443642 0.438392
0.321873 0.449011 0.443761
0.392187 0.454381 0.449131
0.462500 0.459750 0.454500
0.532813 0.465119 0.459869
0.603127 0.470489 0.465239
0.673440 0.475858 0.470608
0.743754 0.481228 0.475978
0.814067 0.486597 0.481347
0.269623 0.526649 0.456455
0.339936 0.532018 0.461824
0.410250 0.537388 0.467194
0.480563 0.542757 0.472563
0.550877 0.548127 0.477933
0.621190 0.553496 0.483302
0.691503 0.558865 0.488671
0.761817 0.564235 0.494041
0.832130 0.569604 0.499410
0.287686 0.609656 0.474518
0.357999 0.615025 0.479887
0.428313 0.620395 0.485257
0.498626 0.625764 0.490626
0.568940 0.631134 0.495996
0.639253 0.636503 0.501365
0.709566 0.641872 0.506734
0.779880 0.647242 0.512104
0.850193 0.652611 0.517473
0.305749 0.692663 0.492581
0.376062 0.698032 0.497950
0.446376 0.703402 0.503320
0.516689 0.708771 0.508689
0.587003 0.714141 0.514059
0.657316 0.719510 0.519428
0.727630 0.724880 0.524798
0.797943 0.730249 0.530167
0.868256 0.735618 0.535536
0.323812 0.775670 0.510644
0.394126 0.781040 0.516014
0.464439 0.786409 0.521383
0.534752 0.791778 0.526752
0.605066 0.797148 0.532122
0.675379 0.802517 0.537491
0.745693 0.807887 0.542861
0.816006 0.813256 0.548230
0.886319 0.818625 0.553599
0.341875 0.858677 0.528707
0.412189 0.864047 0.534077
0.482502 0.869416 0.539446
0.552815 0.874785 0.544815
0.623129 0.880155 0.550185
0.693442 0.885524 0.555554
0.763756 0.890894 0.560924
0.834069 0.896263 0.566293
0.904383 0.901633 0.571663
0.199194 0.196444 0.450970
0.269507 0.201813 0.456339
0.339821 0.207183 0.461709
0.410134 0.212552 0.467078
0.480448 0.217922 0.472448
0.550761 0.223291 0.477817
0.621074 0.228660 0.483186
0.691388 0.234030 0.488556
0.761701 0.239399 0.493925
0.217257 0.279451 0.469033
0.287570 0.284820 0.474402
0.357884 0.290190 0.479772
0.428197 0.295559 0.485141
0.498511 0.300929 0.490511
0.568824 0.306298 0.495880
0.639138 0.311668 0.501250
0.709451 0.317037 0.506619
0.779764 0.322406 0.511988
0.235320 0.362458 0.487096
0.305634 0.367828 0.492466
0.375947 0.373197 0.497835
0.446260 0.378566 0.503204
0.516574 0.383936 0.508574
0.586887 0.389305 0.513943
0.657201 0.394675 0.519313
0.727514 0.400044 0.524682
0.797828 0.405414 0.530052
0.253383 0.445465 0.505159
0.323697 0.450835 0.510529
0.394010 0.456204 0.515898
0.464323 0.461573 0.521267
0.534637 0.466943 0.526637
0.604950 0.472312 0.532006
0.675264 0.477682 0.537376
0.745577 0.483051 0.542745
0.815891 0.488421 0.548115
0.271446 0.528472 0.523222
0.341760 0.533842 0.528592
0.412073 0.539211 0.533961
0.482387 0.544581 0.539331
0.552700 0.549950 0.544700
0.623013 0.555319 0.550069
0.693327 0.560689 0.555439
0.763640 0.566058 0.560808
0.833954 0.571428 0.566178
0.289509 0.611479 0.541285
0.359823 0.616849 0.546655
0.430136 0.622218 0.552024
0.500450 0.627588 0.557394
0.570763 0.632957 0.562763
0.641077 0.638327 0.568133
0.711390 0.643696 0.573502
0.781703 0.649065 0.578871
0.852017 0.654435 0.584241
0.307572 0.694486 0.559348
0.377886 0.699856 0.564718
0.448199 0.705225 0.570087
0.518513 0.710595 0.575457
0.588826 0.715964 0.580826
0.659140 0.721334 0.586196
0.729453 0.726703 0.591565
0.799766 0.732072 0.596934
0.870080 0.737442 0.602304
0.325636 0.777494 0.577412
0.395949 0.782863 0.582781
0.466262 0.788232 0.588150
0.536576 0.793602 0.593520
0.606889 0.798971 0.598889
0.677203 0.804341 0.604259
0.747516 0.809710 0.609628
0.817830 0.815080 0.614998
0.888143 0.820449 0.620367
0.343699 0.860501 0.595475
0.414012 0.865870 0.600844
0.484326 0.871240 0.606214
0.554639 0.876609 0.611583
0.624952 0.881978 0.616952
0.695266 0.887348 0.622322
0.765579 0.892717 0.627691
0.835893 0.898087 0.633061
0.906206 0.903456 0.638430
0.201017 0.198267 0.517737
0.271331 0.203637 0.523107
0.341644 0.209006 0.528476
0.411958 0.214376 0.533846
0.482271 0.219745 0.539215
0.552585 0.225115 0.544585
0.622898 0.230484 0.549954
0.693211 0.235853 0.555323
0.763525 0.241223 0.560693
0.219081 0.281275 0.535801
0.289394 0.286644 0.541170
0.359707 0.292013 0.546539
0.430021 0.297383 0.551909
0.500334 0.302752 0.557278
0.570648 0.308122 0.562648
0.640961 0.313491 0.568017
0.711274 0.318860 0.573386
0.781588 0.324230 0.578756
0.237144 0.364282 0.553864
0.307457 0.369651 0.559233
0.377770 0.375020 0.564602
0.448084 0.380390 0.569972
0.518397 0.385759 0.575341
0.588711 0.391129 0.580711
0.659024 0.396498 0.586080
0.729338 0.401868 0.591450
0.799651 0.407237 0.596819
0.255207 0.447289 0.571927
0.325520 0.452658 0.577296
0.395834 0.458028 0.582666
0.466147 0.463397 0.588035
0.536460 0.468766 0.593404
0.606774 0.474136 0.598774
0.677087 0.479505 0.604143
0.747401 0.484875 0.609513
0.817714 0.490244 0.614882
0.273270 0.530296 0.589990
0.343583 0.535665 0.595359
0.413897 0.541035 0.600729
0.484210 0.546404 0.606098
0.554523 0.551773 0.611467
0.624837 0.557143 0.616837
0.695150 0.562512 0.622206
0.765464 0.567882 0.627576
0.835777 0.573251 0.632945
0.291333 0.613303 0.608053
0.361646 0.618672 0.613422
0.431960 0.624042 0.618792
0.502273 0.629411 0.624161
0.572587 0.634781 0.629531
0.642900 0.640150 0.634900
0.713213 0.645519 0.640269
0.783527 0.650889 0.645639
0.853840 0.656258 0.651008
0.309396 0.696310 0.626116
0.379709 0.701679 0.631485
0.450023 0.707049 0.636855
0.520336 0.712418 0.642224
0.590650 0.717788 0.647594
0.660963 0.723157 0.652963
0.731277 0.728527 0.658333
0.801590 0.733896 0.663702
0.871903 0.739265 0.669071
0.327459 0.779317 0.644179
0.397772 0.784686 0.649548
0.468086 0.790056 0.654918
0.538399 0.795425 0.660287
0.608713 0.800795 0.665657
0.679026 0.806164 0.671026
0.749340 0.811534 0.676396
0.819653 0.816903 0.681765
0.889966 0.822272 0.687134
0.345522 0.862324 0.662242
0.415836 0.867694 0.667612
0.486149 0.873063 0.672981
0.556462 0.878432 0.678350
0.626776 0.883802 0.683720
0.697089 0.889171 0.689089
0.767403 0.894541 0.694459
0.837716 0.899910 0.699828
0.908030 0.905280 0.705198
0.202841 0.200091 0.584505
0.273154 0.205460 0.589874
0.343468 0.210830 0.595244
0.413781 0.216199 0.600613
0.484095 0.221569 0.605983
0.554408 0.226938 0.611352
0.624721 0.232307 0.616721
0.695035 0.237677 0.622091
0.765348 0.243046 0.627460
0.220904 0.283098 0.602568
0.291217 0.288467 0.607937
0.361531 0.293837 0.613307
0.431844 0.299206 0.618676
0.502158 0.304576 0.624046
0.572471 0.309945 0.629415
0.642785 0.315315 0.634785
0.713098 0.320684 0.640154
0.783411 0.326053 0.645523
0.238967 0.366105 0.620631
0.309281 0.371475 0.626001
0.379594 0.376844 0.631370
0.449907 0.382213 0.636739
0.520221 0.387583 0.642109
0.590534 0.392952 0.647478
0.660848 0.398322 0.652848
0.731161 0.403691 0.658217
0.801474 0.409060 0.663586
0.257030 0.449112 0.638694
0.327344 0.454482 0.644064
0.397657 0.459851 0.649433
0.467970 0.465220 0.654802
0.538284 0.470590 0.660172
0.608597 0.475959 0.665541
0.678911 0.481329 0.670911
0.749224 0.486698 0.676280
0.819538 0.492068 0.681650
0.275093 0.532119 0.656757
0.345407 0.537489 0.662127
0.415720 0.542858 0.667496
0.486034 0.548228 0.672866
0.556347 0.553597 0.678235
0.626660 0.558966 0.683604
0.696974 0.564336 0.688974
0.767287 0.569705 0.694343
0.837601 0.575075 0.699713
0.293156 0.615126 0.674820
0.363470 0.620496 0.680190
0.433783 0.625865 0.685559
0.504097 0.631235 0.690929
0.574410 0.636604 0.696298
0.644723 0.641973 0.701667
0.715037 0.647343 0.707037
0.785350 0.652712 0.712406
0.855664 0.658082 0.717776
0.311219 0.698133 0.692883
0.381533 0.703503 0.698253
0.451846 0.708872 0.703622
0.522160 0.714242 0.708992
0.592473 0.719611 0.714361
0.662787 0.724981 0.719731
0.733100 0.730350 0.725100
0.803413 0.735719 0.730469
0.873727 0.741089 0.735839
0.329283 0.781141 0.710947
0.399596 0.786510 0.716316
0.469909 0.791879 0.721685
0.540223 0.797249 0.727055
0.610536 0.802618 0.732424
0.680850 0.807988 0.737794
0.751163 0.813357 0.743163
0.821477 0.818727 0.748533
0.891790 0.824096 0.753902
0.347346 0.864148 0.729010
0.417659 0.869517 0.734379
0.487972 0.874886 0.739748
0.558286 0.880256 0.745118
0.628599 0.885625 0.750487
0.698913 0.890995 0.755857
0.769226 0.896364 0.761226
0.839540 0.901734 0.766596
0.909853 0.907103 0.771965
0.204664 0.201914 0.651272
0.274978 0.207284 0.656642
0.345291 0.212653 0.662011
0.415605 0.218023 0.667381
0.485918 0.223392 0.672750
0.556232 0.228762 0.678120
0.626545 0.234131 0.683489
0.696858 0.239500 0.688858
0.767172 0.244870 0.694228
0.222727 0.284921 0.669335
0.293041 0.290291 0.674705
0.363354 0.295660 0.680074
0.433668 0.301030 0.685444
0.503981 0.306399 0.690813
0.574295 0.311769 0.696183
0.644608 0.317138 0.701552
0.714921 0.322507 0.706921
0.785235 0.327877 0.712291
0.240791 0.367929 0.687399
0.311104 0.373298 0.692768
0.381417 0.378667 0.698137
0.451731 0.384037 0.703507
0.522044 0.389406 0.708876
0.592358 0.394776 0.714246
0.662671 0.400145 0.719615
0.732985 0.405515 0.724985
0.803298 0.410884 0.730354
0.258854 0.450936 0.705462
0.329167 0.456305 0.710831
0.399481 0.461675 0.716201
0.469794 0.467044 0.721570
0.540107 0.472413 0.726939
0.610421 0.477783 0.732309
0.680734 0.483152 0.737678
0.751048 0.488522 0.743048
0.821361 0.493891 0.748417
0.276917 0.533943 0.723525
0.347230 0.539312 0.728894
0.417544 0.544682 0.734264
0.487857 0.550051 0.739633
0.558170 0.555420 0.745002
0.628484 0.560790 0.750372
0.698797 0.566159 0.755741
0.769111 0.571529 0.761111
0.839424 0.576898 0.766480
0.294980 0.616950 0.741588
0.365293 0.622319 0.746957
0.435607 0.627689 0.752327
0.505920 0.633058 0.757696
0.576234 0.638428 0.763066
0.646547 0.643797 0.768435
0.716860 0.649166 0.773804
0.787174 0.654536 0.779174
0.857487 0.659905 0.784543
0.313043 0.699957 0.759651
0.383356 0.705326 0.765020
0.453670 0.710696 0.770390
0.523983 0.716065 0.775759
0.594297 0.721435 0.781129
0.664610 0.726804 0.786498
0.734923 0.732173 0.791867
0.805237 0.737543 0.797237
0.875550 0.742912 0.802606
0.331106 0.782964 0.777714
0.401419 0.788333 0.783083
0.471733 0.793703 0.788453
0.542046 0.799072 0.793822
0.612360 0.804442 0.799192
0.682673 0.809811 0.804561
0.752987 0.815181 0.809931
0.823300 0.820550 0.815300
0.893613 0.825919 0.820669
0.349169 0.865971 0.795777
0.419483 0.871341 0.801147
0.489796 0.876710 0.806516
0.560109 0.882079 0.811885
0.630423 0.887449 0.817255
0.700736 0.892818 0.822624
0.771050 0.898188 0.827994
0.841363 0.903557 0.833363
0.911677 0.908927 0.838733
0.206488 0.203738 0.718040
0.276801 0.209107 0.723409
0.347115 0.214477 0.728779
0.417428 0.219846 0.734148
0.487742 0.225216 0.739518
0.558055 0.230585 0.744887
0.628368 0.235954 0.750256
0.698682 0.241324 0.755626
0.768995 0.246693 0.760995
0.224551 0.286745 0.736103
0.294864 0.292114 0.741472
0.365178 0.297484 0.746842
0.435491 0.302853 0.752211
0.505805 0.308223 0.757581
0.576118 0.313592 0.762950
0.646432 0.318962 0.768320
0.716745 0.324331 0.773689
0.787058 0.329700 0.779058
0.242614 0.369752 0.754166
0.312927 0.375121 0.759535
0.383241 0.380491 0.764905
0.453554 0.385860 0.770274
0.523868 0.391230 0.775644
0.594181 0.396599 0.781013
0.664495 0.401969 0.786383
0.734808 0.407338 0.791752
0.805121 0.412707 0.797121
0.260677 0.452759 0.772229
0.330991 0.458129 0.777599
0.401304 0.463498 0.782968
0.471617 0.468867 0.788337
0.541931 0.474237 0.793707
0.612244 0.479606 0.799076
0.682558 0.484976 0.804446
0.752871 0.490345 0.809815
0.823185 0.495715 0.815185
0.278740 0.535766 0.790292
0.349054 0.541136 0.795662
0.419367 0.546505 0.801031
0.489681 0.551875 0.806401
0.559994 0.557244 0.811770
0.630307 0.562613 0.817139
0.700621 0.567983 0.822509
0.770934 0.573352 0.827878
0.841248 0.578722 0.833248
0.296803 0.618773 0.808355
0.367117 0.624143 0.813725
0.437430 0.629512 0.819094
0.507744 0.634882 0.824464
0.578057 0.640251 0.829833
0.648370 0.645620 0.835202
0.718684 0.650990 0.840572
0.788997 0.656359 0.845941
0.859311 0.661729 0.851311
0.314866 0.701780 0.826418
0.385180 0.707150 0.831788
0.455493 0.712519 0.837157
0.525807 0.717889 0.842527
0.596120 0.723258 0.847896
0.666434 0.728628 0.853266
0.736747 0.733997 0.858635
0.807060 0.739366 0.864004
0.877374 0.744736 0.869374
0.332930 0.784788 0.844482
0.403243 0.790157 0.849851
0.473556 0.795526 0.855220
0.543870 0.800896 0.860590
0.614183 0.806265 0.865959
0.684497 0.811635 0.871329
0.754810 0.817004 0.876698
0.825123 0.822373 0.882067
0.895437 0.827743 0.887437
0.350993 0.867795 0.862545
0.421306 0.873164 0.867914
0.491619 0.878533 0.873283
0.561933 0.883903 0.878653
0.632246 0.889272 0.884022
0.702560 0.894642 0.889392
0.772873 0.900011 0.894761
0.843187 0.905381 0.900131
0.913500 0.910750 0.905500
