fexer/Resources/LUTs/faded_matte.cube
TITLE "Faded Matte"
LUT_3D_SIZE 33
DOMAIN_MIN 0.0 0.0 0.0
DOMAIN_MAX 1.0 1.0 1.0
0.191900 0.189150 0.183900
0.209478 0.190492 0.185242
0.227057 0.191835 0.186585
0.244635 0.193177 0.187927
0.262213 0.194519 0.189269
0.279792 0.195862 0.190612
0.297370 0.197204 0.191954
0.314948 0.198546 0.193296
0.332527 0.199889 0.194639
0.350105 0.201231 0.195981
0.367684 0.202574 0.197324
0.385262 0.203916 0.198666
0.402840 0.205258 0.200008
0.420419 0.206601 0.201351
0.437997 0.207943 0.202693
0.455575 0.209285 0.204035
0.473154 0.210628 0.205378
0.490732 0.211970 0.206720
0.508310 0.213312 0.208062
0.525889 0.214655 0.209405
0.543467 0.215997 0.210747
0.561045 0.217339 0.212089
0.578624 0.218682 0.213432
0.596202 0.220024 0.214774
0.613781 0.221367 0.216117
0.631359 0.222709 0.217459
0.648937 0.224051 0.218801
0.666516 0.225394 0.220144
0.684094 0.226736 0.221486
0.701672 0.228078 0.222828
0.719251 0.229421 0.224171
0.736829 0.230763 0.225513
0.754407 0.232105 0.226855
0.196416 0.209902 0.188416
0.213994 0.211244 0.189758
0.231572 0.212586 0.191100
0.249151 0.213929 0.192443
0.266729 0.215271 0.193785
0.284308 0.216614 0.195128
0.301886 0.217956 0.196470
0.319464 0.219298 0.197812
0.337043 0.220641 0.199155
0.354621 0.221983 0.200497
0.372199 0.223325 0.201839
0.389778 0.224668 0.203182
0.407356 0.226010 0.204524
0.424934 0.227352 0.205866
0.442513 0.228695 0.207209
0.460091 0.230037 0.208551
0.477669 0.231379 0.209893
0.495248 0.232722 0.211236
0.512826 0.234064 0.212578
0.530405 0.235407 0.213921
0.547983 0.236749 0.215263
0.565561 0.238091 0.216605
0.583140 0.239434 0.217948
0.600718 0.240776 0.219290
0.618296 0.242118 0.220632
0.635875 0.243461 0.221975
0.653453 0.244803 0.223317
0.671031 0.246145 0.224659
0.688610 0.247488 0.226002
0.706188 0.248830 0.227344
0.723766 0.250172 0.228686
0.741345 0.251515 0.230029
0.758923 0.252857 0.231371
0.200932 0.230654 0.192932
0.218510 0.231996 0.194274
0.236088 0.233338 0.195616
0.253667 0.234681 0.196959
0.271245 0.236023 0.198301
0.288823 0.237365 0.199643
0.306402 0.238708 0.200986
0.323980 0.240050 0.202328
0.341558 0.241392 0.203670
0.359137 0.242735 0.205013
0.376715 0.244077 0.206355
0.394293 0.245419 0.207697
0.411872 0.246762 0.209040
0.429450 0.248104 0.210382
0.447029 0.249447 0.211725
0.464607 0.250789 0.213067
0.482185 0.252131 0.214409
0.499764 0.253474 0.215752
0.517342 0.254816 0.217094
0.534920 0.256158 0.218436
0.552499 0.257501 0.219779
0.570077 0.258843 0.221121
0.587655 0.260185 0.222463
0.605234 0.261528 0.223806
0.622812 0.262870 0.225148
0.640390 0.264212 0.226490
0.657969 0.265555 0.227833
0.675547 0.266897 0.229175
0.693126 0.268240 0.230518
0.710704 0.269582 0.231860
0.728282 0.270924 0.233202
0.745861 0.272267 0.234545
0.763439 0.273609 0.235887
0.205447 0.251405 0.197447
0.223026 0.252748 0.198790
0.240604 0.254090 0.200132
0.258182 0.255432 0.201474
0.275761 0.256775 0.202817
0.293339 0.258117 0.204159
0.310917 0.259459 0.205501
0.328496 0.260802 0.206844
0.346074 0.262144 0.208186
0.363653 0.263487 0.209529
0.381231 0.264829 0.210871
0.398809 0.266171 0.212213
0.416388 0.267514 0.213556
0.433966 0.268856 0.214898
0.451544 0.270198 0.216240
0.469123 0.271541 0.217583
0.486701 0.272883 0.218925
0.504279 0.274225 0.220267
0.521858 0.275568 0.221610
0.539436 0.276910 0.222952
0.557014 0.278252 0.224294
0.574593 0.279595 0.225637
0.592171 0.280937 0.226979
0.609750 0.282280 0.228322
0.627328 0.283622 0.229664
0.644906 0.284964 0.231006
0.662485 0.286307 0.232349
0.680063 0.287649 0.233691
0.697641 0.288991 0.235033
0.715220 0.290334 0.236376
0.732798 0.291676 0.237718
0.750376 0.293018 0.239060
0.767955 0.294361 0.240403
0.209963 0.272157 0.201963
0.227541 0.273499 0.203305
0.245120 0.274842 0.204648
0.262698 0.276184 0.205990
0.280277 0.277527 0.207333
0.297855 0.278869 0.208675
0.315433 0.280211 0.210017
0.333012 0.281554 0.211360
0.350590 0.282896 0.212702
0.368168 0.284238 0.214044
0.385747 0.285581 0.215387
0.403325 0.286923 0.216729
0.420903 0.288265 0.218071
0.438482 0.289608 0.219414
0.456060 0.290950 0.220756
0.473638 0.292292 0.222098
0.491217 0.293635 0.223441
0.508795 0.294977 0.224783
0.526374 0.296320 0.226126
0.543952 0.297662 0.227468
0.561530 0.299004 0.228810
0.579109 0.300347 0.230153
0.596687 0.301689 0.231495
0.614265 0.303031 0.232837
0.631844 0.304374 0.234180
0.649422 0.305716 0.235522
0.667000 0.307058 0.236864
0.684579 0.308401 0.238207
0.702157 0.309743 0.239549
0.719735 0.311085 0.240891
0.737314 0.312428 0.242234
0.754892 0.313770 0.243576
0.772470 0.315112 0.244918
0.214479 0.292909 0.206479
0.232057 0.294251 0.207821
0.249636 0.295594 0.209164
0.267214 0.296936 0.210506
0.284792 0.298278 0.211848
0.302371 0.299621 0.213191
0.319949 0.300963 0.214533
0.337527 0.302305 0.215875
0.355106 0.303648 0.217218
0.372684 0.304990 0.218560
0.390262 0.306332 0.219902
0.407841 0.307675 0.221245
0.425419 0.309017 0.222587
0.442997 0.310359 0.223929
0.460576 0.311702 0.225272
0.478154 0.313044 0.226614
0.495733 0.314387 0.227957
0.513311 0.315729 0.229299
0.530889 0.317071 0.230641
0.548468 0.318414 0.231984
0.566046 0.319756 0.233326
0.583624 0.321098 0.234668
0.601203 0.322441 0.236011
0.618781 0.323783 0.237353
0.636359 0.325125 0.238695
0.653938 0.326468 0.240038
0.671516 0.327810 0.241380
0.689094 0.329152 0.242722
0.706673 0.330495 0.244065
0.724251 0.331837 0.245407
0.741830 0.333180 0.246750
0.759408 0.334522 0.248092
0.776986 0.335864 0.249434
0.218995 0.313661 0.210995
0.236573 0.315003 0.212337
0.254151 0.316345 0.213679
0.271730 0.317688 0.215022
0.289308 0.319030 0.216364
0.306886 0.320372 0.217706
0.324465 0.321715 0.219049
0.342043 0.323057 0.220391
0.359621 0.324399 0.221733
0.377200 0.325742 0.223076
0.394778 0.327084 0.224418
0.412357 0.328427 0.225761
0.429935 0.329769 0.227103
0.447513 0.331111 0.228445
0.465092 0.332454 0.229788
0.482670 0.333796 0.231130
0.500248 0.335138 0.232472
0.517827 0.336481 0.233815
0.535405 0.337823 0.235157
0.552983 0.339165 0.236499
0.570562 0.340508 0.237842
0.588140 0.341850 0.239184
0.605718 0.343192 0.240526
0.623297 0.344535 0.241869
0.640875 0.345877 0.243211
0.658454 0.347220 0.244554
0.676032 0.348562 0.245896
0.693610 0.349904 0.247238
0.711189 0.351247 0.248581
0.728767 0.352589 0.249923
0.746345 0.353931 0.251265
0.763924 0.355274 0.252608
0.781502 0.356616 0.253950
0.223510 0.334412 0.215510
0.241089 0.335755 0.216853
0.258667 0.337097 0.218195
0.276245 0.338439 0.219537
0.293824 0.339782 0.220880
0.311402 0.341124 0.222222
0.328981 0.342467 0.223565
0.346559 0.343809 0.224907
0.364137 0.345151 0.226249
0.381716 0.346494 0.227592
0.399294 0.347836 0.228934
0.416872 0.349178 0.230276
0.434451 0.350521 0.231619
0.452029 0.351863 0.232961
0.469607 0.353205 0.234303
0.487186 0.354548 0.235646
0.504764 0.355890 0.236988
0.522342 0.357232 0.238330
0.539921 0.358575 0.239673
0.557499 0.359917 0.241015
0.575078 0.361260 0.242358
0.592656 0.362602 0.243700
0.610234 0.363944 0.245042
0.627813 0.365287 0.246385
0.645391 0.366629 0.247727
0.662969 0.367971 0.249069
0.680548 0.369314 0.250412
0.698126 0.370656 0.251754
0.715704 0.371998 0.253096
0.733283 0.373341 0.254439
0.750861 0.374683 0.255781
0.768439 0.376025 0.257123
0.786018 0.377368 0.258466
0.228026 0.355164 0.220026
0.245605 0.356507 0.221369
0.263183 0.357849 0.222711
0.280761 0.359191 0.224053
0.298340 0.360534 0.225396
0.315918 0.361876 0.226738
0.333496 0.363218 0.228080
0.351075 0.364561 0.229423
0.368653 0.365903 0.230765
0.386231 0.367245 0.232107
0.403810 0.368588 0.233450
0.421388 0.369930 0.234792
0.438966 0.371272 0.236134
0.456545 0.372615 0.237477
0.474123 0.373957 0.238819
0.491702 0.375300 0.240162
0.509280 0.376642 0.241504
0.526858 0.377984 0.242846
0.544437 0.379327 0.244189
0.562015 0.380669 0.245531
0.579593 0.382011 0.246873
0.597172 0.383354 0.248216
0.614750 0.384696 0.249558
0.632328 0.386038 0.250900
0.649907 0.387381 0.252243
0.667485 0.388723 0.253585
0.685063 0.390065 0.254927
0.702642 0.391408 0.256270
0.720220 0.392750 0.257612
0.737799 0.394093 0.258955
0.755377 0.395435 0.260297
0.772955 0.396777 0.261639
0.790534 0.398120 0.262982
0.232542 0.375916 0.224542
0.250120 0.377258 0.225884
0.267699 0.378601 0.227227
0.285277 0.379943 0.228569
0.302855 0.381285 0.229911
0.320434 0.382628 0.231254
0.338012 0.383970 0.232596
0.355590 0.385312 0.233938
0.373169 0.386655 0.235281
0.390747 0.387997 0.236623
0.408326 0.389340 0.237966
0.425904 0.390682 0.239308
0.443482 0.392024 0.240650
0.461061 0.393367 0.241993
0.478639 0.394709 0.243335
0.496217 0.396051 0.244677
0.513796 0.397394 0.246020
0.531374 0.398736 0.247362
0.548952 0.400078 0.248704
0.566531 0.401421 0.250047
0.584109 0.402763 0.251389
0.601687 0.404105 0.252731
0.619266 0.405448 0.254074
0.636844 0.406790 0.255416
0.654423 0.408133 0.256759
0.672001 0.409475 0.258101
0.689579 0.410817 0.259443
0.707158 0.412160 0.260786
0.724736 0.413502 0.262128
0.742314 0.414844 0.263470
0.759893 0.416187 0.264813
0.777471 0.417529 0.266155
0.795049 0.418871 0.267497
0.237058 0.396668 0.229058
0.254636 0.398010 0.230400
0.272214 0.399352 0.231742
0.289793 0.400695 0.233085
0.307371 0.402037 0.234427
0.324950 0.403380 0.235770
0.342528 0.404722 0.237112
0.360106 0.406064 0.238454
0.377685 0.407407 0.239797
0.395263 0.408749 0.241139
0.412841 0.410091 0.242481
0.430420 0.411434 0.243824
0.447998 0.412776 0.245166
0.465576 0.414118 0.246508
0.483155 0.415461 0.247851
0.500733 0.416803 0.249193
0.518311 0.418145 0.250535
0.535890 0.419488 0.251878
0.553468 0.420830 0.253220
0.571046 0.422172 0.254562
0.588625 0.423515 0.255905
0.606203 0.424857 0.257247
0.623782 0.426200 0.258590
0.641360 0.427542 0.259932
0.658938 0.428884 0.261274
0.676517 0.430227 0.262617
0.694095 0.431569 0.263959
0.711673 0.432911 0.265301
0.729252 0.434254 0.266644
0.746830 0.435596 0.267986
0.764408 0.436938 0.269328
0.781987 0.438281 0.270671
0.799565 0.439623 0.272013
0.241574 0.417420 0.233574
0.259152 0.418762 0.234916
0.276730 0.420104 0.236258
0.294309 0.421447 0.237601
0.311887 0.422789 0.238943
0.329465 0.424131 0.240285
0.347044 0.425474 0.241628
0.364622 0.426816 0.242970
0.382200 0.428158 0.244312
0.399779 0.429501 0.245655
0.417357 0.430843 0.246997
0.434935 0.432185 0.248339
0.452514 0.433528 0.249682
0.470092 0.434870 0.251024
0.487670 0.436212 0.252366
0.505249 0.437555 0.253709
0.522827 0.438897 0.255051
0.540406 0.440240 0.256394
0.557984 0.441582 0.257736
0.575562 0.442924 0.259078
0.593141 0.444267 0.260421
0.610719 0.445609 0.261763
0.628297 0.446951 0.263105
0.645876 0.448294 0.264448
0.663454 0.449636 0.265790
0.681032 0.450978 0.267132
0.698611 0.452321 0.268475
0.716189 0.453663 0.269817
0.733767 0.455005 0.271159
0.751346 0.456348 0.272502
0.768924 0.457690 0.273844
0.786503 0.459033 0.275187
0.804081 0.460375 0.276529
0.246089 0.438171 0.238089
0.263668 0.439514 0.239432
0.281246 0.440856 0.240774
0.298824 0.442198 0.242116
0.316403 0.443541 0.243459
0.333981 0.444883 0.244801
0.351559 0.446225 0.246143
0.369138 0.447568 0.247486
0.386716 0.448910 0.248828
0.404294 0.450252 0.250170
0.421873 0.451595 0.251513
0.439451 0.452937 0.252855
0.457030 0.454280 0.254198
0.474608 0.455622 0.255540
0.492186 0.456964 0.256882
0.509765 0.458307 0.258225
0.527343 0.459649 0.259567
0.544921 0.460991 0.260909
0.562500 0.462334 0.262252
0.580078 0.463676 0.263594
0.597656 0.465018 0.264936
0.615235 0.466361 0.266279
0.632813 0.467703 0.267621
0.650391 0.469045 0.268963
0.667970 0.470388 0.270306
0.685548 0.471730 0.271648
0.703127 0.473073 0.272991
0.720705 0.474415 0.274333
0.738283 0.475757 0.275675
0.755862 0.477100 0.277018
0.773440 0.478442 0.278360
0.791018 0.479784 0.279702
0.808597 0.481127 0.281045
0.250605 0.458923 0.242605
0.268183 0.460265 0.243947
0.285762 0.461608 0.245290
0.303340 0.462950 0.246632
0.320918 0.464292 0.247974
0.338497 0.465635 0.249317
0.356075 0.466977 0.250659
0.373654 0.468320 0.252002
0.391232 0.469662 0.253344
0.408810 0.471004 0.254686
0.426389 0.472347 0.256029
0.443967 0.473689 0.257371
0.461545 0.475031 0.258713
0.479124 0.476374 0.260056
0.496702 0.477716 0.261398
0.514280 0.479058 0.262740
0.531859 0.480401 0.264083
0.549437 0.481743 0.265425
0.567015 0.483085 0.266767
0.584594 0.484428 0.268110
0.602172 0.485770 0.269452
0.619751 0.487113 0.270795
0.637329 0.488455 0.272137
0.654907 0.489797 0.273479
0.672486 0.491140 0.274822
0.690064 0.492482 0.276164
0.707642 0.493824 0.277506
0.725221 0.495167 0.278849
0.742799 0.496509 0.280191
0.760377 0.497851 0.281533
0.777956 0.499194 0.282876
0.795534 0.500536 0.284218
0.813112 0.501878 0.285560
0.255121 0.479675 0.247121
0.272699 0.481017 0.248463
0.290278 0.482360 0.249806
0.307856 0.483702 0.251148
0.325434 0.485044 0.252490
0.343013 0.486387 0.253833
0.360591 0.487729 0.255175
0.378169 0.489071 0.256517
0.395748 0.490414 0.257860
0.413326 0.491756 0.259202
0.430904 0.493098 0.260544
0.448483 0.494441 0.261887
0.466061 0.495783 0.263229
0.483639 0.497125 0.264571
0.501218 0.498468 0.265914
0.518796 0.499810 0.267256
0.536375 0.501153 0.268599
0.553953 0.502495 0.269941
0.571531 0.503837 0.271283
0.589110 0.505180 0.272626
0.606688 0.506522 0.273968
0.624266 0.507864 0.275310
0.641845 0.509207 0.276653
0.659423 0.510549 0.277995
0.677001 0.511891 0.279337
0.694580 0.513234 0.280680
0.712158 0.514576 0.282022
0.729736 0.515918 0.283364
0.747315 0.517261 0.284707
0.764893 0.518603 0.286049
0.782472 0.519946 0.287392
0.800050 0.521288 0.288734
0.817628 0.522630 0.290076
0.259637 0.500427 0.251637
0.277215 0.501769 0.252979
0.294793 0.503111 0.254321
0.312372 0.504454 0.255664
0.329950 0.505796 0.257006
0.347528 0.507138 0.258348
0.365107 0.508481 0.259691
0.382685 0.509823 0.261033
0.400263 0.511165 0.262375
0.417842 0.512508 0.263718
0.435420 0.513850 0.265060
0.452999 0.515193 0.266403
0.470577 0.516535 0.267745
0.488155 0.517877 0.269087
0.505734 0.519220 0.270430
0.523312 0.520562 0.271772
0.540890 0.521904 0.273114
0.558469 0.523247 0.274457
0.576047 0.524589 0.275799
0.593625 0.525931 0.277141
0.611204 0.527274 0.278484
0.628782 0.528616 0.279826
0.646360 0.529958 0.281168
0.663939 0.531301 0.282511
0.681517 0.532643 0.283853
0.699096 0.533986 0.285196
0.716674 0.535328 0.286538
0.734252 0.536670 0.287880
0.751831 0.538013 0.289223
0.769409 0.539355 0.290565
0.786987 0.540697 0.291907
0.804566 0.542040 0.293250
0.822144 0.543382 0.294592
0.264152 0.521178 0.256152
0.281731 0.522521 0.257495
0.299309 0.523863 0.258837
0.316887 0.525205 0.260179
0.334466 0.526548 0.261522
0.352044 0.527890 0.262864
0.369623 0.529233 0.264207
0.387201 0.530575 0.265549
0.404779 0.531917 0.266891
0.422358 0.533260 0.268234
0.439936 0.534602 0.269576
0.457514 0.535944 0.270918
0.475093 0.537287 0.272261
0.492671 0.538629 0.273603
0.510249 0.539971 0.274945
0.527828 0.541314 0.276288
0.545406 0.542656 0.277630
0.562984 0.543998 0.278972
0.580563 0.545341 0.280315
0.598141 0.546683 0.281657
0.615719 0.548025 0.282999
0.633298 0.549368 0.284342
0.650876 0.550710 0.285684
0.668455 0.552053 0.287027
0.686033 0.553395 0.288369
0.703611 0.554737 0.289711
0.721190 0.556080 0.291054
0.738768 0.557422 0.292396
0.756346 0.558764 0.293738
0.773925 0.560107 0.295081
0.791503 0.561449 0.296423
0.809081 0.562791 0.297765
0.826660 0.564134 0.299108
0.268668 0.541930 0.260668
0.286246 0.543272 0.262010
0.303825 0.544615 0.263353
0.321403 0.545957 0.264695
0.338982 0.547300 0.266038
0.356560 0.548642 0.267380
0.374138 0.549984 0.268722
0.391717 0.551327 0.270065
0.409295 0.552669 0.271407
0.426873 0.554011 0.272749
0.444452 0.555354 0.274092
0.462030 0.556696 0.275434
0.479608 0.558038 0.276776
0.497187 0.559381 0.278119
0.514765 0.560723 0.279461
0.532343 0.562065 0.280803
0.549922 0.563408 0.282146
0.567500 0.564750 0.283488
0.585079 0.566093 0.284831
0.602657 0.567435 0.286173
0.620235 0.568777 0.287515
0.637814 0.570120 0.288858
0.655392 0.571462 0.290200
0.672970 0.572804 0.291542
0.690549 0.574147 0.292885
0.708127 0.575489 0.294227
0.725705 0.576831 0.295569
0.743284 0.578174 0.296912
0.760862 0.579516 0.298254
0.778440 0.580858 0.299596
0.796019 0.582201 0.300939
0.813597 0.583543 0.302281
0.831176 0.584886 0.303624
0.273184 0.562682 0.265184
0.290762 0.564024 0.266526
0.308341 0.565367 0.267869
0.325919 0.566709 0.269211
0.343497 0.568051 0.270553
0.361076 0.569394 0.271896
0.378654 0.570736 0.273238
0.396232 0.572078 0.274580
0.413811 0.573421 0.275923
0.431389 0.574763 0.277265
0.448967 0.576105 0.278607
0.466546 0.577448 0.279950
0.484124 0.578790 0.281292
0.501703 0.580133 0.282635
0.519281 0.581475 0.283977
0.536859 0.582817 0.285319
0.554438 0.584160 0.286662
0.572016 0.585502 0.288004
0.589594 0.586844 0.289346
0.607173 0.588187 0.290689
0.624751 0.589529 0.292031
0.642329 0.590871 0.293373
0.659908 0.592214 0.294716
0.677486 0.593556 0.296058
0.695064 0.594898 0.297400
0.712643 0.596241 0.298743
0.730221 0.597583 0.300085
0.747800 0.598926 0.301428
0.765378 0.600268 0.302770
0.782956 0.601610 0.304112
0.800535 0.602953 0.305455
0.818113 0.604295 0.306797
0.835691 0.605637 0.308139
0.277700 0.583434 0.269700
0.295278 0.584776 0.271042
0.312856 0.586118 0.272384
0.330435 0.587461 0.273727
0.348013 0.588803 0.275069
0.365591 0.590145 0.276411
0.383170 0.591488 0.277754
0.400748 0.592830 0.279096
0.418327 0.594173 0.280439
0.435905 0.595515 0.281781
0.453483 0.596857 0.283123
0.471062 0.598200 0.284466
0.488640 0.599542 0.285808
0.506218 0.600884 0.287150
0.523797 0.602227 0.288493
0.541375 0.603569 0.289835
0.558953 0.604911 0.291177
0.576532 0.606254 0.292520
0.594110 0.607596 0.293862
0.611688 0.608938 0.295204
0.629267 0.610281 0.296547
0.646845 0.611623 0.297889
0.664424 0.612966 0.299232
0.682002 0.614308 0.300574
0.699580 0.615650 0.301916
0.717159 0.616993 0.303259
0.734737 0.618335 0.304601
0.752315 0.619677 0.305943
0.769894 0.621020 0.307286
0.787472 0.622362 0.308628
0.805050 0.623704 0.309970
0.822629 0.625047 0.311313
0.840207 0.626389 0.312655
0.282215 0.604185 0.274215
0.299794 0.605528 0.275558
0.317372 0.606870 0.276900
0.334951 0.608213 0.278243
0.352529 0.609555 0.279585
0.370107 0.610897 0.280927
0.387686 0.612240 0.282270
0.405264 0.613582 0.283612
0.422842 0.614924 0.284954
0.440421 0.616267 0.286297
0.457999 0.617609 0.287639
0.475577 0.618951 0.288981
0.493156 0.620294 0.290324
0.510734 0.621636 0.291666
0.528312 0.622978 0.293008
0.545891 0.624321 0.294351
0.563469 0.625663 0.295693
0.581048 0.627006 0.297036
0.598626 0.628348 0.298378
0.616204 0.629690 0.299720
0.633783 0.631033 0.301063
0.651361 0.632375 0.302405
0.668939 0.633717 0.303747
0.686518 0.635060 0.305090
0.704096 0.636402 0.306432
0.721674 0.637744 0.307774
0.739253 0.639087 0.309117
0.756831 0.640429 0.310459
0.774409 0.641771 0.311801
0.791988 0.643114 0.313144
0.809566 0.644456 0.314486
0.827145 0.645799 0.315829
0.844723 0.647141 0.317171
0.286731 0.624937 0.278731
0.304310 0.626280 0.280074
0.321888 0.627622 0.281416
0.339466 0.628964 0.282758
0.357045 0.630307 0.284101
0.374623 0.631649 0.285443
0.392201 0.632991 0.286785
0.409780 0.634334 0.288128
0.427358 0.635676 0.289470
0.444936 0.637018 0.290812
0.462515 0.638361 0.292155
0.480093 0.639703 0.293497
0.497672 0.641046 0.294840
0.515250 0.642388 0.296182
0.532828 0.643730 0.297524
0.550407 0.645073 0.298867
0.567985 0.646415 0.300209
0.585563 0.647757 0.301551
0.603142 0.649100 0.302894
0.620720 0.650442 0.304236
0.638298 0.651784 0.305578
0.655877 0.653127 0.306921
0.673455 0.654469 0.308263
0.691033 0.655811 0.309605
0.708612 0.657154 0.310948
0.726190 0.658496 0.312290
0.743768 0.659838 0.313632
0.761347 0.661181 0.314975
0.778925 0.662523 0.316317
0.796504 0.663866 0.317660
0.814082 0.665208 0.319002
0.831660 0.666550 0.320344
0.849239 0.667893 0.321687
0.291247 0.645689 0.283247
0.308825 0.647031 0.284589
0.326404 0.648374 0.285932
0.343982 0.649716 0.287274
0.361560 0.651058 0.288616
0.379139 0.652401 0.289959
0.396717 0.653743 0.291301
0.414295 0.655085 0.292643
0.431874 0.656428 0.293986
0.449452 0.657770 0.295328
0.467031 0.659113 0.296671
0.484609 0.660455 0.298013
0.502187 0.661797 0.299355
0.519766 0.663140 0.300698
0.537344 0.664482 0.302040
0.554922 0.665824 0.303382
0.572501 0.667167 0.304725
0.590079 0.668509 0.306067
0.607657 0.669851 0.307409
0.625236 0.671194 0.308752
0.642814 0.672536 0.310094
0.660392 0.673878 0.311436
0.677971 0.675221 0.312779
0.695549 0.676563 0.314121
0.713128 0.677906 0.315464
0.730706 0.679248 0.316806
0.748284 0.680590 0.318148
0.765863 0.681933 0.319491
0.783441 0.683275 0.320833
0.801019 0.684617 0.322175
0.818598 0.685960 0.323518
0.836176 0.687302 0.324860
0.853754 0.688644 0.326202
0.295763 0.666441 0.287763
0.313341 0.667783 0.289105
0.330919 0.669125 0.290447
0.348498 0.670468 0.291790
0.366076 0.671810 0.293132
0.383655 0.673153 0.294475
0.401233 0.674495 0.295817
0.418811 0.675837 0.297159
0.436390 0.677180 0.298502
0.453968 0.678522 0.299844
0.471546 0.679864 0.301186
0.489125 0.681207 0.302529
0.506703 0.682549 0.303871
0.524281 0.683891 0.305213
0.541860 0.685234 0.306556
0.559438 0.686576 0.307898
0.577016 0.687918 0.309240
0.594595 0.689261 0.310583
0.612173 0.690603 0.311925
0.629752 0.691946 0.313268
0.647330 0.693288 0.314610
0.664908 0.694630 0.315952
0.682487 0.695973 0.317295
0.700065 0.697315 0.318637
0.717643 0.698657 0.319979
0.735222 0.700000 0.321322
0.752800 0.701342 0.322664
0.770378 0.702684 0.324006
0.787957 0.704027 0.325349
0.805535 0.705369 0.326691
0.823113 0.706711 0.328033
0.840692 0.708054 0.329376
0.858270 0.709396 0.330718
0.300279 0.687193 0.292279
0.317857 0.688535 0.293621
0.335435 0.689877 0.294963
0.353014 0.691220 0.296306
0.370592 0.692562 0.297648
0.388170 0.693904 0.298990
0.405749 0.695247 0.300333
0.423327 0.696589 0.301675
0.440905 0.697931 0.303017
0.458484 0.699274 0.304360
0.476062 0.700616 0.305702
0.493640 0.701958 0.307044
0.511219 0.703301 0.308387
0.528797 0.704643 0.309729
0.546376 0.705986 0.311072
0.563954 0.707328 0.312414
0.581532 0.708670 0.313756
0.599111 0.710013 0.315099
0.616689 0.711355 0.316441
0.634267 0.712697 0.317783
0.651846 0.714040 0.319126
0.669424 0.715382 0.320468
0.687002 0.716724 0.321810
0.704581 0.718067 0.323153
0.722159 0.719409 0.324495
0.739737 0.720751 0.325837
0.757316 0.722094 0.327180
0.774894 0.723436 0.328522
0.792473 0.724779 0.329865
0.810051 0.726121 0.331207
0.827629 0.727463 0.332549
0.845208 0.728806 0.333892
0.862786 0.730148 0.335234
0.304794 0.707944 0.296794
0.322373 0.709287 0.298137
0.339951 0.710629 0.299479
0.357529 0.711971 0.300821
0.375108 0.713314 0.302164
0.392686 0.714656 0.303506
0.410264 0.715998 0.304848
0.427843 0.717341 0.306191
0.445421 0.718683 0.307533
0.463000 0.720026 0.308876
0.480578 0.721368 0.310218
0.498156 0.722710 0.311560
0.515735 0.724053 0.312903
0.533313 0.725395 0.314245
0.550891 0.726737 0.315587
0.568470 0.728080 0.316930
0.586048 0.729422 0.318272
0.603626 0.730764 0.319614
0.621205 0.732107 0.320957
0.638783 0.733449 0.322299
0.656361 0.734791 0.323641
0.673940 0.736134 0.324984
0.691518 0.737476 0.326326
0.709097 0.738819 0.327669
0.726675 0.740161 0.329011
0.744253 0.741503 0.330353
0.761832 0.742846 0.331696
0.779410 0.744188 0.333038
0.796988 0.745530 0.334380
0.814567 0.746873 0.335723
0.832145 0.748215 0.337065
0.849723 0.749557 0.338407
0.867302 0.750900 0.339750
0.309310 0.728696 0.301310
0.326888 0.730038 0.302652
0.344467 0.731381 0.303995
0.362045 0.732723 0.305337
0.379624 0.734066 0.306680
0.397202 0.735408 0.308022
0.414780 0.736750 0.309364
0.432359 0.738093 0.310707
0.449937 0.739435 0.312049
0.467515 0.740777 0.313391
0.485094 0.742120 0.314734
0.502672 0.743462 0.316076
0.520250 0.744804 0.317418
0.537829 0.746147 0.318761
0.555407 0.747489 0.320103
0.572985 0.748831 0.321445
0.590564 0.750174 0.322788
0.608142 0.751516 0.324130
0.625721 0.752859 0.325473
0.643299 0.754201 0.326815
0.660877 0.755543 0.328157
0.678456 0.756886 0.329500
0.696034 0.758228 0.330842
0.713612 0.759570 0.332184
0.731191 0.760913 0.333527
0.748769 0.762255 0.334869
0.766347 0.763597 0.336211
