fexer/Resources/LUTs/fuji_provia_100.cube
TITLE "Provia 100"
LUT_3D_SIZE 9
DOMAIN_MIN 0.0 0.0 0.0
DOMAIN_MAX 1.0 1.0 1.0
0.017400 0.011900 0.001400
0.140382 0.012431 0.001931
0.263365 0.012963 0.002463
0.386347 0.013494 0.002994
0.509329 0.014025 0.003525
0.632311 0.014556 0.004056
0.755294 0.015088 0.004588
0.878276 0.015619 0.005119
1.000000 0.016150 0.005650
0.019187 0.136138 0.003187
0.142170 0.136670 0.003719
0.265152 0.137201 0.004250
0.388134 0.137732 0.004781
0.511116 0.138263 0.005312
0.634099 0.138795 0.005844
0.757081 0.139326 0.006375
0.880063 0.139857 0.006906
1.000000 0.140389 0.007438
0.020975 0.260377 0.004975
0.143957 0.260908 0.005506
0.266939 0.261439 0.006037
0.389921 0.261970 0.006568
0.512904 0.262502 0.007100
0.635886 0.263033 0.007631
0.758868 0.263564 0.008162
0.881851 0.264096 0.008694
1.000000 0.264627 0.009225
0.022762 0.384615 0.006762
0.145744 0.385146 0.007293
0.268726 0.385677 0.007824
0.391709 0.386209 0.008356
0.514691 0.386740 0.008887
0.637673 0.387271 0.009418
0.760656 0.387803 0.009950
0.883638 0.388334 0.010481
1.000000 0.388865 0.011012
0.024549 0.508853 0.008549
0.147531 0.509384 0.009080
0.270514 0.509916 0.009612
0.393496 0.510447 0.010143
0.516478 0.510978 0.010674
0.639461 0.511510 0.011206
0.762443 0.512041 0.011737
0.885425 0.512572 0.012268
1.000000 0.513103 0.012799
0.026336 0.633091 0.010336
0.149319 0.633623 0.010868
0.272301 0.634154 0.011399
0.395283 0.634685 0.011930
0.518266 0.635217 0.012462
0.641248 0.635748 0.012993
0.764230 0.636279 0.013524
0.887212 0.636810 0.014055
1.000000 0.637342 0.014587
0.028124 0.757330 0.012124
0.151106 0.757861 0.012655
0.274088 0.758392 0.013186
0.397071 0.758924 0.013718
0.520053 0.759455 0.014249
0.643035 0.759986 0.014780
0.766017 0.760517 0.015311
0.889000 0.761049 0.015843
1.000000 0.761580 0.016374
0.029911 0.881568 0.013911
0.152893 0.882099 0.014442
0.275876 0.882631 0.014974
0.398858 0.883162 0.015505
0.521840 0.883693 0.016036
0.644822 0.884224 0.016567
0.767805 0.884756 0.017099
0.890787 0.885287 0.017630
1.000000 0.885818 0.018161
0.031698 1.000000 0.015698
0.154681 1.000000 0.016230
0.277663 1.000000 0.016761
0.400645 1.000000 0.017292
0.523627 1.000000 0.017823
0.646610 1.000000 0.018355
0.769592 1.000000 0.018886
0.892574 1.000000 0.019417
1.000000 1.000000 0.019949
0.017580 0.012080 0.124031
0.140563 0.012612 0.124563
0.263545 0.013143 0.125094
0.386527 0.013674 0.125625
0.509510 0.014206 0.126157
0.632492 0.014737 0.126688
0.755474 0.015268 0.127219
0.878456 0.015799 0.127750
1.000000 0.016331 0.128282
0.019368 0.136319 0.125819
0.142350 0.136850 0.126350
0.265332 0.137381 0.126881
0.388315 0.137913 0.127413
0.511297 0.138444 0.127944
0.634279 0.138975 0.128475
0.757261 0.139506 0.129006
0.880244 0.140038 0.129538
1.000000 0.140569 0.130069
0.021155 0.260557 0.127606
0.144137 0.261088 0.128137
0.267120 0.261620 0.128669
0.390102 0.262151 0.129200
0.513084 0.262682 0.129731
0.636066 0.263213 0.130262
0.759049 0.263745 0.130794
0.882031 0.264276 0.131325
1.000000 0.264807 0.131856
0.022942 0.384795 0.129393
0.145925 0.385327 0.129925
0.268907 0.385858 0.130456
0.391889 0.386389 0.130987
0.514871 0.386920 0.131518
0.637854 0.387452 0.132050
0.760836 0.387983 0.132581
0.883818 0.388514 0.133112
1.000000 0.389046 0.133644
0.024730 0.509034 0.131181
0.147712 0.509565 0.131712
0.270694 0.510096 0.132243
0.393676 0.510627 0.132774
0.516659 0.511159 0.133306
0.639641 0.511690 0.133837
0.762623 0.512221 0.134368
0.885606 0.512753 0.134900
1.000000 0.513284 0.135431
0.026517 0.633272 0.132968
0.149499 0.633803 0.133499
0.272481 0.634334 0.134030
0.395464 0.634866 0.134562
0.518446 0.635397 0.135093
0.641428 0.635928 0.135624
0.764411 0.636460 0.136156
0.887393 0.636991 0.136687
1.000000 0.637522 0.137218
0.028304 0.757510 0.134755
0.151286 0.758041 0.135286
0.274269 0.758573 0.135818
0.397251 0.759104 0.136349
0.520233 0.759635 0.136880
0.643216 0.760167 0.137412
0.766198 0.760698 0.137943
0.889180 0.761229 0.138474
1.000000 0.761760 0.139005
0.030091 0.881748 0.136542
0.153074 0.882280 0.137074
0.276056 0.882811 0.137605
0.399038 0.883342 0.138136
0.522021 0.883874 0.138668
0.645003 0.884405 0.139199
0.767985 0.884936 0.139730
0.890967 0.885467 0.140261
1.000000 0.885999 0.140793
0.031879 1.000000 0.138330
0.154861 1.000000 0.138861
0.277843 1.000000 0.139392
0.400826 1.000000 0.139924
0.523808 1.000000 0.140455
0.646790 1.000000 0.140986
0.769772 1.000000 0.141517
0.892755 1.000000 0.142049
1.000000 1.000000 0.142580
0.017761 0.012261 0.246663
0.140743 0.012792 0.247194
0.263725 0.013323 0.247725
0.386708 0.013855 0.248257
0.509690 0.014386 0.248788
0.632672 0.014917 0.249319
0.755655 0.015449 0.249851
0.878637 0.015980 0.250382
1.000000 0.016511 0.250913
0.019548 0.136499 0.248450
0.142530 0.137030 0.248981
0.265513 0.137562 0.249513
0.388495 0.138093 0.250044
0.511477 0.138624 0.250575
0.634460 0.139156 0.251107
0.757442 0.139687 0.251638
0.880424 0.140218 0.252169
1.000000 0.140749 0.252700
0.021335 0.260737 0.250237
0.144318 0.261269 0.250769
0.267300 0.261800 0.251300
0.390282 0.262331 0.251831
0.513265 0.262863 0.252363
0.636247 0.263394 0.252894
0.759229 0.263925 0.253425
0.882211 0.264456 0.253956
1.000000 0.264988 0.254488
0.023123 0.384976 0.252025
0.146105 0.385507 0.252556
0.269087 0.386038 0.253087
0.392070 0.386570 0.253619
0.515052 0.387101 0.254150
0.638034 0.387632 0.254681
0.761016 0.388163 0.255212
0.883999 0.388695 0.255744
1.000000 0.389226 0.256275
0.024910 0.509214 0.253812
0.147892 0.509745 0.254343
0.270875 0.510277 0.254875
0.393857 0.510808 0.255406
0.516839 0.511339 0.255937
0.639821 0.511870 0.256468
0.762804 0.512402 0.257000
0.885786 0.512933 0.257531
1.000000 0.513464 0.258062
0.026697 0.633452 0.255599
0.149680 0.633984 0.256131
0.272662 0.634515 0.256662
0.395644 0.635046 0.257193
0.518626 0.635577 0.257724
0.641609 0.636109 0.258256
0.764591 0.636640 0.258787
0.887573 0.637171 0.259318
1.000000 0.637703 0.259850
0.028485 0.757691 0.257387
0.151467 0.758222 0.257918
0.274449 0.758753 0.258449
0.397431 0.759284 0.258980
0.520414 0.759816 0.259512
0.643396 0.760347 0.260043
0.766378 0.760878 0.260574
0.889361 0.761410 0.261106
1.000000 0.761941 0.261637
0.030272 0.881929 0.259174
0.153254 0.882460 0.259705
0.276236 0.882991 0.260236
0.399219 0.883523 0.260768
0.522201 0.884054 0.261299
0.645183 0.884585 0.261830
0.768166 0.885117 0.262362
0.891148 0.885648 0.262893
1.000000 0.886179 0.263424
0.032059 1.000000 0.260961
0.155041 1.000000 0.261492
0.278024 1.000000 0.262024
0.401006 1.000000 0.262555
0.523988 1.000000 0.263086
0.646971 1.000000 0.263618
0.769953 1.000000 0.264149
0.892935 1.000000 0.264680
1.000000 1.000000 0.265211
0.017941 0.012441 0.369294
0.140924 0.012973 0.369826
0.263906 0.013504 0.370357
0.386888 0.014035 0.370888
0.509870 0.014566 0.371419
0.632853 0.015098 0.371951
0.755835 0.015629 0.372482
0.878817 0.016160 0.373013
1.000000 0.016692 0.373545
0.019729 0.136680 0.371082
0.142711 0.137211 0.371613
0.265693 0.137742 0.372144
0.388675 0.138273 0.372675
0.511658 0.138805 0.373207
0.634640 0.139336 0.373738
0.757622 0.139867 0.374269
0.880605 0.140399 0.374801
1.000000 0.140930 0.375332
0.021516 0.260918 0.372869
0.144498 0.261449 0.373400
0.267480 0.261980 0.373931
0.390463 0.262512 0.374463
0.513445 0.263043 0.374994
0.636427 0.263574 0.375525
0.759410 0.264106 0.376057
0.882392 0.264637 0.376588
1.000000 0.265168 0.377119
0.023303 0.385156 0.374656
0.146285 0.385687 0.375187
0.269268 0.386219 0.375719
0.392250 0.386750 0.376250
0.515232 0.387281 0.376781
0.638215 0.387813 0.377313
0.761197 0.388344 0.377844
0.884179 0.388875 0.378375
1.000000 0.389406 0.378906
0.025090 0.509394 0.376443
0.148073 0.509926 0.376975
0.271055 0.510457 0.377506
0.394037 0.510988 0.378037
0.517020 0.511520 0.378569
0.640002 0.512051 0.379100
0.762984 0.512582 0.379631
0.885966 0.513113 0.380162
1.000000 0.513645 0.380694
0.026878 0.633633 0.378231
0.149860 0.634164 0.378762
0.272842 0.634695 0.379293
0.395825 0.635227 0.379825
0.518807 0.635758 0.380356
0.641789 0.636289 0.380887
0.764771 0.636820 0.381418
0.887754 0.637352 0.381950
1.000000 0.637883 0.382481
0.028665 0.757871 0.380018
0.151647 0.758402 0.380549
0.274630 0.758934 0.381081
0.397612 0.759465 0.381612
0.520594 0.759996 0.382143
0.643576 0.760527 0.382674
0.766559 0.761059 0.383206
0.889541 0.761590 0.383737
1.000000 0.762121 0.384268
0.030452 0.882109 0.381805
0.153435 0.882641 0.382337
0.276417 0.883172 0.382868
0.399399 0.883703 0.383399
0.522381 0.884234 0.383930
0.645364 0.884766 0.384462
0.768346 0.885297 0.384993
0.891328 0.885828 0.385524
1.000000 0.886360 0.386056
0.032240 1.000000 0.383593
0.155222 1.000000 0.384124
0.278204 1.000000 0.384655
0.401186 1.000000 0.385186
0.524169 1.000000 0.385718
0.647151 1.000000 0.386249
0.770133 1.000000 0.386780
0.893116 1.000000 0.387312
1.000000 1.000000 0.387843
0.018122 0.012622 0.491926
0.141104 0.013153 0.492457
0.264086 0.013684 0.492988
0.387069 0.014216 0.493520
0.510051 0.014747 0.494051
0.633033 0.015278 0.494582
0.756015 0.015809 0.495113
0.878998 0.016341 0.495645
1.000000 0.016872 0.496176
0.019909 0.136860 0.493713
0.142891 0.137391 0.494244
0.265874 0.137923 0.494776
0.388856 0.138454 0.495307
0.511838 0.138985 0.495838
0.634820 0.139516 0.496369
0.757803 0.140048 0.496901
0.880785 0.140579 0.497432
1.000000 0.141110 0.497963
0.021696 0.261098 0.495500
0.144679 0.261630 0.496032
0.267661 0.262161 0.496563
0.390643 0.262692 0.497094
0.513625 0.263223 0.497625
0.636608 0.263755 0.498157
0.759590 0.264286 0.498688
0.882572 0.264817 0.499219
1.000000 0.265349 0.499751
0.023484 0.385337 0.497288
0.146466 0.385868 0.497819
0.269448 0.386399 0.498350
0.392430 0.386930 0.498881
0.515413 0.387462 0.499413
0.638395 0.387993 0.499944
0.761377 0.388524 0.500475
0.884360 0.389056 0.501007
1.000000 0.389587 0.501538
0.025271 0.509575 0.499075
0.148253 0.510106 0.499606
0.271235 0.510637 0.500137
0.394218 0.511169 0.500669
0.517200 0.511700 0.501200
0.640182 0.512231 0.501731
0.763165 0.512763 0.502263
0.886147 0.513294 0.502794
1.000000 0.513825 0.503325
0.027058 0.633813 0.500862
0.150040 0.634344 0.501393
0.273023 0.634876 0.501925
0.396005 0.635407 0.502456
0.518987 0.635938 0.502987
0.641970 0.636470 0.503519
0.764952 0.637001 0.504050
0.887934 0.637532 0.504581
1.000000 0.638063 0.505112
0.028845 0.758051 0.502649
0.151828 0.758583 0.503181
0.274810 0.759114 0.503712
0.397792 0.759645 0.504243
0.520775 0.760177 0.504775
0.643757 0.760708 0.505306
0.766739 0.761239 0.505837
0.889721 0.761770 0.506368
1.000000 0.762302 0.506900
0.030633 0.882290 0.504437
0.153615 0.882821 0.504968
0.276597 0.883352 0.505499
0.399580 0.883884 0.506031
0.522562 0.884415 0.506562
0.645544 0.884946 0.507093
0.768526 0.885477 0.507624
0.891509 0.886009 0.508156
1.000000 0.886540 0.508687
0.032420 1.000000 0.506224
0.155402 1.000000 0.506755
0.278385 1.000000 0.507287
0.401367 1.000000 0.507818
0.524349 1.000000 0.508349
0.647331 1.000000 0.508880
0.770314 1.000000 0.509412
0.893296 1.000000 0.509943
1.000000 1.000000 0.510474
0.018302 0.012802 0.614557
0.141284 0.013333 0.615088
0.264267 0.013865 0.615620
0.387249 0.014396 0.616151
0.510231 0.014927 0.616682
0.633214 0.015459 0.617214
0.756196 0.015990 0.617745
0.879178 0.016521 0.618276
1.000000 0.017052 0.618807
0.020089 0.137040 0.616344
0.143072 0.137572 0.616876
0.266054 0.138103 0.617407
0.389036 0.138634 0.617938
0.512019 0.139166 0.618470
0.635001 0.139697 0.619001
0.757983 0.140228 0.619532
0.880965 0.140759 0.620063
1.000000 0.141291 0.620595
0.021877 0.261279 0.618132
0.144859 0.261810 0.618663
0.267841 0.262341 0.619194
0.390824 0.262873 0.619726
0.513806 0.263404 0.620257
0.636788 0.263935 0.620788
0.759770 0.264466 0.621319
0.882753 0.264998 0.621851
1.000000 0.265529 0.622382
0.023664 0.385517 0.619919
0.146646 0.386048 0.620450
0.269629 0.386580 0.620982
0.392611 0.387111 0.621513
0.515593 0.387642 0.622044
0.638575 0.388173 0.622575
0.761558 0.388705 0.623107
0.884540 0.389236 0.623638
1.000000 0.389767 0.624169
0.025451 0.509755 0.621706
0.148434 0.510287 0.622238
0.271416 0.510818 0.622769
0.394398 0.511349 0.623300
0.517380 0.511880 0.623831
0.640363 0.512412 0.624363
0.763345 0.512943 0.624894
0.886327 0.513474 0.625425
1.000000 0.514006 0.625957
0.027239 0.633994 0.623494
0.150221 0.634525 0.624025
0.273203 0.635056 0.624556
0.396185 0.635587 0.625087
0.519168 0.636119 0.625619
0.642150 0.636650 0.626150
0.765132 0.637181 0.626681
0.888115 0.637713 0.627213
1.000000 0.638244 0.627744
0.029026 0.758232 0.625281
0.152008 0.758763 0.625812
0.274990 0.759294 0.626343
0.397973 0.759826 0.626875
0.520955 0.760357 0.627406
0.643937 0.760888 0.627937
0.766920 0.761420 0.628469
0.889902 0.761951 0.629000
1.000000 0.762482 0.629531
0.030813 0.882470 0.627068
0.153795 0.883001 0.627599
0.276778 0.883533 0.628131
0.399760 0.884064 0.628662
0.522742 0.884595 0.629193
0.645725 0.885127 0.629725
0.768707 0.885658 0.630256
0.891689 0.886189 0.630787
1.000000 0.886720 0.631318
0.032600 1.000000 0.628855
0.155583 1.000000 0.629387
0.278565 1.000000 0.629918
0.401547 1.000000 0.630449
0.524530 1.000000 0.630981
0.647512 1.000000 0.631512
0.770494 1.000000 0.632043
0.893476 1.000000 0.632574
1.000000 1.000000 0.633106
0.018483 0.012983 0.737189
0.141465 0.013514 0.737720
0.264447 0.014045 0.738251
0.387429 0.014576 0.738782
0.510412 0.015108 0.739314
0.633394 0.015639 0.739845
0.756376 0.016170 0.740376
0.879359 0.016702 0.740908
1.000000 0.017233 0.741439
0.020270 0.137221 0.738976
0.143252 0.137752 0.739507
0.266234 0.138283 0.740038
0.389217 0.138815 0.740570
0.512199 0.139346 0.741101
0.635181 0.139877 0.741632
0.758164 0.140409 0.742164
0.881146 0.140940 0.742695
1.000000 0.141471 0.743226
0.022057 0.261459 0.740763
0.145039 0.261990 0.741294
0.268022 0.262522 0.741826
0.391004 0.263053 0.742357
0.513986 0.263584 0.742888
0.636969 0.264116 0.743420
0.759951 0.264647 0.743951
0.882933 0.265178 0.744482
1.000000 0.265709 0.745013
0.023844 0.385697 0.742550
0.146827 0.386229 0.743082
0.269809 0.386760 0.743613
0.392791 0.387291 0.744144
0.515774 0.387823 0.744676
0.638756 0.388354 0.745207
0.761738 0.388885 0.745738
0.884720 0.389416 0.746269
1.000000 0.389948 0.746801
0.025632 0.509936 0.744338
0.148614 0.510467 0.744869
0.271596 0.510998 0.745400
0.394579 0.511530 0.745932
0.517561 0.512061 0.746463
0.640543 0.512592 0.746994
0.763525 0.513123 0.747525
0.886508 0.513655 0.748057
1.000000 0.514186 0.748588
0.027419 0.634174 0.746125
0.150401 0.634705 0.746656
0.273384 0.635237 0.747188
0.396366 0.635768 0.747719
0.519348 0.636299 0.748250
0.642330 0.636830 0.748781
0.765313 0.637362 0.749313
0.888295 0.637893 0.749844
1.000000 0.638424 0.750375
0.029206 0.758412 0.747912
0.152189 0.758944 0.748444
0.275171 0.759475 0.748975
0.398153 0.760006 0.749506
0.521135 0.760537 0.750037
0.644118 0.761069 0.750569
0.767100 0.761600 0.751100
0.890082 0.762131 0.751631
1.000000 0.762663 0.752163
0.030994 0.882651 0.749700
0.153976 0.883182 0.750231
0.276958 0.883713 0.750762
0.399940 0.884244 0.751293
0.522923 0.884776 0.751825
0.645905 0.885307 0.752356
0.768887 0.885838 0.752887
0.891870 0.886370 0.753419
1.000000 0.886901 0.753950
0.032781 1.000000 0.751487
0.155763 1.000000 0.752018
0.278745 1.000000 0.752549
0.401728 1.000000 0.753081
0.524710 1.000000 0.753612
0.647692 1.000000 0.754143
0.770675 1.000000 0.754675
0.893657 1.000000 0.755206
1.000000 1.000000 0.755737
0.018663 0.013163 0.859820
0.141645 0.013694 0.860351
0.264628 0.014226 0.860883
0.387610 0.014757 0.861414
0.510592 0.015288 0.861945
0.633574 0.015819 0.862476
0.756557 0.016351 0.863008
0.879539 0.016882 0.863539
1.000000 0.017413 0.864070
0.020450 0.137401 0.861607
0.143433 0.137933 0.862139
0.266415 0.138464 0.862670
0.389397 0.138995 0.863201
0.512379 0.139526 0.863732
0.635362 0.140058 0.864264
0.758344 0.140589 0.864795
0.881326 0.141120 0.865326
1.000000 0.141652 0.865858
0.022238 0.261640 0.863395
0.145220 0.262171 0.863926
0.268202 0.262702 0.864457
0.391184 0.263233 0.864988
0.514167 0.263765 0.865520
0.637149 0.264296 0.866051
0.760131 0.264827 0.866582
0.883114 0.265359 0.867114
1.000000 0.265890 0.867645
0.024025 0.385878 0.865182
0.147007 0.386409 0.865713
0.269989 0.386940 0.866244
0.392972 0.387472 0.866776
0.515954 0.388003 0.867307
0.638936 0.388534 0.867838
0.761919 0.389066 0.868370
0.884901 0.389597 0.868901
1.000000 0.390128 0.869432
0.025812 0.510116 0.866969
0.148794 0.510647 0.867500
0.271777 0.511179 0.868032
0.394759 0.511710 0.868563
0.517741 0.512241 0.869094
0.640724 0.512773 0.869626
0.763706 0.513304 0.870157
0.886688 0.513835 0.870688
1.000000 0.514366 0.871219
0.027599 0.634354 0.868756
0.150582 0.634886 0.869288
0.273564 0.635417 0.869819
0.396546 0.635948 0.870350
0.519529 0.636480 0.870882
0.642511 0.637011 0.871413
0.765493 0.637542 0.871944
0.888475 0.638073 0.872475
1.000000 0.638605 0.873007
0.029387 0.758593 0.870544
0.152369 0.759124 0.871075
0.275351 0.759655 0.871606
0.398334 0.760187 0.872138
0.521316 0.760718 0.872669
0.644298 0.761249 0.873200
0.767280 0.761780 0.873731
0.890263 0.762312 0.874263
1.000000 0.762843 0.874794
0.031174 0.882831 0.872331
0.154156 0.883362 0.872862
0.277139 0.883894 0.873394
0.400121 0.884425 0.873925
0.523103 0.884956 0.874456
0.646085 0.885487 0.874987
0.769068 0.886019 0.875519
0.892050 0.886550 0.876050
1.000000 0.887081 0.876581
0.032961 1.000000 0.874118
0.155944 1.000000 0.874650
0.278926 1.000000 0.875181
0.401908 1.000000 0.875712
0.524890 1.000000 0.876243
0.647873 1.000000 0.876775
0.770855 1.000000 0.877306
0.893837 1.000000 0.877837
1.000000 1.000000 0.878369
0.018843 0.013343 0.982451
0.141826 0.013875 0.982983
0.264808 0.014406 0.983514
0.387790 0.014937 0.984045
0.510773 0.015469 0.984577
0.633755 0.016000 0.985108
0.756737 0.016531 0.985639
0.879719 0.017062 0.986170
1.000000 0.017594 0.986702
0.020631 0.137582 0.984239
0.143613 0.138113 0.984770
0.266595 0.138644 0.985301
0.389578 0.139176 0.985833
0.512560 0.139707 0.986364
0.635542 0.140238 0.986895
0.758524 0.140769 0.987426
0.881507 0.141301 0.987958
1.000000 0.141832 0.988489
0.022418 0.261820 0.986026
0.145400 0.262351 0.986557
0.268383 0.262883 0.987089
0.391365 0.263414 0.987620
0.514347 0.263945 0.988151
0.637329 0.264476 0.988682
0.760312 0.265008 0.989214
0.883294 0.265539 0.989745
1.000000 0.266070 0.990276
0.024205 0.386058 0.987813
0.147188 0.386590 0.988345
0.270170 0.387121 0.988876
0.393152 0.387652 0.989407
0.516134 0.388183 0.989938
0.639117 0.388715 0.990470
0.762099 0.389246 0.991001
0.885081 0.389777 0.991532
1.000000 0.390309 0.992064
0.025993 0.510297 0.989601
0.148975 0.510828 0.990132
0.271957 0.511359 0.990663
0.394939 0.511890 0.991194
0.517922 0.512422 0.991726
0.640904 0.512953 0.992257
0.763886 0.513484 0.992788
0.886869 0.514016 0.993320
1.000000 0.514547 0.993851
0.027780 0.634535 0.991388
0.150762 0.635066 0.991919
0.273744 0.635597 0.992450
0.396727 0.636129 0.992982
0.519709 0.636660 0.993513
0.642691 0.637191 0.994044
0.765674 0.637723 0.994576
0.888656 0.638254 0.995107
1.000000 0.638785 0.995638
0.029567 0.758773 0.993175
0.152549 0.759304 0.993706
0.275532 0.759836 0.994238
0.398514 0.760367 0.994769
0.521496 0.760898 0.995300
0.644479 0.761430 0.995832
0.767461 0.761961 0.996363
0.890443 0.762492 0.996894
1.000000 0.763023 0.997425
0.031354 0.883011 0.994962
0.154337 0.883543 0.995494
0.277319 0.884074 0.996025
0.400301 0.884605 0.996556
0.523284 0.885137 0.997088
0.646266 0.885668 0.997619
0.769248 0.886199 0.998150
0.892230 0.886730 0.998681
1.000000 0.887262 0.999213
0.033142 1.000000 0.996750
0.156124 1.000000 0.997281
0.279106 1.000000 0.997812
0.402089 1.000000 0.998344
0.525071 1.000000 0.998875
0.648053 1.000000 0.999406
0.771035 1.000000 0.999937
0.894018 1.000000 1.000000
1.000000 1.000000 1.000000
