fexer/Resources/LUTs/fuji_provia_100.cube
TITLE "Provia 100"
LUT_3D_SIZE 33
DOMAIN_MIN 0.0 0.0 0.0
DOMAIN_MAX 1.0 1.0 1.0
0.017400 0.011900 0.001400
0.048146 0.012033 0.001533
0.078891 0.012166 0.001666
0.109637 0.012298 0.001798
0.140382 0.012431 0.001931
0.171128 0.012564 0.002064
0.201873 0.012697 0.002197
0.232619 0.012830 0.002330
0.263365 0.012963 0.002463
0.294110 0.013095 0.002595
0.324856 0.013228 0.002728
0.355601 0.013361 0.002861
0.386347 0.013494 0.002994
0.417092 0.013627 0.003127
0.447838 0.013760 0.003260
0.478584 0.013892 0.003392
0.509329 0.014025 0.003525
0.540075 0.014158 0.003658
0.570820 0.014291 0.003791
0.601566 0.014424 0.003924
0.632311 0.014556 0.004056
0.663057 0.014689 0.004189
0.693803 0.014822 0.004322
0.724548 0.014955 0.004455
0.755294 0.015088 0.004588
0.786039 0.015221 0.004721
0.816785 0.015353 0.004853
0.847530 0.015486 0.004986
0.878276 0.015619 0.005119
0.909022 0.015752 0.005252
0.939767 0.015885 0.005385
0.970513 0.016017 0.005517
1.000000 0.016150 0.005650
0.017847 0.042960 0.001847
0.048592 0.043092 0.001980
0.079338 0.043225 0.002112
0.110084 0.043358 0.002245
0.140829 0.043491 0.002378
0.171575 0.043624 0.002511
0.202320 0.043757 0.002644
0.233066 0.043889 0.002777
0.263811 0.044022 0.002909
0.294557 0.044155 0.003042
0.325303 0.044288 0.003175
0.356048 0.044421 0.003308
0.386794 0.044553 0.003441
0.417539 0.044686 0.003574
0.448285 0.044819 0.003706
0.479030 0.044952 0.003839
0.509776 0.045085 0.003972
0.540522 0.045218 0.004105
0.571267 0.045350 0.004238
0.602013 0.045483 0.004370
0.632758 0.045616 0.004503
0.663504 0.045749 0.004636
0.694249 0.045882 0.004769
0.724995 0.046014 0.004902
0.755741 0.046147 0.005035
0.786486 0.046280 0.005167
0.817232 0.046413 0.005300
0.847977 0.046546 0.005433
0.878723 0.046679 0.005566
0.909468 0.046811 0.005699
0.940214 0.046944 0.005831
0.970960 0.047077 0.005964
1.000000 0.047210 0.006097
0.018294 0.074019 0.002294
0.049039 0.074152 0.002426
0.079785 0.074285 0.002559
0.110530 0.074418 0.002692
0.141276 0.074550 0.002825
0.172022 0.074683 0.002958
0.202767 0.074816 0.003091
0.233513 0.074949 0.003223
0.264258 0.075082 0.003356
0.295004 0.075215 0.003489
0.325749 0.075347 0.003622
0.356495 0.075480 0.003755
0.387241 0.075613 0.003888
0.417986 0.075746 0.004020
0.448732 0.075879 0.004153
0.479477 0.076011 0.004286
0.510223 0.076144 0.004419
0.540968 0.076277 0.004552
0.571714 0.076410 0.004684
0.602460 0.076543 0.004817
0.633205 0.076676 0.004950
0.663951 0.076808 0.005083
0.694696 0.076941 0.005216
0.725442 0.077074 0.005349
0.756187 0.077207 0.005481
0.786933 0.077340 0.005614
0.817679 0.077473 0.005747
0.848424 0.077605 0.005880
0.879170 0.077738 0.006013
0.909915 0.077871 0.006145
0.940661 0.078004 0.006278
0.971406 0.078137 0.006411
1.000000 0.078269 0.006544
0.018740 0.105079 0.002740
0.049486 0.105212 0.002873
0.080232 0.105344 0.003006
0.110977 0.105477 0.003139
0.141723 0.105610 0.003272
0.172468 0.105743 0.003405
0.203214 0.105876 0.003537
0.233959 0.106008 0.003670
0.264705 0.106141 0.003803
0.295451 0.106274 0.003936
0.326196 0.106407 0.004069
0.356942 0.106540 0.004202
0.387687 0.106673 0.004334
0.418433 0.106805 0.004467
0.449178 0.106938 0.004600
0.479924 0.107071 0.004733
0.510670 0.107204 0.004866
0.541415 0.107337 0.004998
0.572161 0.107470 0.005131
0.602906 0.107602 0.005264
0.633652 0.107735 0.005397
0.664397 0.107868 0.005530
0.695143 0.108001 0.005663
0.725889 0.108134 0.005795
0.756634 0.108266 0.005928
0.787380 0.108399 0.006061
0.818125 0.108532 0.006194
0.848871 0.108665 0.006327
0.879616 0.108798 0.006459
0.910362 0.108931 0.006592
0.941108 0.109063 0.006725
0.971853 0.109196 0.006858
1.000000 0.109329 0.006991
0.019187 0.136138 0.003187
0.049933 0.136271 0.003320
0.080678 0.136404 0.003453
0.111424 0.136537 0.003586
0.142170 0.136670 0.003719
0.172915 0.136802 0.003851
0.203661 0.136935 0.003984
0.234406 0.137068 0.004117
0.265152 0.137201 0.004250
0.295897 0.137334 0.004383
0.326643 0.137467 0.004516
0.357389 0.137599 0.004648
0.388134 0.137732 0.004781
0.418880 0.137865 0.004914
0.449625 0.137998 0.005047
0.480371 0.138131 0.005180
0.511116 0.138263 0.005312
0.541862 0.138396 0.005445
0.572608 0.138529 0.005578
0.603353 0.138662 0.005711
0.634099 0.138795 0.005844
0.664844 0.138928 0.005977
0.695590 0.139060 0.006109
0.726335 0.139193 0.006242
0.757081 0.139326 0.006375
0.787827 0.139459 0.006508
0.818572 0.139592 0.006641
0.849318 0.139724 0.006773
0.880063 0.139857 0.006906
0.910809 0.139990 0.007039
0.941554 0.140123 0.007172
0.972300 0.140256 0.007305
1.000000 0.140389 0.007438
0.019634 0.167198 0.003634
0.050380 0.167331 0.003767
0.081125 0.167463 0.003900
0.111871 0.167596 0.004033
0.142616 0.167729 0.004165
0.173362 0.167862 0.004298
0.204108 0.167995 0.004431
0.234853 0.168128 0.004564
0.265599 0.168260 0.004697
0.296344 0.168393 0.004830
0.327090 0.168526 0.004962
0.357835 0.168659 0.005095
0.388581 0.168792 0.005228
0.419327 0.168925 0.005361
0.450072 0.169057 0.005494
0.480818 0.169190 0.005626
0.511563 0.169323 0.005759
0.542309 0.169456 0.005892
0.573054 0.169589 0.006025
0.603800 0.169721 0.006158
0.634546 0.169854 0.006291
0.665291 0.169987 0.006423
0.696037 0.170120 0.006556
0.726782 0.170253 0.006689
0.757528 0.170386 0.006822
0.788273 0.170518 0.006955
0.819019 0.170651 0.007087
0.849765 0.170784 0.007220
0.880510 0.170917 0.007353
0.911256 0.171050 0.007486
0.942001 0.171183 0.007619
0.972747 0.171315 0.007752
1.000000 0.171448 0.007884
0.020081 0.198257 0.004081
0.050826 0.198390 0.004214
0.081572 0.198523 0.004347
0.112318 0.198656 0.004479
0.143063 0.198789 0.004612
0.173809 0.198922 0.004745
0.204554 0.199054 0.004878
0.235300 0.199187 0.005011
0.266046 0.199320 0.005144
0.296791 0.199453 0.005276
0.327537 0.199586 0.005409
0.358282 0.199718 0.005542
0.389028 0.199851 0.005675
0.419773 0.199984 0.005808
0.450519 0.200117 0.005940
0.481265 0.200250 0.006073
0.512010 0.200383 0.006206
0.542756 0.200515 0.006339
0.573501 0.200648 0.006472
0.604247 0.200781 0.006605
0.634992 0.200914 0.006737
0.665738 0.201047 0.006870
0.696484 0.201180 0.007003
0.727229 0.201312 0.007136
0.757975 0.201445 0.007269
0.788720 0.201578 0.007401
0.819466 0.201711 0.007534
0.850211 0.201844 0.007667
0.880957 0.201976 0.007800
0.911703 0.202109 0.007933
0.942448 0.202242 0.008066
0.973194 0.202375 0.008198
1.000000 0.202508 0.008331
0.020528 0.229317 0.004528
0.051273 0.229450 0.004661
0.082019 0.229583 0.004793
0.112764 0.229715 0.004926
0.143510 0.229848 0.005059
0.174256 0.229981 0.005192
0.205001 0.230114 0.005325
0.235747 0.230247 0.005458
0.266492 0.230380 0.005590
0.297238 0.230512 0.005723
0.327983 0.230645 0.005856
0.358729 0.230778 0.005989
0.389475 0.230911 0.006122
0.420220 0.231044 0.006254
0.450966 0.231177 0.006387
0.481711 0.231309 0.006520
0.512457 0.231442 0.006653
0.543202 0.231575 0.006786
0.573948 0.231708 0.006919
0.604694 0.231841 0.007051
0.635439 0.231973 0.007184
0.666185 0.232106 0.007317
0.696930 0.232239 0.007450
0.727676 0.232372 0.007583
0.758421 0.232505 0.007715
0.789167 0.232638 0.007848
0.819913 0.232770 0.007981
0.850658 0.232903 0.008114
0.881404 0.233036 0.008247
0.912149 0.233169 0.008380
0.942895 0.233302 0.008512
0.973640 0.233434 0.008645
1.000000 0.233567 0.008778
0.020975 0.260377 0.004975
0.051720 0.260509 0.005107
0.082466 0.260642 0.005240
0.113211 0.260775 0.005373
0.143957 0.260908 0.005506
0.174702 0.261041 0.005639
0.205448 0.261174 0.005772
0.236194 0.261306 0.005904
0.266939 0.261439 0.006037
0.297685 0.261572 0.006170
0.328430 0.261705 0.006303
0.359176 0.261838 0.006436
0.389921 0.261970 0.006568
0.420667 0.262103 0.006701
0.451413 0.262236 0.006834
0.482158 0.262369 0.006967
0.512904 0.262502 0.007100
0.543649 0.262635 0.007233
0.574395 0.262767 0.007365
0.605140 0.262900 0.007498
0.635886 0.263033 0.007631
0.666632 0.263166 0.007764
0.697377 0.263299 0.007897
0.728123 0.263431 0.008029
0.758868 0.263564 0.008162
0.789614 0.263697 0.008295
0.820359 0.263830 0.008428
0.851105 0.263963 0.008561
0.881851 0.264096 0.008694
0.912596 0.264228 0.008826
0.943342 0.264361 0.008959
0.974087 0.264494 0.009092
1.000000 0.264627 0.009225
0.021421 0.291436 0.005421
0.052167 0.291569 0.005554
0.082913 0.291702 0.005687
0.113658 0.291835 0.005820
0.144404 0.291967 0.005953
0.175149 0.292100 0.006086
0.205895 0.292233 0.006218
0.236640 0.292366 0.006351
0.267386 0.292499 0.006484
0.298132 0.292632 0.006617
0.328877 0.292764 0.006750
0.359623 0.292897 0.006882
0.390368 0.293030 0.007015
0.421114 0.293163 0.007148
0.451859 0.293296 0.007281
0.482605 0.293428 0.007414
0.513351 0.293561 0.007547
0.544096 0.293694 0.007679
0.574842 0.293827 0.007812
0.605587 0.293960 0.007945
0.636333 0.294093 0.008078
0.667078 0.294225 0.008211
0.697824 0.294358 0.008343
0.728570 0.294491 0.008476
0.759315 0.294624 0.008609
0.790061 0.294757 0.008742
0.820806 0.294890 0.008875
0.851552 0.295022 0.009008
0.882297 0.295155 0.009140
0.913043 0.295288 0.009273
0.943789 0.295421 0.009406
0.974534 0.295554 0.009539
1.000000 0.295686 0.009672
0.021868 0.322496 0.005868
0.052614 0.322629 0.006001
0.083359 0.322761 0.006134
0.114105 0.322894 0.006267
0.144850 0.323027 0.006399
0.175596 0.323160 0.006532
0.206342 0.323293 0.006665
0.237087 0.323425 0.006798
0.267833 0.323558 0.006931
0.298578 0.323691 0.007064
0.329324 0.323824 0.007196
0.360070 0.323957 0.007329
0.390815 0.324090 0.007462
0.421561 0.324222 0.007595
0.452306 0.324355 0.007728
0.483052 0.324488 0.007861
0.513797 0.324621 0.007993
0.544543 0.324754 0.008126
0.575289 0.324887 0.008259
0.606034 0.325019 0.008392
0.636780 0.325152 0.008525
0.667525 0.325285 0.008657
0.698271 0.325418 0.008790
0.729016 0.325551 0.008923
0.759762 0.325683 0.009056
0.790508 0.325816 0.009189
0.821253 0.325949 0.009322
0.851999 0.326082 0.009454
0.882744 0.326215 0.009587
0.913490 0.326348 0.009720
0.944235 0.326480 0.009853
0.974981 0.326613 0.009986
1.000000 0.326746 0.010119
0.022315 0.353555 0.006315
0.053061 0.353688 0.006448
0.083806 0.353821 0.006581
0.114552 0.353954 0.006713
0.145297 0.354087 0.006846
0.176043 0.354219 0.006979
0.206788 0.354352 0.007112
0.237534 0.354485 0.007245
0.268280 0.354618 0.007378
0.299025 0.354751 0.007510
0.329771 0.354884 0.007643
0.360516 0.355016 0.007776
0.391262 0.355149 0.007909
0.422007 0.355282 0.008042
0.452753 0.355415 0.008175
0.483499 0.355548 0.008307
0.514244 0.355680 0.008440
0.544990 0.355813 0.008573
0.575735 0.355946 0.008706
0.606481 0.356079 0.008839
0.637226 0.356212 0.008971
0.667972 0.356345 0.009104
0.698718 0.356477 0.009237
0.729463 0.356610 0.009370
0.760209 0.356743 0.009503
0.790954 0.356876 0.009636
0.821700 0.357009 0.009768
0.852445 0.357141 0.009901
0.883191 0.357274 0.010034
0.913937 0.357407 0.010167
0.944682 0.357540 0.010300
0.975428 0.357673 0.010433
1.000000 0.357806 0.010565
0.022762 0.384615 0.006762
0.053507 0.384748 0.006895
0.084253 0.384880 0.007027
0.114999 0.385013 0.007160
0.145744 0.385146 0.007293
0.176490 0.385279 0.007426
0.207235 0.385412 0.007559
0.237981 0.385545 0.007692
0.268726 0.385677 0.007824
0.299472 0.385810 0.007957
0.330218 0.385943 0.008090
0.360963 0.386076 0.008223
0.391709 0.386209 0.008356
0.422454 0.386342 0.008489
0.453200 0.386474 0.008621
0.483945 0.386607 0.008754
0.514691 0.386740 0.008887
0.545437 0.386873 0.009020
0.576182 0.387006 0.009153
0.606928 0.387138 0.009285
0.637673 0.387271 0.009418
0.668419 0.387404 0.009551
0.699164 0.387537 0.009684
0.729910 0.387670 0.009817
0.760656 0.387803 0.009950
0.791401 0.387935 0.010082
0.822147 0.388068 0.010215
0.852892 0.388201 0.010348
0.883638 0.388334 0.010481
0.914383 0.388467 0.010614
0.945129 0.388600 0.010747
0.975875 0.388732 0.010879
1.000000 0.388865 0.011012
0.023209 0.415674 0.007209
0.053954 0.415807 0.007341
0.084700 0.415940 0.007474
0.115445 0.416073 0.007607
0.146191 0.416206 0.007740
0.176937 0.416339 0.007873
0.207682 0.416471 0.008006
0.238428 0.416604 0.008138
0.269173 0.416737 0.008271
0.299919 0.416870 0.008404
0.330664 0.417003 0.008537
0.361410 0.417135 0.008670
0.392156 0.417268 0.008803
0.422901 0.417401 0.008935
0.453647 0.417534 0.009068
0.484392 0.417667 0.009201
0.515138 0.417800 0.009334
0.545883 0.417932 0.009467
0.576629 0.418065 0.009599
0.607375 0.418198 0.009732
0.638120 0.418331 0.009865
0.668866 0.418464 0.009998
0.699611 0.418597 0.010131
0.730357 0.418729 0.010264
0.761102 0.418862 0.010396
0.791848 0.418995 0.010529
0.822594 0.419128 0.010662
0.853339 0.419261 0.010795
0.884085 0.419393 0.010928
0.914830 0.419526 0.011061
0.945576 0.419659 0.011193
0.976321 0.419792 0.011326
1.000000 0.419925 0.011459
0.023655 0.446734 0.007655
0.054401 0.446867 0.007788
0.085147 0.447000 0.007921
0.115892 0.447132 0.008054
0.146638 0.447265 0.008187
0.177383 0.447398 0.008320
0.208129 0.447531 0.008452
0.238874 0.447664 0.008585
0.269620 0.447797 0.008718
0.300366 0.447929 0.008851
0.331111 0.448062 0.008984
0.361857 0.448195 0.009117
0.392602 0.448328 0.009249
0.423348 0.448461 0.009382
0.454094 0.448594 0.009515
0.484839 0.448726 0.009648
0.515585 0.448859 0.009781
0.546330 0.448992 0.009913
0.577076 0.449125 0.010046
0.607821 0.449258 0.010179
0.638567 0.449390 0.010312
0.669313 0.449523 0.010445
0.700058 0.449656 0.010578
0.730804 0.449789 0.010710
0.761549 0.449922 0.010843
0.792295 0.450055 0.010976
0.823040 0.450187 0.011109
0.853786 0.450320 0.011242
0.884532 0.450453 0.011375
0.915277 0.450586 0.011507
0.946023 0.450719 0.011640
0.976768 0.450851 0.011773
1.000000 0.450984 0.011906
0.024102 0.477794 0.008102
0.054848 0.477926 0.008235
0.085593 0.478059 0.008368
0.116339 0.478192 0.008501
0.147085 0.478325 0.008634
0.177830 0.478458 0.008766
0.208576 0.478590 0.008899
0.239321 0.478723 0.009032
0.270067 0.478856 0.009165
0.300812 0.478989 0.009298
0.331558 0.479122 0.009431
0.362304 0.479255 0.009563
0.393049 0.479387 0.009696
0.423795 0.479520 0.009829
0.454540 0.479653 0.009962
0.485286 0.479786 0.010095
0.516031 0.479919 0.010227
0.546777 0.480052 0.010360
0.577523 0.480184 0.010493
0.608268 0.480317 0.010626
0.639014 0.480450 0.010759
0.669759 0.480583 0.010892
0.700505 0.480716 0.011024
0.731250 0.480848 0.011157
0.761996 0.480981 0.011290
0.792742 0.481114 0.011423
0.823487 0.481247 0.011556
0.854233 0.481380 0.011689
0.884978 0.481513 0.011821
0.915724 0.481645 0.011954
0.946469 0.481778 0.012087
0.977215 0.481911 0.012220
1.000000 0.482044 0.012353
0.024549 0.508853 0.008549
0.055295 0.508986 0.008682
0.086040 0.509119 0.008815
0.116786 0.509252 0.008948
0.147531 0.509384 0.009080
0.178277 0.509517 0.009213
0.209023 0.509650 0.009346
0.239768 0.509783 0.009479
0.270514 0.509916 0.009612
0.301259 0.510049 0.009745
0.332005 0.510181 0.009877
0.362750 0.510314 0.010010
0.393496 0.510447 0.010143
0.424242 0.510580 0.010276
0.454987 0.510713 0.010409
0.485733 0.510845 0.010541
0.516478 0.510978 0.010674
0.547224 0.511111 0.010807
0.577969 0.511244 0.010940
0.608715 0.511377 0.011073
0.639461 0.511510 0.011206
0.670206 0.511642 0.011338
0.700952 0.511775 0.011471
0.731697 0.511908 0.011604
0.762443 0.512041 0.011737
0.793188 0.512174 0.011870
0.823934 0.512307 0.012003
0.854680 0.512439 0.012135
0.885425 0.512572 0.012268
0.916171 0.512705 0.012401
0.946916 0.512838 0.012534
0.977662 0.512971 0.012667
1.000000 0.513103 0.012799
0.024996 0.539913 0.008996
0.055742 0.540046 0.009129
0.086487 0.540178 0.009262
0.117233 0.540311 0.009394
0.147978 0.540444 0.009527
0.178724 0.540577 0.009660
0.209469 0.540710 0.009793
0.240215 0.540842 0.009926
0.270961 0.540975 0.010059
0.301706 0.541108 0.010191
0.332452 0.541241 0.010324
0.363197 0.541374 0.010457
0.393943 0.541507 0.010590
0.424688 0.541639 0.010723
0.455434 0.541772 0.010855
0.486180 0.541905 0.010988
0.516925 0.542038 0.011121
0.547671 0.542171 0.011254
0.578416 0.542304 0.011387
0.609162 0.542436 0.011520
0.639907 0.542569 0.011652
0.670653 0.542702 0.011785
0.701399 0.542835 0.011918
0.732144 0.542968 0.012051
0.762890 0.543100 0.012184
0.793635 0.543233 0.012317
0.824381 0.543366 0.012449
0.855126 0.543499 0.012582
0.885872 0.543632 0.012715
0.916618 0.543765 0.012848
0.947363 0.543897 0.012981
0.978109 0.544030 0.013113
1.000000 0.544163 0.013246
0.025443 0.570972 0.009443
0.056188 0.571105 0.009576
0.086934 0.571238 0.009708
0.117679 0.571371 0.009841
0.148425 0.571504 0.009974
0.179171 0.571636 0.010107
0.209916 0.571769 0.010240
0.240662 0.571902 0.010373
0.271407 0.572035 0.010505
0.302153 0.572168 0.010638
0.332899 0.572301 0.010771
0.363644 0.572433 0.010904
0.394390 0.572566 0.011037
0.425135 0.572699 0.011169
0.455881 0.572832 0.011302
0.486626 0.572965 0.011435
0.517372 0.573097 0.011568
0.548118 0.573230 0.011701
0.578863 0.573363 0.011834
0.609609 0.573496 0.011966
0.640354 0.573629 0.012099
0.671100 0.573762 0.012232
0.701845 0.573894 0.012365
0.732591 0.574027 0.012498
0.763337 0.574160 0.012631
0.794082 0.574293 0.012763
0.824828 0.574426 0.012896
0.855573 0.574558 0.013029
0.886319 0.574691 0.013162
0.917064 0.574824 0.013295
0.947810 0.574957 0.013427
0.978556 0.575090 0.013560
1.000000 0.575223 0.013693
0.025890 0.602032 0.009890
0.056635 0.602165 0.010022
0.087381 0.602297 0.010155
0.118126 0.602430 0.010288
0.148872 0.602563 0.010421
0.179617 0.602696 0.010554
0.210363 0.602829 0.010687
0.241109 0.602962 0.010819
0.271854 0.603094 0.010952
0.302600 0.603227 0.011085
0.333345 0.603360 0.011218
0.364091 0.603493 0.011351
0.394836 0.603626 0.011483
0.425582 0.603759 0.011616
0.456328 0.603891 0.011749
0.487073 0.604024 0.011882
0.517819 0.604157 0.012015
0.548564 0.604290 0.012148
0.579310 0.604423 0.012280
0.610055 0.604555 0.012413
0.640801 0.604688 0.012546
0.671547 0.604821 0.012679
0.702292 0.604954 0.012812
0.733038 0.605087 0.012945
0.763783 0.605220 0.013077
0.794529 0.605352 0.013210
0.825274 0.605485 0.013343
0.856020 0.605618 0.013476
0.886766 0.605751 0.013609
0.917511 0.605884 0.013741
0.948257 0.606017 0.013874
0.979002 0.606149 0.014007
1.000000 0.606282 0.014140
0.026336 0.633091 0.010336
0.057082 0.633224 0.010469
0.087828 0.633357 0.010602
0.118573 0.633490 0.010735
0.149319 0.633623 0.010868
0.180064 0.633756 0.011001
0.210810 0.633888 0.011133
0.241555 0.634021 0.011266
0.272301 0.634154 0.011399
0.303047 0.634287 0.011532
0.333792 0.634420 0.011665
0.364538 0.634552 0.011797
0.395283 0.634685 0.011930
0.426029 0.634818 0.012063
0.456774 0.634951 0.012196
0.487520 0.635084 0.012329
0.518266 0.635217 0.012462
0.549011 0.635349 0.012594
0.579757 0.635482 0.012727
0.610502 0.635615 0.012860
0.641248 0.635748 0.012993
0.671993 0.635881 0.013126
0.702739 0.636014 0.013259
0.733485 0.636146 0.013391
0.764230 0.636279 0.013524
0.794976 0.636412 0.013657
0.825721 0.636545 0.013790
0.856467 0.636678 0.013923
0.887212 0.636810 0.014055
0.917958 0.636943 0.014188
0.948704 0.637076 0.014321
0.979449 0.637209 0.014454
1.000000 0.637342 0.014587
0.026783 0.664151 0.010783
0.057529 0.664284 0.010916
0.088274 0.664417 0.011049
0.119020 0.664549 0.011182
0.149766 0.664682 0.011315
0.180511 0.664815 0.011447
0.211257 0.664948 0.011580
0.242002 0.665081 0.011713
0.272748 0.665214 0.011846
0.303493 0.665346 0.011979
0.334239 0.665479 0.012111
0.364985 0.665612 0.012244
0.395730 0.665745 0.012377
0.426476 0.665878 0.012510
0.457221 0.666011 0.012643
0.487967 0.666143 0.012776
0.518712 0.666276 0.012908
0.549458 0.666409 0.013041
0.580204 0.666542 0.013174
0.610949 0.666675 0.013307
0.641695 0.666807 0.013440
0.672440 0.666940 0.013573
0.703186 0.667073 0.013705
0.733931 0.667206 0.013838
0.764677 0.667339 0.013971
0.795423 0.667472 0.014104
0.826168 0.667604 0.014237
0.856914 0.667737 0.014369
0.887659 0.667870 0.014502
0.918405 0.668003 0.014635
0.949150 0.668136 0.014768
0.979896 0.668268 0.014901
1.000000 0.668401 0.015034
0.027230 0.695211 0.011230
0.057976 0.695343 0.011363
0.088721 0.695476 0.011496
0.119467 0.695609 0.011629
0.150212 0.695742 0.011761
0.180958 0.695875 0.011894
0.211703 0.696007 0.012027
0.242449 0.696140 0.012160
0.273195 0.696273 0.012293
0.303940 0.696406 0.012425
0.334686 0.696539 0.012558
0.365431 0.696672 0.012691
0.396177 0.696804 0.012824
0.426923 0.696937 0.012957
0.457668 0.697070 0.013090
0.488414 0.697203 0.013222
0.519159 0.697336 0.013355
0.549905 0.697469 0.013488
0.580650 0.697601 0.013621
0.611396 0.697734 0.013754
0.642142 0.697867 0.013887
0.672887 0.698000 0.014019
0.703633 0.698133 0.014152
0.734378 0.698265 0.014285
0.765124 0.698398 0.014418
0.795869 0.698531 0.014551
0.826615 0.698664 0.014683
0.857361 0.698797 0.014816
0.888106 0.698930 0.014949
0.918852 0.699062 0.015082
0.949597 0.699195 0.015215
0.980343 0.699328 0.015348
1.000000 0.699461 0.015480
0.027677 0.726270 0.011677
0.058422 0.726403 0.011810
0.089168 0.726536 0.011943
0.119914 0.726669 0.012075
0.150659 0.726801 0.012208
0.181405 0.726934 0.012341
0.212150 0.727067 0.012474
0.242896 0.727200 0.012607
0.273641 0.727333 0.012739
0.304387 0.727466 0.012872
0.335133 0.727598 0.013005
0.365878 0.727731 0.013138
0.396624 0.727864 0.013271
0.427369 0.727997 0.013404
0.458115 0.728130 0.013536
0.488860 0.728262 0.013669
0.519606 0.728395 0.013802
0.550352 0.728528 0.013935
0.581097 0.728661 0.014068
0.611843 0.728794 0.014201
0.642588 0.728927 0.014333
0.673334 0.729059 0.014466
0.704079 0.729192 0.014599
0.734825 0.729325 0.014732
0.765571 0.729458 0.014865
0.796316 0.729591 0.014997
0.827062 0.729724 0.015130
0.857807 0.729856 0.015263
0.888553 0.729989 0.015396
0.919298 0.730122 0.015529
0.950044 0.730255 0.015662
0.980790 0.730388 0.015794
1.000000 0.730520 0.015927
0.028124 0.757330 0.012124
0.058869 0.757463 0.012257
0.089615 0.757595 0.012389
0.120360 0.757728 0.012522
0.151106 0.757861 0.012655
0.181852 0.757994 0.012788
0.212597 0.758127 0.012921
0.243343 0.758259 0.013053
0.274088 0.758392 0.013186
0.304834 0.758525 0.013319
0.335579 0.758658 0.013452
0.366325 0.758791 0.013585
0.397071 0.758924 0.013718
0.427816 0.759056 0.013850
0.458562 0.759189 0.013983
0.489307 0.759322 0.014116
0.520053 0.759455 0.014249
0.550798 0.759588 0.014382
0.581544 0.759721 0.014515
0.612290 0.759853 0.014647
0.643035 0.759986 0.014780
0.673781 0.760119 0.014913
0.704526 0.760252 0.015046
0.735272 0.760385 0.015179
0.766017 0.760517 0.015311
0.796763 0.760650 0.015444
0.827509 0.760783 0.015577
0.858254 0.760916 0.015710
0.889000 0.761049 0.015843
0.919745 0.761182 0.015976
0.950491 0.761314 0.016108
0.981236 0.761447 0.016241
1.000000 0.761580 0.016374
0.028571 0.788389 0.012571
0.059316 0.788522 0.012703
0.090062 0.788655 0.012836
0.120807 0.788788 0.012969
0.151553 0.788921 0.013102
0.182298 0.789053 0.013235
0.213044 0.789186 0.013367
0.243790 0.789319 0.013500
0.274535 0.789452 0.013633
0.305281 0.789585 0.013766
0.336026 0.789717 0.013899
0.366772 0.789850 0.014032
0.397517 0.789983 0.014164
0.428263 0.790116 0.014297
0.459009 0.790249 0.014430
0.489754 0.790382 0.014563
0.520500 0.790514 0.014696
0.551245 0.790647 0.014829
0.581991 0.790780 0.014961
0.612736 0.790913 0.015094
0.643482 0.791046 0.015227
0.674228 0.791179 0.015360
0.704973 0.791311 0.015493
0.735719 0.791444 0.015625
0.766464 0.791577 0.015758
0.797210 0.791710 0.015891
0.827955 0.791843 0.016024
0.858701 0.791975 0.016157
0.889447 0.792108 0.016290
0.920192 0.792241 0.016422
0.950938 0.792374 0.016555
0.981683 0.792507 0.016688
1.000000 0.792640 0.016821
0.029017 0.819449 0.013017
0.059763 0.819582 0.013150
0.090508 0.819714 0.013283
0.121254 0.819847 0.013416
0.152000 0.819980 0.013549
0.182745 0.820113 0.013681
0.213491 0.820246 0.013814
0.244236 0.820379 0.013947
0.274982 0.820511 0.014080
0.305727 0.820644 0.014213
0.336473 0.820777 0.014346
0.367219 0.820910 0.014478
0.397964 0.821043 0.014611
0.428710 0.821176 0.014744
0.459455 0.821308 0.014877
0.490201 0.821441 0.015010
0.520947 0.821574 0.015143
0.551692 0.821707 0.015275
0.582438 0.821840 0.015408
0.613183 0.821972 0.015541
0.643929 0.822105 0.015674
0.674674 0.822238 0.015807
0.705420 0.822371 0.015939
0.736166 0.822504 0.016072
0.766911 0.822637 0.016205
0.797657 0.822769 0.016338
0.828402 0.822902 0.016471
