fexer/Resources/LUTs/fuji_velvia_50.cube
TITLE "Velvia 50"
LUT_3D_SIZE 9
DOMAIN_MIN 0.0 0.0 0.0
DOMAIN_MAX 1.0 1.0 1.0
0.000000 0.000000 0.000000
0.119223 0.000000 0.000000
0.285847 0.000000 0.000000
0.452470 0.000000 0.000000
0.619094 0.000000 0.000000
0.785717 0.000000 0.000000
0.952341 0.000000 0.000000
1.000000 0.000000 0.000000
1.000000 0.000000 0.000000
0.000000 0.086345 0.000000
0.086526 0.076626 0.000000
0.253149 0.066906 0.000000
0.419772 0.057186 0.000000
0.586396 0.047466 0.000000
0.753019 0.037746 0.000000
0.919643 0.028027 0.000000
1.000000 0.018307 0.000000
1.000000 0.008587 0.000000
0.000000 0.229991 0.000000
0.053828 0.220271 0.000000
0.220451 0.210551 0.000000
0.387074 0.200831 0.000000
0.553698 0.191111 0.000000
0.720321 0.181392 0.000000
0.886945 0.171672 0.000000
1.000000 0.161952 0.000000
1.000000 0.152232 0.000000
0.000000 0.373636 0.000000
0.021130 0.363916 0.000000
0.187753 0.354196 0.000000
0.354377 0.344477 0.000000
0.521000 0.334757 0.000000
0.687623 0.325037 0.000000
0.854247 0.315317 0.000000
1.000000 0.305597 0.000000
1.000000 0.295878 0.000000
0.000000 0.517281 0.000000
0.000000 0.507561 0.000000
0.155055 0.497842 0.000000
0.321679 0.488122 0.000000
0.488302 0.478402 0.000000
0.654925 0.468682 0.000000
0.821549 0.458962 0.000000
0.988172 0.449243 0.000000
1.000000 0.439523 0.000000
0.000000 0.660926 0.000000
0.000000 0.651207 0.000000
0.122357 0.641487 0.000000
0.288981 0.631767 0.000000
0.455604 0.622047 0.000000
0.622228 0.612328 0.000000
0.788851 0.602608 0.000000
0.955474 0.592888 0.000000
1.000000 0.583168 0.000000
0.000000 0.804572 0.000000
0.000000 0.794852 0.000000
0.089659 0.785132 0.000000
0.256283 0.775412 0.000000
0.422906 0.765693 0.000000
0.589530 0.755973 0.000000
0.756153 0.746253 0.000000
0.922776 0.736533 0.000000
1.000000 0.726813 0.000000
0.000000 0.948217 0.000000
0.000000 0.938497 0.000000
0.056961 0.928777 0.000000
0.223585 0.919058 0.000000
0.390208 0.909338 0.000000
0.556832 0.899618 0.000000
0.723455 0.889898 0.000000
0.890079 0.880179 0.000000
1.000000 0.870459 0.000000
0.000000 1.000000 0.000000
0.000000 1.000000 0.000000
0.024263 1.000000 0.000000
0.190887 1.000000 0.000000
0.357510 1.000000 0.000000
0.524134 1.000000 0.000000
0.690757 1.000000 0.000000
0.857381 1.000000 0.000000
1.000000 1.000000 0.000000
0.000000 0.000000 0.084957
0.115923 0.000000 0.076348
0.282546 0.000000 0.067739
0.449169 0.000000 0.059130
0.615793 0.000000 0.050521
0.782416 0.000000 0.041912
0.949040 0.000000 0.033304
1.000000 0.000000 0.024695
1.000000 0.000000 0.016086
0.000000 0.083044 0.055996
0.083225 0.073325 0.047387
0.249848 0.063605 0.038778
0.416472 0.053885 0.030169
0.583095 0.044165 0.021560
0.749718 0.034446 0.012951
0.916342 0.024726 0.004342
1.000000 0.015006 0.000000
1.000000 0.005286 0.000000
0.000000 0.226690 0.027035
0.050527 0.216970 0.018426
0.217150 0.207250 0.009817
0.383774 0.197530 0.001208
0.550397 0.187811 0.000000
0.717020 0.178091 0.000000
0.883644 0.168371 0.000000
1.000000 0.158651 0.000000
1.000000 0.148931 0.000000
0.000000 0.370335 0.000000
0.017829 0.360615 0.000000
0.184452 0.350895 0.000000
0.351076 0.341176 0.000000
0.517699 0.331456 0.000000
0.684323 0.321736 0.000000
0.850946 0.312016 0.000000
1.000000 0.302297 0.000000
1.000000 0.292577 0.000000
0.000000 0.513980 0.000000
0.000000 0.504260 0.000000
0.151754 0.494541 0.000000
0.318378 0.484821 0.000000
0.485001 0.475101 0.000000
0.651625 0.465381 0.000000
0.818248 0.455662 0.000000
0.984872 0.445942 0.000000
1.000000 0.436222 0.000000
0.000000 0.657626 0.000000
0.000000 0.647906 0.000000
0.119056 0.638186 0.000000
0.285680 0.628466 0.000000
0.452303 0.618746 0.000000
0.618927 0.609027 0.000000
0.785550 0.599307 0.000000
0.952174 0.589587 0.000000
1.000000 0.579867 0.000000
0.000000 0.801271 0.000000
0.000000 0.791551 0.000000
0.086358 0.781831 0.000000
0.252982 0.772111 0.000000
0.419605 0.762392 0.000000
0.586229 0.752672 0.000000
0.752852 0.742952 0.000000
0.919476 0.733232 0.000000
1.000000 0.723513 0.000000
0.000000 0.944916 0.000000
0.000000 0.935196 0.000000
0.053660 0.925477 0.000000
0.220284 0.915757 0.000000
0.386907 0.906037 0.000000
0.553531 0.896317 0.000000
0.720154 0.886597 0.000000
0.886778 0.876878 0.000000
1.000000 0.867158 0.000000
0.000000 1.000000 0.000000
0.000000 1.000000 0.000000
0.020962 1.000000 0.000000
0.187586 1.000000 0.000000
0.354209 1.000000 0.000000
0.520833 1.000000 0.000000
0.687456 1.000000 0.000000
0.854080 1.000000 0.000000
1.000000 1.000000 0.000000
0.000000 0.000000 0.258377
0.112622 0.000000 0.249768
0.279245 0.000000 0.241159
0.445869 0.000000 0.232550
0.612492 0.000000 0.223941
0.779116 0.000000 0.215332
0.945739 0.000000 0.206723
1.000000 0.000000 0.198114
1.000000 0.000000 0.189505
0.000000 0.079744 0.229416
0.079924 0.070024 0.220807
0.246547 0.060304 0.212198
0.413171 0.050584 0.203589
0.579794 0.040864 0.194980
0.746418 0.031145 0.186371
0.913041 0.021425 0.177762
1.000000 0.011705 0.169148
1.000000 0.001985 0.159429
0.000000 0.223389 0.200455
0.047226 0.213669 0.191846
0.213849 0.203949 0.183237
0.380473 0.194229 0.174628
0.547096 0.184510 0.165610
0.713720 0.174790 0.155890
0.880343 0.165070 0.146170
1.000000 0.155350 0.136450
1.000000 0.145631 0.126731
0.000000 0.367034 0.171494
0.014528 0.357314 0.162071
0.181151 0.347595 0.152351
0.347775 0.337875 0.142632
0.514398 0.328155 0.132912
0.681022 0.318435 0.123192
0.847645 0.308715 0.113472
1.000000 0.298996 0.103752
1.000000 0.289276 0.094033
0.000000 0.510679 0.139093
0.000000 0.500960 0.129373
0.148453 0.491240 0.119653
0.315077 0.481520 0.109934
0.481700 0.471800 0.100214
0.648324 0.462080 0.090494
0.814947 0.452361 0.080774
0.981571 0.442641 0.071054
1.000000 0.432921 0.061335
0.000000 0.654325 0.106395
0.000000 0.644605 0.096675
0.115755 0.634885 0.086955
0.282379 0.625165 0.077236
0.449002 0.615446 0.067516
0.615626 0.605726 0.057796
0.782249 0.596006 0.048076
0.948873 0.586286 0.038356
1.000000 0.576566 0.028637
0.000000 0.797970 0.073697
0.000000 0.788250 0.063977
0.083057 0.778530 0.054257
0.249681 0.768811 0.044538
0.416304 0.759091 0.034818
0.582928 0.749371 0.025098
0.749551 0.739651 0.015378
0.916175 0.729931 0.005659
1.000000 0.720212 0.000000
0.000000 0.941615 0.040999
0.000000 0.931895 0.031279
0.050359 0.922176 0.021559
0.216983 0.912456 0.011840
0.383606 0.902736 0.002120
0.550230 0.893016 0.000000
0.716853 0.883297 0.000000
0.883477 0.873577 0.000000
1.000000 0.863857 0.000000
0.000000 1.000000 0.008301
0.000000 1.000000 0.000000
0.017662 1.000000 0.000000
0.184285 1.000000 0.000000
0.350908 1.000000 0.000000
0.517532 1.000000 0.000000
0.684155 1.000000 0.000000
0.850779 1.000000 0.000000
1.000000 1.000000 0.000000
0.000000 0.000000 0.431796
0.109321 0.000000 0.423187
0.275944 0.000000 0.414578
0.442568 0.000000 0.405970
0.609191 0.000000 0.397361
0.775815 0.000000 0.388752
0.942438 0.000000 0.380143
1.000000 0.000000 0.371534
1.000000 0.000000 0.362925
0.000000 0.076443 0.402835
0.076623 0.066723 0.394226
0.243246 0.057003 0.385617
0.409870 0.047283 0.377009
0.576493 0.037564 0.368400
0.743117 0.027844 0.359791
0.909740 0.018124 0.351182
1.000000 0.008404 0.342191
1.000000 0.000000 0.332471
0.000000 0.220088 0.373874
0.043925 0.210368 0.365265
0.210548 0.200648 0.356656
0.377172 0.190929 0.348047
0.543795 0.181209 0.338652
0.710419 0.171489 0.328932
0.877042 0.161769 0.319212
1.000000 0.152049 0.309493
1.000000 0.142330 0.299773
0.000000 0.363733 0.344833
0.011227 0.354013 0.335113
0.177850 0.344294 0.325394
0.344474 0.334574 0.315674
0.511097 0.324854 0.305954
0.677721 0.315134 0.296234
0.844344 0.305415 0.286515
1.000000 0.295695 0.276795
1.000000 0.285975 0.267075
0.000000 0.507378 0.312135
0.000000 0.497659 0.302415
0.145152 0.487939 0.292696
0.311776 0.478219 0.282976
0.478399 0.468499 0.273256
0.645023 0.458780 0.263536
0.811646 0.449060 0.253817
0.978270 0.439340 0.244097
1.000000 0.429620 0.234377
0.000000 0.651024 0.279437
0.000000 0.641304 0.269718
0.112454 0.631584 0.259998
0.279078 0.621864 0.250278
0.445701 0.612145 0.240558
0.612325 0.602425 0.230838
0.778948 0.592705 0.221119
0.945572 0.582985 0.211399
1.000000 0.573266 0.201679
0.000000 0.794669 0.246739
0.000000 0.784949 0.237020
0.079757 0.775229 0.227300
0.246380 0.765510 0.217580
0.413003 0.755790 0.207860
0.579627 0.746070 0.198140
0.746250 0.736350 0.188421
0.912874 0.726631 0.178701
1.000000 0.716911 0.168981
0.000000 0.938314 0.214041
0.000000 0.928595 0.204322
0.047059 0.918875 0.194602
0.213682 0.909155 0.184882
0.380305 0.899435 0.175162
0.546929 0.889715 0.165442
0.713552 0.879996 0.155723
0.880176 0.870276 0.146003
1.000000 0.860556 0.136283
0.000000 1.000000 0.181343
0.000000 1.000000 0.171624
0.014361 1.000000 0.161904
0.180984 1.000000 0.152184
0.347608 1.000000 0.142464
0.514231 1.000000 0.132745
0.680854 1.000000 0.123025
0.847478 1.000000 0.113305
1.000000 1.000000 0.103585
0.000000 0.000000 0.605216
0.106020 0.000000 0.596607
0.272643 0.000000 0.587998
0.439267 0.000000 0.579389
0.605890 0.000000 0.570780
0.772514 0.000000 0.562171
0.939137 0.000000 0.553562
1.000000 0.000000 0.544953
1.000000 0.000000 0.536344
0.000000 0.073142 0.576255
0.073322 0.063422 0.567646
0.239945 0.053702 0.559037
0.406569 0.043982 0.550428
0.573192 0.034263 0.541819
0.739816 0.024543 0.533210
0.906439 0.014823 0.524601
1.000000 0.005103 0.515233
1.000000 0.000000 0.505513
0.000000 0.216787 0.547294
0.040624 0.207067 0.538685
0.207247 0.197347 0.530076
0.373871 0.187628 0.521414
0.540494 0.177908 0.511694
0.707118 0.168188 0.501975
0.873741 0.158468 0.492255
1.000000 0.148749 0.482535
1.000000 0.139029 0.472815
0.000000 0.360432 0.517876
0.007926 0.350713 0.508156
0.174550 0.340993 0.498436
0.341173 0.331273 0.488716
0.507796 0.321553 0.478996
0.674420 0.311833 0.469277
0.841043 0.302114 0.459557
1.000000 0.292394 0.449837
1.000000 0.282674 0.440117
0.000000 0.504078 0.485178
0.000000 0.494358 0.475458
0.141852 0.484638 0.465738
0.308475 0.474918 0.456018
0.475098 0.465198 0.446298
0.641722 0.455479 0.436579
0.808345 0.445759 0.426859
0.974969 0.436039 0.417139
1.000000 0.426319 0.407419
0.000000 0.647723 0.452480
0.000000 0.638003 0.442760
0.109154 0.628283 0.433040
0.275777 0.618564 0.423320
0.442401 0.608844 0.413601
0.609024 0.599124 0.403881
0.775647 0.589404 0.394161
0.942271 0.579684 0.384441
1.000000 0.569965 0.374721
0.000000 0.791368 0.419782
0.000000 0.781648 0.410062
0.076456 0.771929 0.400342
0.243079 0.762209 0.390622
0.409703 0.752489 0.380903
0.576326 0.742769 0.371183
0.742949 0.733049 0.361463
0.909573 0.723330 0.351743
1.000000 0.713610 0.342023
0.000000 0.935013 0.387084
0.000000 0.925294 0.377364
0.043758 0.915574 0.367644
0.210381 0.905854 0.357924
0.377005 0.896134 0.348205
0.543628 0.886415 0.338485
0.710252 0.876695 0.328765
0.876875 0.866975 0.319045
1.000000 0.857255 0.309325
0.000000 1.000000 0.354386
0.000000 1.000000 0.344666
0.011060 1.000000 0.334946
0.177683 1.000000 0.325226
0.344307 1.000000 0.315507
0.510930 1.000000 0.305787
0.677554 1.000000 0.296067
0.844177 1.000000 0.286347
1.000000 1.000000 0.276628
0.000000 0.000000 0.778636
0.102719 0.000000 0.770027
0.269342 0.000000 0.761418
0.435966 0.000000 0.752809
0.602589 0.000000 0.744200
0.769213 0.000000 0.735591
0.935836 0.000000 0.726982
1.000000 0.000000 0.718373
1.000000 0.000000 0.709764
0.000000 0.069841 0.749675
0.070021 0.060121 0.741066
0.236645 0.050401 0.732457
0.403268 0.040682 0.723848
0.569891 0.030962 0.715239
0.736515 0.021242 0.706630
0.903138 0.011522 0.697995
1.000000 0.001802 0.688275
1.000000 0.000000 0.678556
0.000000 0.213486 0.720713
0.037323 0.203766 0.712105
0.203947 0.194047 0.703496
0.370570 0.184327 0.694457
0.537194 0.174607 0.684737
0.703817 0.164887 0.675017
0.870440 0.155167 0.665297
1.000000 0.145448 0.655577
1.000000 0.135728 0.645858
0.000000 0.357131 0.690918
0.004625 0.347412 0.681198
0.171249 0.337692 0.671478
0.337872 0.327972 0.661759
0.504496 0.318252 0.652039
0.671119 0.308533 0.642319
0.837742 0.298813 0.632599
1.000000 0.289093 0.622879
1.000000 0.279373 0.613160
0.000000 0.500777 0.658220
0.000000 0.491057 0.648500
0.138551 0.481337 0.638780
0.305174 0.471617 0.629061
0.471798 0.461898 0.619341
0.638421 0.452178 0.609621
0.805045 0.442458 0.599901
0.971668 0.432738 0.590181
1.000000 0.423018 0.580462
0.000000 0.644422 0.625522
0.000000 0.634702 0.615802
0.105853 0.624982 0.606082
0.272476 0.615263 0.596363
0.439100 0.605543 0.586643
0.605723 0.595823 0.576923
0.772347 0.586103 0.567203
0.938970 0.576384 0.557484
1.000000 0.566664 0.547764
0.000000 0.788067 0.592824
0.000000 0.778347 0.583104
0.073155 0.768628 0.573384
0.239778 0.758908 0.563665
0.406402 0.749188 0.553945
0.573025 0.739468 0.544225
0.739649 0.729749 0.534505
0.906272 0.720029 0.524786
1.000000 0.710309 0.515066
0.000000 0.931713 0.560126
0.000000 0.921993 0.550406
0.040457 0.912273 0.540687
0.207080 0.902553 0.530967
0.373704 0.892833 0.521247
0.540327 0.883114 0.511527
0.706951 0.873394 0.501807
0.873574 0.863674 0.492088
1.000000 0.853954 0.482368
0.000000 1.000000 0.527428
0.000000 1.000000 0.517708
0.007759 1.000000 0.507989
0.174382 1.000000 0.498269
0.341006 1.000000 0.488549
0.507629 1.000000 0.478829
0.674253 1.000000 0.469109
0.840876 1.000000 0.459390
1.000000 0.997600 0.449670
0.000000 0.000000 0.952055
0.099418 0.000000 0.943446
0.266042 0.000000 0.934837
0.432665 0.000000 0.926228
0.599289 0.000000 0.917619
0.765912 0.000000 0.909010
0.932535 0.000000 0.900402
1.000000 0.000000 0.891793
1.000000 0.000000 0.883184
0.000000 0.066540 0.923094
0.066720 0.056820 0.914485
0.233344 0.047100 0.905876
0.399967 0.037381 0.897267
0.566591 0.027661 0.888658
0.733214 0.017941 0.880049
0.899837 0.008221 0.871037
1.000000 0.000000 0.861318
1.000000 0.000000 0.851598
0.000000 0.210185 0.894133
0.034022 0.200465 0.885524
0.200646 0.190746 0.876915
0.367269 0.181026 0.867499
0.533893 0.171306 0.857779
0.700516 0.161586 0.848059
0.867140 0.151867 0.838340
1.000000 0.142147 0.828620
1.000000 0.132427 0.818900
0.000000 0.353831 0.863960
0.001324 0.344111 0.854240
0.167948 0.334391 0.844521
0.334571 0.324671 0.834801
0.501195 0.314951 0.825081
0.667818 0.305232 0.815361
0.834442 0.295512 0.805642
1.000000 0.285792 0.795922
1.000000 0.276072 0.786202
0.000000 0.497476 0.831262
0.000000 0.487756 0.821543
0.135250 0.478036 0.811823
0.301873 0.468316 0.802103
0.468497 0.458597 0.792383
0.635120 0.448877 0.782663
0.801744 0.439157 0.772944
0.968367 0.429437 0.763224
1.000000 0.419718 0.753504
0.000000 0.641121 0.798564
0.000000 0.631401 0.788845
0.102552 0.621682 0.779125
0.269175 0.611962 0.769405
0.435799 0.602242 0.759685
0.602422 0.592522 0.749965
0.769046 0.582802 0.740246
0.935669 0.573083 0.730526
1.000000 0.563363 0.720806
0.000000 0.784766 0.765866
0.000000 0.775047 0.756147
0.069854 0.765327 0.746427
0.236477 0.755607 0.736707
0.403101 0.745887 0.726987
0.569724 0.736167 0.717267
0.736348 0.726448 0.707548
0.902971 0.716728 0.697828
1.000000 0.707008 0.688108
0.000000 0.928412 0.733168
0.000000 0.918692 0.723449
0.037156 0.908972 0.713729
0.203779 0.899252 0.704009
0.370403 0.889533 0.694289
0.537026 0.879813 0.684570
0.703650 0.870093 0.674850
0.870273 0.860373 0.665130
1.000000 0.850653 0.655410
0.000000 1.000000 0.700470
0.000000 1.000000 0.690751
0.004458 1.000000 0.681031
0.171081 1.000000 0.671311
0.337705 1.000000 0.661591
0.504328 1.000000 0.651872
0.670952 1.000000 0.642152
0.837575 1.000000 0.632432
1.000000 0.994299 0.622712
0.000000 0.000000 1.000000
0.096117 0.000000 1.000000
0.262741 0.000000 1.000000
0.429364 0.000000 1.000000
0.595988 0.000000 1.000000
0.762611 0.000000 1.000000
0.929235 0.000000 1.000000
1.000000 0.000000 1.000000
1.000000 0.000000 1.000000
0.000000 0.063239 1.000000
0.063419 0.053519 1.000000
0.230043 0.043800 1.000000
0.396666 0.034080 1.000000
0.563290 0.024360 1.000000
0.729913 0.014640 1.000000
0.896537 0.004920 1.000000
1.000000 0.000000 1.000000
1.000000 0.000000 1.000000
0.000000 0.206884 1.000000
0.030721 0.197165 1.000000
0.197345 0.187445 1.000000
0.363968 0.177725 1.000000
0.530592 0.168005 1.000000
0.697215 0.158285 1.000000
0.863839 0.148566 1.000000
1.000000 0.138846 1.000000
1.000000 0.129126 0.991942
0.000000 0.350530 1.000000
0.000000 0.340810 1.000000
0.164647 0.331090 1.000000
0.331270 0.321370 1.000000
0.497894 0.311651 0.998123
0.664517 0.301931 0.988404
0.831141 0.292211 0.978684
0.997764 0.282491 0.968964
1.000000 0.272771 0.959244
0.000000 0.494175 1.000000
0.000000 0.484455 0.994585
0.131949 0.474735 0.984865
0.298572 0.465016 0.975145
0.465196 0.455296 0.965426
0.631819 0.445576 0.955706
0.798443 0.435856 0.945986
0.965066 0.426136 0.936266
1.000000 0.416417 0.926546
0.000000 0.637820 0.971607
0.000000 0.628100 0.961887
0.099251 0.618381 0.952167
0.265874 0.608661 0.942447
0.432498 0.598941 0.932728
0.599121 0.589221 0.923008
0.765745 0.579502 0.913288
0.932368 0.569782 0.903568
1.000000 0.560062 0.893848
0.000000 0.781465 0.938909
0.000000 0.771746 0.929189
0.066553 0.762026 0.919469
0.233176 0.752306 0.909749
0.399800 0.742586 0.900030
0.566423 0.732867 0.890310
0.733047 0.723147 0.880590
0.899670 0.713427 0.870870
1.000000 0.703707 0.861151
0.000000 0.925111 0.906211
0.000000 0.915391 0.896491
0.033855 0.905671 0.886771
0.200479 0.895951 0.877051
0.367102 0.886232 0.867332
0.533725 0.876512 0.857612
0.700349 0.866792 0.847892
0.866972 0.857072 0.838172
1.000000 0.847353 0.828453
0.000000 1.000000 0.873513
0.000000 1.000000 0.863793
0.001157 1.000000 0.854073
0.167781 1.000000 0.844353
0.334404 1.000000 0.834634
0.501027 1.000000 0.824914
0.667651 1.000000 0.815194
0.834274 1.000000 0.805474
1.000000 0.990998 0.795755
0.000000 0.000000 1.000000
0.092816 0.000000 1.000000
0.259440 0.000000 1.000000
0.426063 0.000000 1.000000
0.592687 0.000000 1.000000
0.759310 0.000000 1.000000
0.925934 0.000000 1.000000
1.000000 0.000000 1.000000
1.000000 0.000000 1.000000
0.000000 0.059938 1.000000
0.060118 0.050218 1.000000
0.226742 0.040499 1.000000
0.393365 0.030779 1.000000
0.559989 0.021059 1.000000
0.726612 0.011339 1.000000
0.893236 0.001620 1.000000
1.000000 0.000000 1.000000
1.000000 0.000000 1.000000
0.000000 0.203583 1.000000
0.027420 0.193864 1.000000
0.194044 0.184144 1.000000
0.360667 0.174424 1.000000
0.527291 0.164704 1.000000
0.693914 0.154985 1.000000
0.860538 0.145265 1.000000
1.000000 0.135545 1.000000
1.000000 0.125825 1.000000
0.000000 0.347229 1.000000
0.000000 0.337509 1.000000
0.161346 0.327789 1.000000
0.327969 0.318069 1.000000
0.494593 0.308350 1.000000
0.661216 0.298630 1.000000
0.827840 0.288910 1.000000
0.994463 0.279190 1.000000
1.000000 0.269471 1.000000
0.000000 0.490874 1.000000
0.000000 0.481154 1.000000
0.128648 0.471434 1.000000
0.295271 0.461715 1.000000
0.461895 0.451995 1.000000
0.628518 0.442275 1.000000
0.795142 0.432555 1.000000
0.961765 0.422836 1.000000
1.000000 0.413116 1.000000
0.000000 0.634519 1.000000
0.000000 0.624800 1.000000
0.095950 0.615080 1.000000
0.262574 0.605360 1.000000
0.429197 0.595640 1.000000
0.595820 0.585920 1.000000
0.762444 0.576201 1.000000
0.929067 0.566481 1.000000
1.000000 0.556761 1.000000
0.000000 0.778165 1.000000
0.000000 0.768445 1.000000
0.063252 0.758725 1.000000
0.229876 0.749005 1.000000
0.396499 0.739286 1.000000
0.563122 0.729566 1.000000
0.729746 0.719846 1.000000
0.896369 0.710126 1.000000
1.000000 0.700406 1.000000
0.000000 0.921810 1.000000
0.000000 0.912090 1.000000
0.030554 0.902370 1.000000
0.197178 0.892651 1.000000
0.363801 0.882931 1.000000
0.530425 0.873211 1.000000
0.697048 0.863491 1.000000
0.863671 0.853771 1.000000
1.000000 0.844052 1.000000
0.000000 1.000000 1.000000
0.000000 1.000000 1.000000
0.000000 1.000000 1.000000
0.164480 1.000000 1.000000
0.331103 1.000000 1.000000
0.497727 1.000000 0.997956
0.664350 1.000000 0.988237
0.830973 0.997417 0.978517
0.997597 0.987697 0.968797
