fexer/Resources/LUTs/fuji_velvia_50.cube
TITLE "Velvia 50"
LUT_3D_SIZE 5
DOMAIN_MIN 0.0 0.0 0.0
DOMAIN_MAX 1.0 1.0 1.0
0.000000 0.000000 0.000000
0.285847 0.000000 0.000000
0.619094 0.000000 0.000000
0.952341 0.000000 0.000000
1.000000 0.000000 0.000000
0.000000 0.229991 0.000000
0.220451 0.210551 0.000000
0.553698 0.191111 0.000000
0.886945 0.171672 0.000000
1.000000 0.152232 0.000000
0.000000 0.517281 0.000000
0.155055 0.497842 0.000000
0.488302 0.478402 0.000000
0.821549 0.458962 0.000000
1.000000 0.439523 0.000000
0.000000 0.804572 0.000000
0.089659 0.785132 0.000000
0.422906 0.765693 0.000000
0.756153 0.746253 0.000000
1.000000 0.726813 0.000000
0.000000 1.000000 0.000000
0.024263 1.000000 0.000000
0.357510 1.000000 0.000000
0.690757 1.000000 0.000000
1.000000 1.000000 0.000000
0.000000 0.000000 0.258377
0.279245 0.000000 0.241159
0.612492 0.000000 0.223941
0.945739 0.000000 0.206723
1.000000 0.000000 0.189505
0.000000 0.223389 0.200455
0.213849 0.203949 0.183237
0.547096 0.184510 0.165610
0.880343 0.165070 0.146170
1.000000 0.145631 0.126731
0.000000 0.510679 0.139093
0.148453 0.491240 0.119653
0.481700 0.471800 0.100214
0.814947 0.452361 0.080774
1.000000 0.432921 0.061335
0.000000 0.797970 0.073697
0.083057 0.778530 0.054257
0.416304 0.759091 0.034818
0.749551 0.739651 0.015378
1.000000 0.720212 0.000000
0.000000 1.000000 0.008301
0.017662 1.000000 0.000000
0.350908 1.000000 0.000000
0.684155 1.000000 0.000000
1.000000 1.000000 0.000000
0.000000 0.000000 0.605216
0.272643 0.000000 0.587998
0.605890 0.000000 0.570780
0.939137 0.000000 0.553562
1.000000 0.000000 0.536344
0.000000 0.216787 0.547294
0.207247 0.197347 0.530076
0.540494 0.177908 0.511694
0.873741 0.158468 0.492255
1.000000 0.139029 0.472815
0.000000 0.504078 0.485178
0.141852 0.484638 0.465738
0.475098 0.465198 0.446298
0.808345 0.445759 0.426859
1.000000 0.426319 0.407419
0.000000 0.791368 0.419782
0.076456 0.771929 0.400342
0.409703 0.752489 0.380903
0.742949 0.733049 0.361463
1.000000 0.713610 0.342023
0.000000 1.000000 0.354386
0.011060 1.000000 0.334946
0.344307 1.000000 0.315507
0.677554 1.000000 0.296067
1.000000 1.000000 0.276628
0.000000 0.000000 0.952055
0.266042 0.000000 0.934837
0.599289 0.000000 0.917619
0.932535 0.000000 0.900402
1.000000 0.000000 0.883184
0.000000 0.210185 0.894133
0.200646 0.190746 0.876915
0.533893 0.171306 0.857779
0.867140 0.151867 0.838340
1.000000 0.132427 0.818900
0.000000 0.497476 0.831262
0.135250 0.478036 0.811823
0.468497 0.458597 0.792383
0.801744 0.439157 0.772944
1.000000 0.419718 0.753504
0.000000 0.784766 0.765866
0.069854 0.765327 0.746427
0.403101 0.745887 0.726987
0.736348 0.726448 0.707548
1.000000 0.707008 0.688108
0.000000 1.000000 0.700470
0.004458 1.000000 0.681031
0.337705 1.000000 0.661591
0.670952 1.000000 0.642152
1.000000 0.994299 0.622712
0.000000 0.000000 1.000000
0.259440 0.000000 1.000000
0.592687 0.000000 1.000000
0.925934 0.000000 1.000000
1.000000 0.000000 1.000000
0.000000 0.203583 1.000000
0.194044 0.184144 1.000000
0.527291 0.164704 1.000000
0.860538 0.145265 1.000000
1.000000 0.125825 1.000000
0.000000 0.490874 1.000000
0.128648 0.471434 1.000000
0.461895 0.451995 1.000000
0.795142 0.432555 1.000000
1.000000 0.413116 1.000000
0.000000 0.778165 1.000000
0.063252 0.758725 1.000000
0.396499 0.739286 1.000000
0.729746 0.719846 1.000000
1.000000 0.700406 1.000000
0.000000 1.000000 1.000000
0.000000 1.000000 1.000000
0.331103 1.000000 1.000000
0.664350 1.000000 0.988237
0.997597 0.987697 0.968797
