fexer/Resources/LUTs/fuji_provia_100.cube
TITLE "Provia 100"
LUT_3D_SIZE 5
DOMAIN_MIN 0.0 0.0 0.0
DOMAIN_MAX 1.0 1.0 1.0
0.017400 0.011900 0.001400
0.263365 0.012963 0.002463
0.509329 0.014025 0.003525
0.755294 0.015088 0.004588
1.000000 0.016150 0.005650
0.020975 0.260377 0.004975
0.266939 0.261439 0.006037
0.512904 0.262502 0.007100
0.758868 0.263564 0.008162
1.000000 0.264627 0.009225
0.024549 0.508853 0.008549
0.270514 0.509916 0.009612
0.516478 0.510978 0.010674
0.762443 0.512041 0.011737
1.000000 0.513103 0.012799
0.028124 0.757330 0.012124
0.274088 0.758392 0.013186
0.520053 0.759455 0.014249
0.766017 0.760517 0.015311
1.000000 0.761580 0.016374
0.031698 1.000000 0.015698
0.277663 1.000000 0.016761
0.523627 1.000000 0.017823
0.769592 1.000000 0.018886
1.000000 1.000000 0.019949
0.017761 0.012261 0.246663
0.263725 0.013323 0.247725
0.509690 0.014386 0.248788
0.755655 0.015449 0.249851
1.000000 0.016511 0.250913
0.021335 0.260737 0.250237
0.267300 0.261800 0.251300
0.513265 0.262863 0.252363
0.759229 0.263925 0.253425
1.000000 0.264988 0.254488
0.024910 0.509214 0.253812
0.270875 0.510277 0.254875
0.516839 0.511339 0.255937
0.762804 0.512402 0.257000
1.000000 0.513464 0.258062
0.028485 0.757691 0.257387
0.274449 0.758753 0.258449
0.520414 0.759816 0.259512
0.766378 0.760878 0.260574
1.000000 0.761941 0.261637
0.032059 1.000000 0.260961
0.278024 1.000000 0.262024
0.523988 1.000000 0.263086
0.769953 1.000000 0.264149
1.000000 1.000000 0.265211
0.018122 0.012622 0.491926
0.264086 0.013684 0.492988
0.510051 0.014747 0.494051
0.756015 0.015809 0.495113
1.000000 0.016872 0.496176
0.021696 0.261098 0.495500
0.267661 0.262161 0.496563
0.513625 0.263223 0.497625
0.759590 0.264286 0.498688
1.000000 0.265349 0.499751
0.025271 0.509575 0.499075
0.271235 0.510637 0.500137
0.517200 0.511700 0.501200
0.763165 0.512763 0.502263
1.000000 0.513825 0.503325
0.028845 0.758051 0.502649
0.274810 0.759114 0.503712
0.520775 0.760177 0.504775
0.766739 0.761239 0.505837
1.000000 0.762302 0.506900
0.032420 1.000000 0.506224
0.278385 1.000000 0.507287
0.524349 1.000000 0.508349
0.770314 1.000000 0.509412
1.000000 1.000000 0.510474
0.018483 0.012983 0.737189
0.264447 0.014045 0.738251
0.510412 0.015108 0.739314
0.756376 0.016170 0.740376
1.000000 0.017233 0.741439
0.022057 0.261459 0.740763
0.268022 0.262522 0.741826
0.513986 0.263584 0.742888
0.759951 0.264647 0.743951
1.000000 0.265709 0.745013
0.025632 0.509936 0.744338
0.271596 0.510998 0.745400
0.517561 0.512061 0.746463
0.763525 0.513123 0.747525
1.000000 0.514186 0.748588
0.029206 0.758412 0.747912
0.275171 0.759475 0.748975
0.521135 0.760537 0.750037
0.767100 0.761600 0.751100
1.000000 0.762663 0.752163
0.032781 1.000000 0.751487
0.278745 1.000000 0.752549
0.524710 1.000000 0.753612
0.770675 1.000000 0.754675
1.000000 1.000000 0.755737
0.018843 0.013343 0.982451
0.264808 0.014406 0.983514
0.510773 0.015469 0.984577
0.756737 0.016531 0.985639
1.000000 0.017594 0.986702
0.022418 0.261820 0.986026
0.268383 0.262883 0.987089
0.514347 0.263945 0.988151
0.760312 0.265008 0.989214
1.000000 0.266070 0.990276
0.025993 0.510297 0.989601
0.271957 0.511359 0.990663
0.517922 0.512422 0.991726
0.763886 0.513484 0.992788
1.000000 0.514547 0.993851
0.029567 0.758773 0.993175
0.275532 0.759836 0.994238
0.521496 0.760898 0.995300
0.767461 0.761961 0.996363
1.000000 0.763023 0.997425
0.033142 1.000000 0.996750
0.279106 1.000000 0.997812
0.525071 1.000000 0.998875
0.771035 1.000000 0.999937
1.000000 1.000000 1.000000
