fexer/Resources/LUTs/fuji_velvia_50.cube
TITLE "Velvia 50"
LUT_3D_SIZE 33
DOMAIN_MIN 0.0 0.0 0.0
DOMAIN_MAX 1.0 1.0 1.0
0.000000 0.000000 0.000000
0.000000 0.000000 0.000000
0.035912 0.000000 0.000000
0.077568 0.000000 0.000000
0.119223 0.000000 0.000000
0.160879 0.000000 0.000000
0.202535 0.000000 0.000000
0.244191 0.000000 0.000000
0.285847 0.000000 0.000000
0.327503 0.000000 0.000000
0.369159 0.000000 0.000000
0.410815 0.000000 0.000000
0.452470 0.000000 0.000000
0.494126 0.000000 0.000000
0.535782 0.000000 0.000000
0.577438 0.000000 0.000000
0.619094 0.000000 0.000000
0.660750 0.000000 0.000000
0.702406 0.000000 0.000000
0.744061 0.000000 0.000000
0.785717 0.000000 0.000000
0.827373 0.000000 0.000000
0.869029 0.000000 0.000000
0.910685 0.000000 0.000000
0.952341 0.000000 0.000000
0.993997 0.000000 0.000000
1.000000 0.000000 0.000000
1.000000 0.000000 0.000000
1.000000 0.000000 0.000000
1.000000 0.000000 0.000000
1.000000 0.000000 0.000000
1.000000 0.000000 0.000000
1.000000 0.000000 0.000000
0.000000 0.000000 0.000000
0.000000 0.000000 0.000000
0.027737 0.000000 0.000000
0.069393 0.000000 0.000000
0.111049 0.000000 0.000000
0.152705 0.000000 0.000000
0.194361 0.000000 0.000000
0.236017 0.000000 0.000000
0.277672 0.000000 0.000000
0.319328 0.000000 0.000000
0.360984 0.000000 0.000000
0.402640 0.000000 0.000000
0.444296 0.000000 0.000000
0.485952 0.000000 0.000000
0.527608 0.000000 0.000000
0.569263 0.000000 0.000000
0.610919 0.000000 0.000000
0.652575 0.000000 0.000000
0.694231 0.000000 0.000000
0.735887 0.000000 0.000000
0.777543 0.000000 0.000000
0.819199 0.000000 0.000000
0.860855 0.000000 0.000000
0.902510 0.000000 0.000000
0.944166 0.000000 0.000000
0.985822 0.000000 0.000000
1.000000 0.000000 0.000000
1.000000 0.000000 0.000000
1.000000 0.000000 0.000000
1.000000 0.000000 0.000000
1.000000 0.000000 0.000000
1.000000 0.000000 0.000000
1.000000 0.000000 0.000000
0.000000 0.014523 0.000000
0.000000 0.012093 0.000000
0.019563 0.009663 0.000000
0.061219 0.007233 0.000000
0.102874 0.004803 0.000000
0.144530 0.002373 0.000000
0.186186 0.000000 0.000000
0.227842 0.000000 0.000000
0.269498 0.000000 0.000000
0.311154 0.000000 0.000000
0.352810 0.000000 0.000000
0.394466 0.000000 0.000000
0.436121 0.000000 0.000000
0.477777 0.000000 0.000000
0.519433 0.000000 0.000000
0.561089 0.000000 0.000000
0.602745 0.000000 0.000000
0.644401 0.000000 0.000000
0.686057 0.000000 0.000000
0.727712 0.000000 0.000000
0.769368 0.000000 0.000000
0.811024 0.000000 0.000000
0.852680 0.000000 0.000000
0.894336 0.000000 0.000000
0.935992 0.000000 0.000000
0.977648 0.000000 0.000000
1.000000 0.000000 0.000000
1.000000 0.000000 0.000000
1.000000 0.000000 0.000000
1.000000 0.000000 0.000000
1.000000 0.000000 0.000000
1.000000 0.000000 0.000000
1.000000 0.000000 0.000000
0.000000 0.050434 0.000000
0.000000 0.048004 0.000000
0.011388 0.045574 0.000000
0.053044 0.043144 0.000000
0.094700 0.040714 0.000000
0.136356 0.038284 0.000000
0.178012 0.035854 0.000000
0.219668 0.033424 0.000000
0.261323 0.030994 0.000000
0.302979 0.028564 0.000000
0.344635 0.026135 0.000000
0.386291 0.023705 0.000000
0.427947 0.021275 0.000000
0.469603 0.018845 0.000000
0.511259 0.016415 0.000000
0.552914 0.013985 0.000000
0.594570 0.011555 0.000000
0.636226 0.009125 0.000000
0.677882 0.006695 0.000000
0.719538 0.004265 0.000000
0.761194 0.001835 0.000000
0.802850 0.000000 0.000000
0.844506 0.000000 0.000000
0.886161 0.000000 0.000000
0.927817 0.000000 0.000000
0.969473 0.000000 0.000000
1.000000 0.000000 0.000000
1.000000 0.000000 0.000000
1.000000 0.000000 0.000000
1.000000 0.000000 0.000000
1.000000 0.000000 0.000000
1.000000 0.000000 0.000000
1.000000 0.000000 0.000000
0.000000 0.086345 0.000000
0.000000 0.083915 0.000000
0.003214 0.081485 0.000000
0.044870 0.079055 0.000000
0.086526 0.076626 0.000000
0.128181 0.074196 0.000000
0.169837 0.071766 0.000000
0.211493 0.069336 0.000000
0.253149 0.066906 0.000000
0.294805 0.064476 0.000000
0.336461 0.062046 0.000000
0.378117 0.059616 0.000000
0.419772 0.057186 0.000000
0.461428 0.054756 0.000000
0.503084 0.052326 0.000000
0.544740 0.049896 0.000000
0.586396 0.047466 0.000000
0.628052 0.045036 0.000000
0.669708 0.042606 0.000000
0.711363 0.040176 0.000000
0.753019 0.037746 0.000000
0.794675 0.035316 0.000000
0.836331 0.032887 0.000000
0.877987 0.030457 0.000000
0.919643 0.028027 0.000000
0.961299 0.025597 0.000000
1.000000 0.023167 0.000000
1.000000 0.020737 0.000000
1.000000 0.018307 0.000000
1.000000 0.015877 0.000000
1.000000 0.013447 0.000000
1.000000 0.011017 0.000000
1.000000 0.008587 0.000000
0.000000 0.122257 0.000000
0.000000 0.119827 0.000000
0.000000 0.117397 0.000000
0.036695 0.114967 0.000000
0.078351 0.112537 0.000000
0.120007 0.110107 0.000000
0.161663 0.107677 0.000000
0.203319 0.105247 0.000000
0.244974 0.102817 0.000000
0.286630 0.100387 0.000000
0.328286 0.097957 0.000000
0.369942 0.095527 0.000000
0.411598 0.093097 0.000000
0.453254 0.090667 0.000000
0.494910 0.088237 0.000000
0.536566 0.085807 0.000000
0.578221 0.083377 0.000000
0.619877 0.080948 0.000000
0.661533 0.078518 0.000000
0.703189 0.076088 0.000000
0.744845 0.073658 0.000000
0.786501 0.071228 0.000000
0.828157 0.068798 0.000000
0.869812 0.066368 0.000000
0.911468 0.063938 0.000000
0.953124 0.061508 0.000000
0.994780 0.059078 0.000000
1.000000 0.056648 0.000000
1.000000 0.054218 0.000000
1.000000 0.051788 0.000000
1.000000 0.049358 0.000000
1.000000 0.046928 0.000000
1.000000 0.044498 0.000000
0.000000 0.158168 0.000000
0.000000 0.155738 0.000000
0.000000 0.153308 0.000000
0.028521 0.150878 0.000000
0.070177 0.148448 0.000000
0.111832 0.146018 0.000000
0.153488 0.143588 0.000000
0.195144 0.141158 0.000000
0.236800 0.138728 0.000000
0.278456 0.136298 0.000000
0.320112 0.133868 0.000000
0.361768 0.131439 0.000000
0.403423 0.129009 0.000000
0.445079 0.126579 0.000000
0.486735 0.124149 0.000000
0.528391 0.121719 0.000000
0.570047 0.119289 0.000000
0.611703 0.116859 0.000000
0.653359 0.114429 0.000000
0.695014 0.111999 0.000000
0.736670 0.109569 0.000000
0.778326 0.107139 0.000000
0.819982 0.104709 0.000000
0.861638 0.102279 0.000000
0.903294 0.099849 0.000000
0.944950 0.097419 0.000000
0.986606 0.094989 0.000000
1.000000 0.092559 0.000000
1.000000 0.090129 0.000000
1.000000 0.087700 0.000000
1.000000 0.085270 0.000000
1.000000 0.082840 0.000000
1.000000 0.080410 0.000000
0.000000 0.194079 0.000000
0.000000 0.191649 0.000000
0.000000 0.189219 0.000000
0.020346 0.186789 0.000000
0.062002 0.184359 0.000000
0.103658 0.181930 0.000000
0.145314 0.179500 0.000000
0.186970 0.177070 0.000000
0.228625 0.174640 0.000000
0.270281 0.172210 0.000000
0.311937 0.169780 0.000000
0.353593 0.167350 0.000000
0.395249 0.164920 0.000000
0.436905 0.162490 0.000000
0.478561 0.160060 0.000000
0.520217 0.157630 0.000000
0.561872 0.155200 0.000000
0.603528 0.152770 0.000000
0.645184 0.150340 0.000000
0.686840 0.147910 0.000000
0.728496 0.145480 0.000000
0.770152 0.143050 0.000000
0.811808 0.140620 0.000000
0.853463 0.138191 0.000000
0.895119 0.135761 0.000000
0.936775 0.133331 0.000000
0.978431 0.130901 0.000000
1.000000 0.128471 0.000000
1.000000 0.126041 0.000000
1.000000 0.123611 0.000000
1.000000 0.121181 0.000000
1.000000 0.118751 0.000000
1.000000 0.116321 0.000000
0.000000 0.229991 0.000000
0.000000 0.227561 0.000000
0.000000 0.225131 0.000000
0.012172 0.222701 0.000000
0.053828 0.220271 0.000000
0.095483 0.217841 0.000000
0.137139 0.215411 0.000000
0.178795 0.212981 0.000000
0.220451 0.210551 0.000000
0.262107 0.208121 0.000000
0.303763 0.205691 0.000000
0.345419 0.203261 0.000000
0.387074 0.200831 0.000000
0.428730 0.198401 0.000000
0.470386 0.195971 0.000000
0.512042 0.193541 0.000000
0.553698 0.191111 0.000000
0.595354 0.188682 0.000000
0.637010 0.186252 0.000000
0.678666 0.183822 0.000000
0.720321 0.181392 0.000000
0.761977 0.178962 0.000000
0.803633 0.176532 0.000000
0.845289 0.174102 0.000000
0.886945 0.171672 0.000000
0.928601 0.169242 0.000000
0.970257 0.166812 0.000000
1.000000 0.164382 0.000000
1.000000 0.161952 0.000000
1.000000 0.159522 0.000000
1.000000 0.157092 0.000000
1.000000 0.154662 0.000000
1.000000 0.152232 0.000000
0.000000 0.265902 0.000000
0.000000 0.263472 0.000000
0.000000 0.261042 0.000000
0.003997 0.258612 0.000000
0.045653 0.256182 0.000000
0.087309 0.253752 0.000000
0.128965 0.251322 0.000000
0.170621 0.248892 0.000000
0.212277 0.246462 0.000000
0.253932 0.244032 0.000000
0.295588 0.241602 0.000000
0.337244 0.239172 0.000000
0.378900 0.236743 0.000000
0.420556 0.234313 0.000000
0.462212 0.231883 0.000000
0.503868 0.229453 0.000000
0.545523 0.227023 0.000000
0.587179 0.224593 0.000000
0.628835 0.222163 0.000000
0.670491 0.219733 0.000000
0.712147 0.217303 0.000000
0.753803 0.214873 0.000000
0.795459 0.212443 0.000000
0.837114 0.210013 0.000000
0.878770 0.207583 0.000000
0.920426 0.205153 0.000000
0.962082 0.202723 0.000000
1.000000 0.200293 0.000000
1.000000 0.197863 0.000000
1.000000 0.195433 0.000000
1.000000 0.193004 0.000000
1.000000 0.190574 0.000000
1.000000 0.188144 0.000000
0.000000 0.301813 0.000000
0.000000 0.299383 0.000000
0.000000 0.296953 0.000000
0.000000 0.294523 0.000000
0.037479 0.292093 0.000000
0.079134 0.289663 0.000000
0.120790 0.287234 0.000000
0.162446 0.284804 0.000000
0.204102 0.282374 0.000000
0.245758 0.279944 0.000000
0.287414 0.277514 0.000000
0.329070 0.275084 0.000000
0.370725 0.272654 0.000000
0.412381 0.270224 0.000000
0.454037 0.267794 0.000000
0.495693 0.265364 0.000000
0.537349 0.262934 0.000000
0.579005 0.260504 0.000000
0.620661 0.258074 0.000000
0.662317 0.255644 0.000000
0.703972 0.253214 0.000000
0.745628 0.250784 0.000000
0.787284 0.248354 0.000000
0.828940 0.245924 0.000000
0.870596 0.243495 0.000000
0.912252 0.241065 0.000000
0.953908 0.238635 0.000000
0.995563 0.236205 0.000000
1.000000 0.233775 0.000000
1.000000 0.231345 0.000000
1.000000 0.228915 0.000000
1.000000 0.226485 0.000000
1.000000 0.224055 0.000000
0.000000 0.337725 0.000000
0.000000 0.335295 0.000000
0.000000 0.332865 0.000000
0.000000 0.330435 0.000000
0.029304 0.328005 0.000000
0.070960 0.325575 0.000000
0.112616 0.323145 0.000000
0.154272 0.320715 0.000000
0.195928 0.318285 0.000000
0.237583 0.315855 0.000000
0.279239 0.313425 0.000000
0.320895 0.310995 0.000000
0.362551 0.308565 0.000000
0.404207 0.306135 0.000000
0.445863 0.303705 0.000000
0.487519 0.301275 0.000000
0.529174 0.298845 0.000000
0.570830 0.296415 0.000000
0.612486 0.293986 0.000000
0.654142 0.291556 0.000000
0.695798 0.289126 0.000000
0.737454 0.286696 0.000000
0.779110 0.284266 0.000000
0.820766 0.281836 0.000000
0.862421 0.279406 0.000000
0.904077 0.276976 0.000000
0.945733 0.274546 0.000000
0.987389 0.272116 0.000000
1.000000 0.269686 0.000000
1.000000 0.267256 0.000000
1.000000 0.264826 0.000000
1.000000 0.262396 0.000000
1.000000 0.259966 0.000000
0.000000 0.373636 0.000000
0.000000 0.371206 0.000000
0.000000 0.368776 0.000000
0.000000 0.366346 0.000000
0.021130 0.363916 0.000000
0.062785 0.361486 0.000000
0.104441 0.359056 0.000000
0.146097 0.356626 0.000000
0.187753 0.354196 0.000000
0.229409 0.351766 0.000000
0.271065 0.349336 0.000000
0.312721 0.346906 0.000000
0.354377 0.344477 0.000000
0.396032 0.342047 0.000000
0.437688 0.339617 0.000000
0.479344 0.337187 0.000000
0.521000 0.334757 0.000000
0.562656 0.332327 0.000000
0.604312 0.329897 0.000000
0.645968 0.327467 0.000000
0.687623 0.325037 0.000000
0.729279 0.322607 0.000000
0.770935 0.320177 0.000000
0.812591 0.317747 0.000000
0.854247 0.315317 0.000000
0.895903 0.312887 0.000000
0.937559 0.310457 0.000000
0.979214 0.308027 0.000000
1.000000 0.305597 0.000000
1.000000 0.303167 0.000000
1.000000 0.300738 0.000000
1.000000 0.298308 0.000000
1.000000 0.295878 0.000000
0.000000 0.409547 0.000000
0.000000 0.407117 0.000000
0.000000 0.404687 0.000000
0.000000 0.402257 0.000000
0.012955 0.399827 0.000000
0.054611 0.397397 0.000000
0.096267 0.394967 0.000000
0.137923 0.392538 0.000000
0.179579 0.390108 0.000000
0.221234 0.387678 0.000000
0.262890 0.385248 0.000000
0.304546 0.382818 0.000000
0.346202 0.380388 0.000000
0.387858 0.377958 0.000000
0.429514 0.375528 0.000000
0.471170 0.373098 0.000000
0.512825 0.370668 0.000000
0.554481 0.368238 0.000000
0.596137 0.365808 0.000000
0.637793 0.363378 0.000000
0.679449 0.360948 0.000000
0.721105 0.358518 0.000000
0.762761 0.356088 0.000000
0.804417 0.353658 0.000000
0.846072 0.351228 0.000000
0.887728 0.348799 0.000000
0.929384 0.346369 0.000000
0.971040 0.343939 0.000000
1.000000 0.341509 0.000000
1.000000 0.339079 0.000000
1.000000 0.336649 0.000000
1.000000 0.334219 0.000000
1.000000 0.331789 0.000000
0.000000 0.445458 0.000000
0.000000 0.443029 0.000000
0.000000 0.440599 0.000000
0.000000 0.438169 0.000000
0.004781 0.435739 0.000000
0.046436 0.433309 0.000000
0.088092 0.430879 0.000000
0.129748 0.428449 0.000000
0.171404 0.426019 0.000000
0.213060 0.423589 0.000000
0.254716 0.421159 0.000000
0.296372 0.418729 0.000000
0.338028 0.416299 0.000000
0.379683 0.413869 0.000000
0.421339 0.411439 0.000000
0.462995 0.409009 0.000000
0.504651 0.406579 0.000000
0.546307 0.404149 0.000000
0.587963 0.401719 0.000000
0.629619 0.399290 0.000000
0.671274 0.396860 0.000000
0.712930 0.394430 0.000000
0.754586 0.392000 0.000000
0.796242 0.389570 0.000000
0.837898 0.387140 0.000000
0.879554 0.384710 0.000000
0.921210 0.382280 0.000000
0.962865 0.379850 0.000000
1.000000 0.377420 0.000000
1.000000 0.374990 0.000000
1.000000 0.372560 0.000000
1.000000 0.370130 0.000000
1.000000 0.367700 0.000000
0.000000 0.481370 0.000000
0.000000 0.478940 0.000000
0.000000 0.476510 0.000000
0.000000 0.474080 0.000000
0.000000 0.471650 0.000000
0.038262 0.469220 0.000000
0.079918 0.466790 0.000000
0.121574 0.464360 0.000000
0.163230 0.461930 0.000000
0.204885 0.459500 0.000000
0.246541 0.457070 0.000000
0.288197 0.454640 0.000000
0.329853 0.452210 0.000000
0.371509 0.449781 0.000000
0.413165 0.447351 0.000000
0.454821 0.444921 0.000000
0.496477 0.442491 0.000000
0.538132 0.440061 0.000000
0.579788 0.437631 0.000000
0.621444 0.435201 0.000000
0.663100 0.432771 0.000000
0.704756 0.430341 0.000000
0.746412 0.427911 0.000000
0.788068 0.425481 0.000000
0.829723 0.423051 0.000000
0.871379 0.420621 0.000000
0.913035 0.418191 0.000000
0.954691 0.415761 0.000000
0.996347 0.413331 0.000000
1.000000 0.410901 0.000000
1.000000 0.408471 0.000000
1.000000 0.406042 0.000000
1.000000 0.403612 0.000000
0.000000 0.517281 0.000000
0.000000 0.514851 0.000000
0.000000 0.512421 0.000000
0.000000 0.509991 0.000000
0.000000 0.507561 0.000000
0.030088 0.505131 0.000000
0.071743 0.502701 0.000000
0.113399 0.500272 0.000000
0.155055 0.497842 0.000000
0.196711 0.495412 0.000000
0.238367 0.492982 0.000000
0.280023 0.490552 0.000000
0.321679 0.488122 0.000000
0.363334 0.485692 0.000000
0.404990 0.483262 0.000000
0.446646 0.480832 0.000000
0.488302 0.478402 0.000000
0.529958 0.475972 0.000000
0.571614 0.473542 0.000000
0.613270 0.471112 0.000000
0.654925 0.468682 0.000000
0.696581 0.466252 0.000000
0.738237 0.463822 0.000000
0.779893 0.461392 0.000000
0.821549 0.458962 0.000000
0.863205 0.456533 0.000000
0.904861 0.454103 0.000000
0.946517 0.451673 0.000000
0.988172 0.449243 0.000000
1.000000 0.446813 0.000000
1.000000 0.444383 0.000000
1.000000 0.441953 0.000000
1.000000 0.439523 0.000000
0.000000 0.553192 0.000000
0.000000 0.550762 0.000000
0.000000 0.548333 0.000000
0.000000 0.545903 0.000000
0.000000 0.543473 0.000000
0.021913 0.541043 0.000000
0.063569 0.538613 0.000000
0.105225 0.536183 0.000000
0.146881 0.533753 0.000000
0.188536 0.531323 0.000000
0.230192 0.528893 0.000000
0.271848 0.526463 0.000000
0.313504 0.524033 0.000000
0.355160 0.521603 0.000000
0.396816 0.519173 0.000000
0.438472 0.516743 0.000000
0.480128 0.514313 0.000000
0.521783 0.511883 0.000000
0.563439 0.509453 0.000000
0.605095 0.507023 0.000000
0.646751 0.504594 0.000000
0.688407 0.502164 0.000000
0.730063 0.499734 0.000000
0.771719 0.497304 0.000000
0.813374 0.494874 0.000000
0.855030 0.492444 0.000000
0.896686 0.490014 0.000000
0.938342 0.487584 0.000000
0.979998 0.485154 0.000000
1.000000 0.482724 0.000000
1.000000 0.480294 0.000000
1.000000 0.477864 0.000000
1.000000 0.475434 0.000000
0.000000 0.589104 0.000000
0.000000 0.586674 0.000000
0.000000 0.584244 0.000000
0.000000 0.581814 0.000000
0.000000 0.579384 0.000000
0.013739 0.576954 0.000000
0.055394 0.574524 0.000000
0.097050 0.572094 0.000000
0.138706 0.569664 0.000000
0.180362 0.567234 0.000000
0.222018 0.564804 0.000000
0.263674 0.562374 0.000000
0.305330 0.559944 0.000000
0.346985 0.557514 0.000000
0.388641 0.555085 0.000000
0.430297 0.552655 0.000000
0.471953 0.550225 0.000000
0.513609 0.547795 0.000000
0.555265 0.545365 0.000000
0.596921 0.542935 0.000000
0.638576 0.540505 0.000000
0.680232 0.538075 0.000000
0.721888 0.535645 0.000000
0.763544 0.533215 0.000000
0.805200 0.530785 0.000000
0.846856 0.528355 0.000000
0.888512 0.525925 0.000000
0.930168 0.523495 0.000000
0.971823 0.521065 0.000000
1.000000 0.518635 0.000000
1.000000 0.516205 0.000000
1.000000 0.513775 0.000000
1.000000 0.511346 0.000000
0.000000 0.625015 0.000000
0.000000 0.622585 0.000000
0.000000 0.620155 0.000000
0.000000 0.617725 0.000000
0.000000 0.615295 0.000000
0.005564 0.612865 0.000000
0.047220 0.610435 0.000000
0.088876 0.608005 0.000000
0.130532 0.605576 0.000000
0.172187 0.603146 0.000000
0.213843 0.600716 0.000000
0.255499 0.598286 0.000000
0.297155 0.595856 0.000000
0.338811 0.593426 0.000000
0.380467 0.590996 0.000000
0.422123 0.588566 0.000000
0.463779 0.586136 0.000000
0.505434 0.583706 0.000000
0.547090 0.581276 0.000000
0.588746 0.578846 0.000000
0.630402 0.576416 0.000000
0.672058 0.573986 0.000000
0.713714 0.571556 0.000000
0.755370 0.569126 0.000000
0.797025 0.566696 0.000000
0.838681 0.564266 0.000000
0.880337 0.561837 0.000000
0.921993 0.559407 0.000000
0.963649 0.556977 0.000000
1.000000 0.554547 0.000000
1.000000 0.552117 0.000000
1.000000 0.549687 0.000000
1.000000 0.547257 0.000000
0.000000 0.660926 0.000000
0.000000 0.658496 0.000000
0.000000 0.656067 0.000000
0.000000 0.653637 0.000000
0.000000 0.651207 0.000000
0.000000 0.648777 0.000000
0.039045 0.646347 0.000000
0.080701 0.643917 0.000000
0.122357 0.641487 0.000000
0.164013 0.639057 0.000000
0.205669 0.636627 0.000000
0.247325 0.634197 0.000000
0.288981 0.631767 0.000000
0.330636 0.629337 0.000000
0.372292 0.626907 0.000000
0.413948 0.624477 0.000000
0.455604 0.622047 0.000000
0.497260 0.619617 0.000000
0.538916 0.617187 0.000000
0.580572 0.614757 0.000000
0.622228 0.612328 0.000000
0.663883 0.609898 0.000000
0.705539 0.607468 0.000000
0.747195 0.605038 0.000000
0.788851 0.602608 0.000000
0.830507 0.600178 0.000000
0.872163 0.597748 0.000000
0.913819 0.595318 0.000000
0.955474 0.592888 0.000000
0.997130 0.590458 0.000000
1.000000 0.588028 0.000000
1.000000 0.585598 0.000000
1.000000 0.583168 0.000000
0.000000 0.696838 0.000000
0.000000 0.694408 0.000000
0.000000 0.691978 0.000000
0.000000 0.689548 0.000000
0.000000 0.687118 0.000000
0.000000 0.684688 0.000000
0.030871 0.682258 0.000000
0.072527 0.679828 0.000000
0.114183 0.677398 0.000000
0.155839 0.674968 0.000000
0.197494 0.672538 0.000000
0.239150 0.670108 0.000000
0.280806 0.667678 0.000000
0.322462 0.665248 0.000000
0.364118 0.662819 0.000000
0.405774 0.660389 0.000000
0.447430 0.657959 0.000000
0.489085 0.655529 0.000000
0.530741 0.653099 0.000000
0.572397 0.650669 0.000000
0.614053 0.648239 0.000000
0.655709 0.645809 0.000000
0.697365 0.643379 0.000000
0.739021 0.640949 0.000000
0.780676 0.638519 0.000000
0.822332 0.636089 0.000000
0.863988 0.633659 0.000000
0.905644 0.631229 0.000000
0.947300 0.628799 0.000000
0.988956 0.626369 0.000000
1.000000 0.623939 0.000000
1.000000 0.621509 0.000000
1.000000 0.619080 0.000000
0.000000 0.732749 0.000000
0.000000 0.730319 0.000000
0.000000 0.727889 0.000000
0.000000 0.725459 0.000000
0.000000 0.723029 0.000000
0.000000 0.720599 0.000000
0.022696 0.718169 0.000000
0.064352 0.715739 0.000000
0.106008 0.713309 0.000000
0.147664 0.710880 0.000000
0.189320 0.708450 0.000000
0.230976 0.706020 0.000000
0.272632 0.703590 0.000000
0.314287 0.701160 0.000000
0.355943 0.698730 0.000000
0.397599 0.696300 0.000000
0.439255 0.693870 0.000000
0.480911 0.691440 0.000000
0.522567 0.689010 0.000000
0.564223 0.686580 0.000000
0.605879 0.684150 0.000000
0.647534 0.681720 0.000000
0.689190 0.679290 0.000000
0.730846 0.676860 0.000000
0.772502 0.674430 0.000000
0.814158 0.672000 0.000000
0.855814 0.669570 0.000000
0.897470 0.667141 0.000000
0.939125 0.664711 0.000000
0.980781 0.662281 0.000000
1.000000 0.659851 0.000000
1.000000 0.657421 0.000000
1.000000 0.654991 0.000000
0.000000 0.768660 0.000000
0.000000 0.766230 0.000000
0.000000 0.763800 0.000000
0.000000 0.761371 0.000000
0.000000 0.758941 0.000000
0.000000 0.756511 0.000000
0.014522 0.754081 0.000000
0.056178 0.751651 0.000000
0.097834 0.749221 0.000000
0.139490 0.746791 0.000000
0.181145 0.744361 0.000000
0.222801 0.741931 0.000000
0.264457 0.739501 0.000000
0.306113 0.737071 0.000000
0.347769 0.734641 0.000000
0.389425 0.732211 0.000000
0.431081 0.729781 0.000000
0.472736 0.727351 0.000000
0.514392 0.724921 0.000000
0.556048 0.722491 0.000000
0.597704 0.720061 0.000000
0.639360 0.717632 0.000000
0.681016 0.715202 0.000000
0.722672 0.712772 0.000000
0.764328 0.710342 0.000000
0.805983 0.707912 0.000000
0.847639 0.705482 0.000000
0.889295 0.703052 0.000000
0.930951 0.700622 0.000000
0.972607 0.698192 0.000000
1.000000 0.695762 0.000000
1.000000 0.693332 0.000000
1.000000 0.690902 0.000000
0.000000 0.804572 0.000000
0.000000 0.802142 0.000000
0.000000 0.799712 0.000000
0.000000 0.797282 0.000000
0.000000 0.794852 0.000000
0.000000 0.792422 0.000000
0.006347 0.789992 0.000000
0.048003 0.787562 0.000000
0.089659 0.785132 0.000000
0.131315 0.782702 0.000000
0.172971 0.780272 0.000000
0.214627 0.777842 0.000000
0.256283 0.775412 0.000000
0.297939 0.772982 0.000000
0.339594 0.770552 0.000000
0.381250 0.768123 0.000000
0.422906 0.765693 0.000000
0.464562 0.763263 0.000000
0.506218 0.760833 0.000000
0.547874 0.758403 0.000000
0.589530 0.755973 0.000000
0.631185 0.753543 0.000000
0.672841 0.751113 0.000000
0.714497 0.748683 0.000000
0.756153 0.746253 0.000000
0.797809 0.743823 0.000000
0.839465 0.741393 0.000000
0.881121 0.738963 0.000000
0.922776 0.736533 0.000000
0.964432 0.734103 0.000000
1.000000 0.731673 0.000000
1.000000 0.729243 0.000000
1.000000 0.726813 0.000000
0.000000 0.840483 0.000000
0.000000 0.838053 0.000000
0.000000 0.835623 0.000000
0.000000 0.833193 0.000000
0.000000 0.830763 0.000000
0.000000 0.828333 0.000000
0.000000 0.825903 0.000000
0.039829 0.823473 0.000000
0.081485 0.821043 0.000000
0.123141 0.818614 0.000000
0.164796 0.816184 0.000000
0.206452 0.813754 0.000000
0.248108 0.811324 0.000000
0.289764 0.808894 0.000000
0.331420 0.806464 0.000000
0.373076 0.804034 0.000000
0.414732 0.801604 0.000000
0.456387 0.799174 0.000000
0.498043 0.796744 0.000000
0.539699 0.794314 0.000000
0.581355 0.791884 0.000000
0.623011 0.789454 0.000000
0.664667 0.787024 0.000000
0.706323 0.784594 0.000000
0.747979 0.782164 0.000000
0.789634 0.779734 0.000000
0.831290 0.777304 0.000000
0.872946 0.774875 0.000000
0.914602 0.772445 0.000000
0.956258 0.770015 0.000000
0.997914 0.767585 0.000000
1.000000 0.765155 0.000000
1.000000 0.762725 0.000000
0.000000 0.876394 0.000000
0.000000 0.873964 0.000000
0.000000 0.871534 0.000000
0.000000 0.869104 0.000000
0.000000 0.866675 0.000000
0.000000 0.864245 0.000000
0.000000 0.861815 0.000000
0.031654 0.859385 0.000000
0.073310 0.856955 0.000000
0.114966 0.854525 0.000000
0.156622 0.852095 0.000000
0.198278 0.849665 0.000000
0.239934 0.847235 0.000000
0.281590 0.844805 0.000000
0.323245 0.842375 0.000000
0.364901 0.839945 0.000000
0.406557 0.837515 0.000000
0.448213 0.835085 0.000000
0.489869 0.832655 0.000000
0.531525 0.830225 0.000000
0.573181 0.827795 0.000000
0.614836 0.825365 0.000000
0.656492 0.822936 0.000000
0.698148 0.820506 0.000000
0.739804 0.818076 0.000000
0.781460 0.815646 0.000000
0.823116 0.813216 0.000000
