fexer/Resources/LUTs/golden_hour.cube
TITLE "Golden Hour"
LUT_3D_SIZE 33
DOMAIN_MIN 0.0 0.0 0.0
DOMAIN_MAX 1.0 1.0 1.0
0.154529 0.107093 0.033000
0.186312 0.106312 0.032479
0.218095 0.105530 0.031958
0.249877 0.104748 0.031437
0.281660 0.103967 0.030916
0.313443 0.103185 0.030395
0.345225 0.102404 0.029874
0.377008 0.101622 0.029353
0.408791 0.100841 0.028832
0.440574 0.100059 0.028311
0.472356 0.099278 0.027790
0.504139 0.098496 0.027269
0.535922 0.097715 0.026748
0.567704 0.096933 0.026227
0.599487 0.096151 0.025706
0.631270 0.095370 0.025185
0.663052 0.094588 0.024663
0.694835 0.093807 0.024142
0.726618 0.093025 0.023621
0.758401 0.092244 0.023100
0.790183 0.091462 0.022579
0.821966 0.090681 0.022058
0.853749 0.089899 0.021537
0.885978 0.089266 0.021016
0.918542 0.088745 0.020495
0.951106 0.088224 0.019974
0.983670 0.087703 0.019453
1.000000 0.087182 0.018932
1.000000 0.086661 0.018411
1.000000 0.086140 0.017890
1.000000 0.085619 0.017369
1.000000 0.085098 0.016848
1.000000 0.084577 0.016327
0.150147 0.137549 0.031247
0.181930 0.136768 0.030726
0.213713 0.135986 0.030205
0.245495 0.135205 0.029684
0.277278 0.134423 0.029163
0.309061 0.133641 0.028642
0.340844 0.132860 0.028121
0.372626 0.132078 0.027600
0.404409 0.131297 0.027079
0.436192 0.130515 0.026558
0.467974 0.129734 0.026037
0.499757 0.128952 0.025516
0.531540 0.128171 0.024995
0.563322 0.127389 0.024474
0.595105 0.126608 0.023953
0.626888 0.125826 0.023432
0.658671 0.125044 0.022911
0.690453 0.124263 0.022390
0.722236 0.123481 0.021869
0.754019 0.122700 0.021348
0.786532 0.122162 0.020827
0.819096 0.121641 0.020306
0.851661 0.121120 0.019785
0.884225 0.120599 0.019263
0.916789 0.120078 0.018742
0.949353 0.119557 0.018221
0.981918 0.119036 0.017700
1.000000 0.118515 0.017179
1.000000 0.117994 0.016658
1.000000 0.117473 0.016137
1.000000 0.116952 0.015616
1.000000 0.116431 0.015095
1.000000 0.115909 0.014574
0.145765 0.168005 0.029494
0.177548 0.167224 0.028973
0.209331 0.166442 0.028452
0.241113 0.165661 0.027931
0.272896 0.164879 0.027410
0.304679 0.164098 0.026889
0.336462 0.163316 0.026368
0.368244 0.162534 0.025847
0.400027 0.161753 0.025326
0.431810 0.160971 0.024805
0.463592 0.160190 0.024284
0.495375 0.159408 0.023763
0.527158 0.158627 0.023242
0.558940 0.157845 0.022721
0.590723 0.157064 0.022200
0.622506 0.156282 0.021679
0.654522 0.155578 0.021158
0.687087 0.155057 0.020637
0.719651 0.154536 0.020116
0.752215 0.154015 0.019595
0.784779 0.153494 0.019074
0.817344 0.152973 0.018553
0.849908 0.152452 0.018032
0.882472 0.151931 0.017511
0.915036 0.151410 0.016990
0.947601 0.150889 0.016469
0.980165 0.150368 0.015948
1.000000 0.149847 0.015427
1.000000 0.149326 0.014906
1.000000 0.148805 0.014385
1.000000 0.148284 0.013863
1.000000 0.147763 0.013342
1.000000 0.147242 0.012821
0.141383 0.198461 0.027742
0.173166 0.197680 0.027221
0.204949 0.196898 0.026700
0.236731 0.196117 0.026179
0.268514 0.195335 0.025658
0.300297 0.194554 0.025136
0.332080 0.193772 0.024615
0.363862 0.192991 0.024094
0.395645 0.192209 0.023573
0.427428 0.191427 0.023052
0.459210 0.190646 0.022531
0.490993 0.189864 0.022010
0.522776 0.189083 0.021489
0.555077 0.188474 0.020968
0.587641 0.187953 0.020447
0.620205 0.187432 0.019926
0.652770 0.186911 0.019405
0.685334 0.186390 0.018884
0.717898 0.185869 0.018363
0.750462 0.185348 0.017842
0.783027 0.184827 0.017321
0.815591 0.184306 0.016800
0.848155 0.183785 0.016279
0.880719 0.183264 0.015758
0.913284 0.182743 0.015237
0.945848 0.182222 0.014716
0.978412 0.181701 0.014195
1.000000 0.181180 0.013674
1.000000 0.180659 0.013153
1.000000 0.180138 0.012632
1.000000 0.179617 0.012111
1.000000 0.179096 0.011590
1.000000 0.178574 0.011069
0.137001 0.228918 0.025989
0.168784 0.228136 0.025468
0.200567 0.227354 0.024947
0.232350 0.226573 0.024426
0.264132 0.225791 0.023905
0.295915 0.225010 0.023384
0.327698 0.224228 0.022863
0.359480 0.223447 0.022342
0.391263 0.222665 0.021821
0.423067 0.221891 0.021300
0.455631 0.221370 0.020779
0.488196 0.220849 0.020258
0.520760 0.220328 0.019736
0.553324 0.219807 0.019215
0.585888 0.219286 0.018694
0.618453 0.218765 0.018173
0.651017 0.218243 0.017652
0.683581 0.217722 0.017131
0.716145 0.217201 0.016610
0.748710 0.216680 0.016089
0.781274 0.216159 0.015568
0.813838 0.215638 0.015047
0.846402 0.215117 0.014526
0.878967 0.214596 0.014005
0.911531 0.214075 0.013484
0.944095 0.213554 0.012963
0.976659 0.213033 0.012442
1.000000 0.212512 0.011921
1.000000 0.211991 0.011400
1.000000 0.211470 0.010879
1.000000 0.210949 0.010358
1.000000 0.210428 0.009837
1.000000 0.209907 0.009316
0.132619 0.259374 0.024236
0.164402 0.258592 0.023715
0.196185 0.257811 0.023194
0.227968 0.257029 0.022673
0.259750 0.256247 0.022152
0.291533 0.255466 0.021631
0.323622 0.254786 0.021110
0.356186 0.254265 0.020589
0.388750 0.253744 0.020068
0.421314 0.253223 0.019547
0.453879 0.252702 0.019026
0.486443 0.252181 0.018505
0.519007 0.251660 0.017984
0.551571 0.251139 0.017463
0.584136 0.250618 0.016942
0.616700 0.250097 0.016421
0.649264 0.249576 0.015900
0.681828 0.249055 0.015379
0.714393 0.248534 0.014858
0.746957 0.248013 0.014336
0.779521 0.247492 0.013815
0.812085 0.246971 0.013294
0.844650 0.246450 0.012773
0.877214 0.245929 0.012252
0.909778 0.245408 0.011731
0.942342 0.244887 0.011210
0.974907 0.244366 0.010689
1.000000 0.243845 0.010168
1.000000 0.243324 0.009647
1.000000 0.242803 0.009126
1.000000 0.242282 0.008605
1.000000 0.241760 0.008084
1.000000 0.241239 0.007563
0.128237 0.289830 0.022483
0.160020 0.289048 0.021962
0.191803 0.288267 0.021441
0.224176 0.287682 0.020920
0.256740 0.287161 0.020399
0.289305 0.286640 0.019878
0.321869 0.286119 0.019357
0.354433 0.285598 0.018836
0.386997 0.285077 0.018315
0.419562 0.284556 0.017794
0.452126 0.284035 0.017273
0.484690 0.283514 0.016752
0.517254 0.282993 0.016231
0.549819 0.282472 0.015710
0.582383 0.281951 0.015189
0.614947 0.281430 0.014668
0.647511 0.280908 0.014147
0.680076 0.280387 0.013626
0.712640 0.279866 0.013105
0.745204 0.279345 0.012584
0.777768 0.278824 0.012063
0.810333 0.278303 0.011542
0.842897 0.277782 0.011021
0.875461 0.277261 0.010500
0.908025 0.276740 0.009979
0.940590 0.276219 0.009457
0.973154 0.275698 0.008936
1.000000 0.275177 0.008415
1.000000 0.274656 0.007894
1.000000 0.274135 0.007373
1.000000 0.273614 0.006852
1.000000 0.273093 0.006331
1.000000 0.272572 0.005810
0.124731 0.320577 0.020731
0.157295 0.320056 0.020209
0.189859 0.319535 0.019688
0.222423 0.319014 0.019167
0.254988 0.318493 0.018646
0.287552 0.317972 0.018125
0.320116 0.317451 0.017604
0.352680 0.316930 0.017083
0.385245 0.316409 0.016562
0.417809 0.315888 0.016041
0.450373 0.315367 0.015520
0.482937 0.314846 0.014999
0.515501 0.314325 0.014478
0.548066 0.313804 0.013957
0.580630 0.313283 0.013436
0.613194 0.312762 0.012915
0.645758 0.312241 0.012394
0.678323 0.311720 0.011873
0.710887 0.311199 0.011352
0.743451 0.310678 0.010831
0.776015 0.310157 0.010310
0.808580 0.309636 0.009789
0.841144 0.309115 0.009268
0.873708 0.308594 0.008747
0.906272 0.308073 0.008226
0.938837 0.307552 0.007705
0.971401 0.307031 0.007184
1.000000 0.306510 0.006663
1.000000 0.305989 0.006142
1.000000 0.305468 0.005621
1.000000 0.304947 0.005100
1.000000 0.304425 0.004579
1.000000 0.303904 0.004057
0.122978 0.351910 0.018978
0.155542 0.351389 0.018457
0.188106 0.350868 0.017936
0.220670 0.350347 0.017415
0.253235 0.349826 0.016894
0.285799 0.349305 0.016373
0.318363 0.348784 0.015852
0.350927 0.348263 0.015330
0.383492 0.347742 0.014809
0.416056 0.347221 0.014288
0.448620 0.346700 0.013767
0.481184 0.346179 0.013246
0.513749 0.345658 0.012725
0.546313 0.345137 0.012204
0.578877 0.344616 0.011683
0.611441 0.344094 0.011162
0.644006 0.343573 0.010641
0.676570 0.343052 0.010120
0.709134 0.342531 0.009599
0.741698 0.342010 0.009078
0.774263 0.341489 0.008557
0.806827 0.340968 0.008036
0.839391 0.340447 0.007515
0.871955 0.339926 0.006994
0.904520 0.339405 0.006473
0.937084 0.338884 0.005952
0.969648 0.338363 0.005431
1.000000 0.337842 0.004910
1.000000 0.337321 0.004389
1.000000 0.336800 0.003868
1.000000 0.336279 0.003347
1.000000 0.335758 0.002826
1.000000 0.335237 0.002305
0.121225 0.383242 0.017225
0.153789 0.382721 0.016704
0.186353 0.382200 0.016183
0.218918 0.381679 0.015662
0.251482 0.381158 0.015141
0.284046 0.380637 0.014620
0.316610 0.380116 0.014099
0.349175 0.379595 0.013578
0.381739 0.379074 0.013057
0.414303 0.378553 0.012536
0.446867 0.378032 0.012015
0.479432 0.377511 0.011494
0.511996 0.376990 0.010973
0.544560 0.376469 0.010452
0.577124 0.375948 0.009930
0.609689 0.375427 0.009409
0.642253 0.374906 0.008888
0.674817 0.374385 0.008367
0.707381 0.373864 0.007846
0.739946 0.373343 0.007325
0.772510 0.372822 0.006804
0.805074 0.372301 0.006283
0.837638 0.371780 0.005762
0.870203 0.371259 0.005241
0.902767 0.370738 0.004720
0.935331 0.370217 0.004199
0.967895 0.369696 0.003678
1.000000 0.369175 0.003157
1.000000 0.368654 0.002636
1.000000 0.368133 0.002115
1.000000 0.367612 0.001594
1.000000 0.367090 0.001073
1.000000 0.366569 0.000552
0.119472 0.414575 0.015472
0.152036 0.414054 0.014951
0.184601 0.413533 0.014430
0.217165 0.413012 0.013909
0.249729 0.412491 0.013388
0.282293 0.411970 0.012867
0.314858 0.411449 0.012346
0.347422 0.410928 0.011825
0.379986 0.410407 0.011304
0.412550 0.409886 0.010783
0.445115 0.409365 0.010262
0.477679 0.408844 0.009741
0.510243 0.408323 0.009220
0.542807 0.407802 0.008699
0.575372 0.407281 0.008178
0.607936 0.406759 0.007657
0.640500 0.406238 0.007136
0.673064 0.405717 0.006615
0.705629 0.405196 0.006094
0.738193 0.404675 0.005573
0.770757 0.404154 0.005052
0.803321 0.403633 0.004530
0.835886 0.403112 0.004009
0.868450 0.402591 0.003488
0.901014 0.402070 0.002967
0.933578 0.401549 0.002446
0.966143 0.401028 0.001925
0.998707 0.400507 0.001404
1.000000 0.399986 0.000883
1.000000 0.399465 0.000362
1.000000 0.398944 0.000000
1.000000 0.398423 0.000000
1.000000 0.397902 0.000000
0.117719 0.445907 0.013719
0.150284 0.445386 0.013198
0.182848 0.444865 0.012677
0.215412 0.444344 0.012156
0.247976 0.443823 0.011635
0.280541 0.443302 0.011114
0.313105 0.442781 0.010593
0.345669 0.442260 0.010072
0.378233 0.441739 0.009551
0.410798 0.441218 0.009030
0.443362 0.440697 0.008509
0.475926 0.440176 0.007988
0.508490 0.439655 0.007467
0.541055 0.439134 0.006946
0.573619 0.438613 0.006425
0.606183 0.438092 0.005904
0.638747 0.437571 0.005383
0.671312 0.437050 0.004862
0.703876 0.436529 0.004341
0.736440 0.436008 0.003820
0.769004 0.435487 0.003299
0.801569 0.434966 0.002778
0.834133 0.434445 0.002257
0.866697 0.433924 0.001736
0.899261 0.433403 0.001215
0.931826 0.432882 0.000694
0.964390 0.432361 0.000173
0.996954 0.431840 0.000000
1.000000 0.431319 0.000000
1.000000 0.430798 0.000000
1.000000 0.430277 0.000000
1.000000 0.429755 0.000000
1.000000 0.429234 0.000000
0.115967 0.477240 0.011967
0.148531 0.476719 0.011446
0.181095 0.476198 0.010925
0.213659 0.475677 0.010403
0.246224 0.475156 0.009882
0.278788 0.474635 0.009361
0.311352 0.474114 0.008840
0.343916 0.473593 0.008319
0.376481 0.473072 0.007798
0.409045 0.472551 0.007277
0.441609 0.472030 0.006756
0.474173 0.471509 0.006235
0.506738 0.470988 0.005714
0.539302 0.470467 0.005193
0.571866 0.469946 0.004672
0.604430 0.469424 0.004151
0.636995 0.468903 0.003630
0.669559 0.468382 0.003109
0.702123 0.467861 0.002588
0.734687 0.467340 0.002067
0.767252 0.466819 0.001546
0.799816 0.466298 0.001025
0.832380 0.465777 0.000504
0.864944 0.465256 0.000000
0.897509 0.464735 0.000000
0.930073 0.464214 0.000000
0.962637 0.463693 0.000000
0.995201 0.463172 0.000000
1.000000 0.462651 0.000000
1.000000 0.462130 0.000000
1.000000 0.461609 0.000000
1.000000 0.461088 0.000000
1.000000 0.460567 0.000000
0.114214 0.508572 0.010214
0.146778 0.508051 0.009693
0.179342 0.507530 0.009172
0.211907 0.507009 0.008651
0.244471 0.506488 0.008130
0.277035 0.505967 0.007609
0.309599 0.505446 0.007088
0.342164 0.504925 0.006567
0.374728 0.504404 0.006046
0.407292 0.503883 0.005525
0.439856 0.503362 0.005003
0.472421 0.502841 0.004482
0.504985 0.502320 0.003961
0.537549 0.501799 0.003440
0.570113 0.501278 0.002919
0.602678 0.500757 0.002398
0.635242 0.500236 0.001877
0.667806 0.499715 0.001356
0.700370 0.499194 0.000835
0.732935 0.498673 0.000314
0.765499 0.498152 0.000000
0.798063 0.497631 0.000000
0.830627 0.497110 0.000000
0.863192 0.496589 0.000000
0.895756 0.496068 0.000000
0.928320 0.495547 0.000000
0.960884 0.495026 0.000000
0.993449 0.494505 0.000000
1.000000 0.493984 0.000000
1.000000 0.493463 0.000000
1.000000 0.492941 0.000000
1.000000 0.492420 0.000000
1.000000 0.491899 0.000000
0.112461 0.539905 0.008461
0.145025 0.539384 0.007940
0.177590 0.538863 0.007419
0.210154 0.538342 0.006898
0.242718 0.537821 0.006377
0.275282 0.537300 0.005856
0.307847 0.536779 0.005335
0.340411 0.536258 0.004814
0.372975 0.535737 0.004293
0.405539 0.535216 0.003772
0.438104 0.534695 0.003251
0.470668 0.534174 0.002730
0.503232 0.533653 0.002209
0.535796 0.533132 0.001688
0.568361 0.532611 0.001167
0.600925 0.532089 0.000646
0.633489 0.531568 0.000125
0.666053 0.531047 0.000000
0.698618 0.530526 0.000000
0.731182 0.530005 0.000000
0.763746 0.529484 0.000000
0.796310 0.528963 0.000000
0.828874 0.528442 0.000000
0.861439 0.527921 0.000000
0.894003 0.527400 0.000000
0.926567 0.526879 0.000000
0.959131 0.526358 0.000000
0.991696 0.525837 0.000000
1.000000 0.525316 0.000000
1.000000 0.524795 0.000000
1.000000 0.524274 0.000000
1.000000 0.523753 0.000000
1.000000 0.523232 0.000000
0.110708 0.571237 0.006708
0.143272 0.570716 0.006187
0.175837 0.570195 0.005666
0.208401 0.569674 0.005145
0.240965 0.569153 0.004624
0.273529 0.568632 0.004103
0.306094 0.568111 0.003582
0.338658 0.567590 0.003061
0.371222 0.567069 0.002540
0.403786 0.566548 0.002019
0.436351 0.566027 0.001498
0.468915 0.565506 0.000977
0.501479 0.564985 0.000456
0.534043 0.564464 0.000000
0.566608 0.563943 0.000000
0.599172 0.563422 0.000000
0.631736 0.562901 0.000000
0.664300 0.562380 0.000000
0.696865 0.561859 0.000000
0.729429 0.561338 0.000000
0.761993 0.560817 0.000000
0.794557 0.560296 0.000000
0.827122 0.559775 0.000000
0.859686 0.559254 0.000000
0.892250 0.558733 0.000000
0.924814 0.558212 0.000000
0.957379 0.557691 0.000000
0.989943 0.557170 0.000000
1.000000 0.556649 0.000000
1.000000 0.556128 0.000000
1.000000 0.555606 0.000000
1.000000 0.555085 0.000000
1.000000 0.554564 0.000000
0.108955 0.602570 0.004955
0.141520 0.602049 0.004434
0.174084 0.601528 0.003913
0.206648 0.601007 0.003392
0.239212 0.600486 0.002871
0.271777 0.599965 0.002350
0.304341 0.599444 0.001829
0.336905 0.598923 0.001308
0.369469 0.598402 0.000787
0.402034 0.597881 0.000266
0.434598 0.597360 0.000000
0.467162 0.596839 0.000000
0.499726 0.596318 0.000000
0.532291 0.595797 0.000000
0.564855 0.595275 0.000000
0.597419 0.594754 0.000000
0.629983 0.594233 0.000000
0.662548 0.593712 0.000000
0.695112 0.593191 0.000000
0.727676 0.592670 0.000000
0.760240 0.592149 0.000000
0.792805 0.591628 0.000000
0.825369 0.591107 0.000000
0.857933 0.590586 0.000000
0.890497 0.590065 0.000000
0.923062 0.589544 0.000000
0.955626 0.589023 0.000000
0.988190 0.588502 0.000000
1.000000 0.587981 0.000000
1.000000 0.587460 0.000000
1.000000 0.586939 0.000000
1.000000 0.586418 0.000000
1.000000 0.585897 0.000000
0.107203 0.633902 0.003203
0.139767 0.633381 0.002682
0.172331 0.632860 0.002161
0.204895 0.632339 0.001640
0.237460 0.631818 0.001119
0.270024 0.631297 0.000598
0.302588 0.630776 0.000076
0.335152 0.630255 0.000000
0.367717 0.629734 0.000000
0.400281 0.629213 0.000000
0.432845 0.628692 0.000000
0.465409 0.628171 0.000000
0.497974 0.627650 0.000000
0.530538 0.627129 0.000000
0.563102 0.626608 0.000000
0.595666 0.626087 0.000000
0.628231 0.625566 0.000000
0.660795 0.625045 0.000000
0.693359 0.624524 0.000000
0.725923 0.624003 0.000000
0.758488 0.623482 0.000000
0.791052 0.622961 0.000000
0.823616 0.622440 0.000000
0.856180 0.621919 0.000000
0.888745 0.621398 0.000000
0.921309 0.620877 0.000000
0.953873 0.620356 0.000000
0.986437 0.619835 0.000000
1.000000 0.619314 0.000000
1.000000 0.618793 0.000000
1.000000 0.618271 0.000000
1.000000 0.617750 0.000000
1.000000 0.617229 0.000000
0.105450 0.665235 0.001450
0.138014 0.664714 0.000929
0.170578 0.664193 0.000408
0.203143 0.663672 0.000000
0.235707 0.663151 0.000000
0.268271 0.662630 0.000000
0.300835 0.662109 0.000000
0.333400 0.661588 0.000000
0.365964 0.661067 0.000000
0.398528 0.660546 0.000000
0.431092 0.660025 0.000000
0.463657 0.659504 0.000000
0.496221 0.658983 0.000000
0.528785 0.658462 0.000000
0.561349 0.657940 0.000000
0.593914 0.657419 0.000000
0.626478 0.656898 0.000000
0.659042 0.656377 0.000000
0.691606 0.655856 0.000000
0.724171 0.655335 0.000000
0.756735 0.654814 0.000000
0.789299 0.654293 0.000000
0.821863 0.653772 0.000000
0.854428 0.653251 0.000000
0.886992 0.652730 0.000000
0.919556 0.652209 0.000000
0.952120 0.651688 0.000000
0.984685 0.651167 0.000000
1.000000 0.650646 0.000000
1.000000 0.650125 0.000000
1.000000 0.649604 0.000000
1.000000 0.649083 0.000000
1.000000 0.648562 0.000000
0.103697 0.696567 0.000000
0.136261 0.696046 0.000000
0.168826 0.695525 0.000000
0.201390 0.695004 0.000000
0.233954 0.694483 0.000000
0.266518 0.693962 0.000000
0.299083 0.693441 0.000000
0.331647 0.692920 0.000000
0.364211 0.692399 0.000000
0.396775 0.691878 0.000000
0.429340 0.691357 0.000000
0.461904 0.690836 0.000000
0.494468 0.690315 0.000000
0.527032 0.689794 0.000000
0.559597 0.689273 0.000000
0.592161 0.688752 0.000000
0.624725 0.688231 0.000000
0.657289 0.687710 0.000000
0.689854 0.687189 0.000000
0.722418 0.686668 0.000000
0.754982 0.686147 0.000000
0.787546 0.685626 0.000000
0.820111 0.685105 0.000000
0.852675 0.684584 0.000000
0.885239 0.684063 0.000000
0.917803 0.683542 0.000000
0.950368 0.683021 0.000000
0.982932 0.682500 0.000000
1.000000 0.681979 0.000000
1.000000 0.681458 0.000000
1.000000 0.680936 0.000000
1.000000 0.680415 0.000000
1.000000 0.679894 0.000000
0.101944 0.727900 0.000000
0.134509 0.727379 0.000000
0.167073 0.726858 0.000000
0.199637 0.726337 0.000000
0.232201 0.725816 0.000000
0.264766 0.725295 0.000000
0.297330 0.724774 0.000000
0.329894 0.724253 0.000000
0.362458 0.723732 0.000000
0.395023 0.723211 0.000000
0.427587 0.722690 0.000000
0.460151 0.722169 0.000000
0.492715 0.721648 0.000000
0.525280 0.721127 0.000000
0.557844 0.720605 0.000000
0.590408 0.720084 0.000000
0.622972 0.719563 0.000000
0.655537 0.719042 0.000000
0.688101 0.718521 0.000000
0.720665 0.718000 0.000000
0.753229 0.717479 0.000000
0.785794 0.716958 0.000000
0.818358 0.716437 0.000000
0.850922 0.715916 0.000000
0.883486 0.715395 0.000000
0.916051 0.714874 0.000000
0.948615 0.714353 0.000000
0.981179 0.713832 0.000000
1.000000 0.713311 0.000000
1.000000 0.712790 0.000000
1.000000 0.712269 0.000000
1.000000 0.711748 0.000000
1.000000 0.711248 0.000000
0.100192 0.759232 0.000000
0.132756 0.758711 0.000000
0.165320 0.758190 0.000000
0.197884 0.757669 0.000000
0.230449 0.757148 0.000000
0.263013 0.756627 0.000000
0.295577 0.756106 0.000000
0.328141 0.755585 0.000000
0.360706 0.755064 0.000000
0.393270 0.754543 0.000000
0.425834 0.754022 0.000000
0.458398 0.753501 0.000000
0.490963 0.752980 0.000000
0.523527 0.752459 0.000000
0.556091 0.751938 0.000000
0.588655 0.751417 0.000000
0.621220 0.750896 0.000000
0.653784 0.750375 0.000000
0.686348 0.749854 0.000000
0.718912 0.749333 0.000000
0.751477 0.748812 0.000000
0.784041 0.748291 0.000000
0.816605 0.747770 0.000000
0.849169 0.747249 0.000000
0.881734 0.746728 0.000000
0.914298 0.746207 0.000000
0.946862 0.745686 0.000000
0.979426 0.745165 0.000000
1.000000 0.744644 0.000000
1.000000 0.744239 0.000000
1.000000 0.743978 0.000000
1.000000 0.743718 0.000000
1.000000 0.743457 0.000000
0.098439 0.790565 0.000000
0.131003 0.790044 0.000000
0.163567 0.789523 0.000000
0.196131 0.789002 0.000000
0.228696 0.788481 0.000000
0.261260 0.787960 0.000000
0.293824 0.787439 0.000000
0.326388 0.786918 0.000000
0.358953 0.786397 0.000000
0.391517 0.785876 0.000000
0.424081 0.785355 0.000000
0.456645 0.784834 0.000000
0.489210 0.784313 0.000000
0.521774 0.783792 0.000000
0.554338 0.783270 0.000000
0.586902 0.782749 0.000000
0.619467 0.782228 0.000000
0.652031 0.781707 0.000000
0.684595 0.781186 0.000000
0.717159 0.780665 0.000000
0.749724 0.780144 0.000000
0.782288 0.779623 0.000000
0.814852 0.779102 0.000000
0.847416 0.778581 0.000000
0.879981 0.778060 0.000000
0.912545 0.777539 0.000000
0.945637 0.777229 0.000000
0.978852 0.776969 0.000000
1.000000 0.776708 0.000000
1.000000 0.776448 0.000000
1.000000 0.776187 0.000000
1.000000 0.775926 0.000000
1.000000 0.775666 0.000000
0.096686 0.821897 0.000000
0.129250 0.821376 0.000000
0.161814 0.820855 0.000000
0.194379 0.820334 0.000000
0.226943 0.819813 0.000000
0.259507 0.819292 0.000000
0.292071 0.818771 0.000000
0.324636 0.818250 0.000000
0.357200 0.817729 0.000000
0.389764 0.817208 0.000000
0.422328 0.816687 0.000000
0.454893 0.816166 0.000000
0.487457 0.815645 0.000000
0.520021 0.815124 0.000000
0.552585 0.814603 0.000000
0.585150 0.814082 0.000000
0.617714 0.813561 0.000000
0.650278 0.813040 0.000000
0.682842 0.812519 0.000000
0.715407 0.811998 0.000000
0.747971 0.811477 0.000000
0.780535 0.810956 0.000000
0.813213 0.810480 0.000000
0.846428 0.810219 0.000000
0.879644 0.809959 0.000000
0.912859 0.809698 0.000000
0.946075 0.809438 0.000000
0.979290 0.809177 0.000000
1.000000 0.808917 0.000000
1.000000 0.808656 0.000000
1.000000 0.808396 0.000000
1.000000 0.808135 0.000000
1.000000 0.807875 0.000000
0.094933 0.853230 0.000000
0.127497 0.852709 0.000000
0.160062 0.852188 0.000000
0.192626 0.851667 0.000000
0.225190 0.851146 0.000000
0.257754 0.850625 0.000000
0.290319 0.850104 0.000000
0.322883 0.849583 0.000000
0.355447 0.849062 0.000000
0.388011 0.848541 0.000000
0.420576 0.848020 0.000000
0.453140 0.847499 0.000000
0.485704 0.846978 0.000000
0.518268 0.846457 0.000000
0.550833 0.845935 0.000000
0.583397 0.845414 0.000000
0.615961 0.844893 0.000000
0.648525 0.844372 0.000000
0.681090 0.843851 0.000000
0.714004 0.843470 0.000000
0.747220 0.843210 0.000000
0.780435 0.842949 0.000000
0.813651 0.842689 0.000000
0.846866 0.842428 0.000000
0.880082 0.842168 0.000000
0.913297 0.841907 0.000000
0.946513 0.841647 0.000000
0.979729 0.841386 0.000000
1.000000 0.841126 0.000000
1.000000 0.840865 0.000000
1.000000 0.840605 0.000000
1.000000 0.840344 0.000000
1.000000 0.840084 0.000000
0.093180 0.884562 0.000000
0.125745 0.884041 0.000000
0.158309 0.883520 0.000000
0.190873 0.882999 0.000000
0.223437 0.882478 0.000000
0.256002 0.881957 0.000000
0.288566 0.881436 0.000000
0.321130 0.880915 0.000000
0.353694 0.880394 0.000000
0.386259 0.879873 0.000000
0.418823 0.879352 0.000000
0.451387 0.878831 0.000000
0.483951 0.878310 0.000000
0.516516 0.877789 0.000000
0.549080 0.877268 0.000000
0.581644 0.876747 0.000000
0.614796 0.876461 0.000000
0.648011 0.876200 0.000000
0.681227 0.875940 0.000000
0.714442 0.875679 0.000000
0.747658 0.875419 0.000000
0.780874 0.875158 0.000000
0.814089 0.874898 0.000000
0.847305 0.874637 0.000000
0.880520 0.874377 0.000000
0.913736 0.874116 0.000000
0.946951 0.873856 0.000000
0.980167 0.873595 0.000000
1.000000 0.873335 0.000000
1.000000 0.873074 0.000000
1.000000 0.872814 0.000000
1.000000 0.872553 0.000000
1.000000 0.872293 0.000000
0.091428 0.915895 0.000000
0.123992 0.915374 0.000000
0.156556 0.914853 0.000000
0.189120 0.914332 0.000000
0.221685 0.913811 0.000000
0.254249 0.913290 0.000000
0.286813 0.912769 0.000000
0.319377 0.912248 0.000000
0.351942 0.911727 0.000000
0.384506 0.911206 0.000000
0.417070 0.910685 0.000000
0.449634 0.910164 0.000000
0.482372 0.909712 0.000000
0.515587 0.909451 0.000000
0.548803 0.909191 0.000000
0.582018 0.908930 0.000000
0.615234 0.908670 0.000000
0.648450 0.908409 0.000000
0.681665 0.908149 0.000000
0.714881 0.907888 0.000000
0.748096 0.907628 0.000000
0.781312 0.907367 0.000000
0.814527 0.907107 0.000000
0.847743 0.906846 0.000000
0.880958 0.906586 0.000000
0.914174 0.906325 0.000000
0.947389 0.906065 0.000000
