fexer/Resources/LUTs/golden_hour.cube
TITLE "Golden Hour"
LUT_3D_SIZE 9
DOMAIN_MIN 0.0 0.0 0.0
DOMAIN_MAX 1.0 1.0 1.0
0.154529 0.107093 0.033000
0.281660 0.103967 0.030916
0.408791 0.100841 0.028832
0.535922 0.097715 0.026748
0.663052 0.094588 0.024663
0.790183 0.091462 0.022579
0.918542 0.088745 0.020495
1.000000 0.086661 0.018411
1.000000 0.084577 0.016327
0.137001 0.228918 0.025989
0.264132 0.225791 0.023905
0.391263 0.222665 0.021821
0.520760 0.220328 0.019736
0.651017 0.218243 0.017652
0.781274 0.216159 0.015568
0.911531 0.214075 0.013484
1.000000 0.211991 0.011400
1.000000 0.209907 0.009316
0.122978 0.351910 0.018978
0.253235 0.349826 0.016894
0.383492 0.347742 0.014809
0.513749 0.345658 0.012725
0.644006 0.343573 0.010641
0.774263 0.341489 0.008557
0.904520 0.339405 0.006473
1.000000 0.337321 0.004389
1.000000 0.335237 0.002305
0.115967 0.477240 0.011967
0.246224 0.475156 0.009882
0.376481 0.473072 0.007798
0.506738 0.470988 0.005714
0.636995 0.468903 0.003630
0.767252 0.466819 0.001546
0.897509 0.464735 0.000000
1.000000 0.462651 0.000000
1.000000 0.460567 0.000000
0.108955 0.602570 0.004955
0.239212 0.600486 0.002871
0.369469 0.598402 0.000787
0.499726 0.596318 0.000000
0.629983 0.594233 0.000000
0.760240 0.592149 0.000000
0.890497 0.590065 0.000000
1.000000 0.587981 0.000000
1.000000 0.585897 0.000000
0.101944 0.727900 0.000000
0.232201 0.725816 0.000000
0.362458 0.723732 0.000000
0.492715 0.721648 0.000000
0.622972 0.719563 0.000000
0.753229 0.717479 0.000000
0.883486 0.715395 0.000000
1.000000 0.713311 0.000000
1.000000 0.711248 0.000000
0.094933 0.853230 0.000000
0.225190 0.851146 0.000000
0.355447 0.849062 0.000000
0.485704 0.846978 0.000000
0.615961 0.844893 0.000000
0.747220 0.843210 0.000000
0.880082 0.842168 0.000000
1.000000 0.841126 0.000000
1.000000 0.840084 0.000000
0.087922 0.978560 0.000000
0.218179 0.976476 0.000000
0.350386 0.975172 0.000000
0.483248 0.974130 0.000000
0.616110 0.973088 0.000000
0.748973 0.972045 0.000000
0.881835 0.971003 0.000000
1.000000 0.969961 0.000000
1.000000 0.968919 0.000000
0.086415 1.000000 0.000000
0.219277 1.000000 0.000000
0.352139 1.000000 0.000000
0.485001 1.000000 0.000000
0.617863 1.000000 0.000000
0.750725 1.000000 0.000000
0.883587 1.000000 0.000000
1.000000 1.000000 0.000000
1.000000 1.000000 0.000000
0.152760 0.106031 0.164633
0.279891 0.102905 0.162549
0.407021 0.099779 0.160465
0.534152 0.096653 0.158381
0.661283 0.093527 0.156297
0.788414 0.090400 0.154213
0.917834 0.088037 0.152129
1.000000 0.085953 0.150044
1.000000 0.083869 0.147960
0.135232 0.227856 0.157622
0.262363 0.224730 0.155538
0.389795 0.221704 0.153454
0.520052 0.219620 0.151370
0.650309 0.217536 0.149286
0.780566 0.215452 0.147202
0.910823 0.213367 0.145117
1.000000 0.211283 0.143033
1.000000 0.209199 0.140949
0.122270 0.351202 0.150611
0.252527 0.349118 0.148527
0.382784 0.347034 0.146443
0.513041 0.344950 0.144359
0.643298 0.342866 0.142275
0.773555 0.340782 0.140190
0.903812 0.338697 0.138106
1.000000 0.336613 0.136022
1.000000 0.334529 0.133938
0.115259 0.476532 0.143600
0.245516 0.474448 0.141516
0.375773 0.472364 0.139432
0.506030 0.470280 0.137348
0.636287 0.468196 0.135263
0.766544 0.466112 0.133179
0.896801 0.464027 0.131095
1.000000 0.461943 0.129011
1.000000 0.459859 0.126927
0.108248 0.601862 0.136589
0.238505 0.599778 0.134505
0.368762 0.597694 0.132421
0.499019 0.595610 0.130336
0.629276 0.593526 0.128252
0.759533 0.591442 0.126168
0.889790 0.589357 0.124084
1.000000 0.587273 0.122000
1.000000 0.585189 0.119916
0.101237 0.727192 0.129578
0.231494 0.725108 0.127494
0.361751 0.723024 0.125409
0.492008 0.720940 0.123325
0.622265 0.718856 0.121241
0.752522 0.716772 0.119157
0.882779 0.714687 0.117073
1.000000 0.712603 0.114989
1.000000 0.710894 0.112154
0.094225 0.852522 0.122567
0.224482 0.850438 0.120482
0.354739 0.848354 0.118398
0.484996 0.846270 0.116314
0.615253 0.844186 0.114230
0.747397 0.842856 0.110637
0.880259 0.841814 0.106469
1.000000 0.840772 0.102300
1.000000 0.839730 0.098132
0.087214 0.977852 0.115555
0.217701 0.975860 0.113288
0.350563 0.974818 0.109119
0.483425 0.973776 0.104951
0.616287 0.972734 0.100783
0.749150 0.971692 0.096615
0.882012 0.970650 0.092446
1.000000 0.969607 0.088278
1.000000 0.968565 0.084110
0.086592 1.000000 0.103434
0.219454 1.000000 0.099265
0.352316 1.000000 0.095097
0.485178 1.000000 0.090929
0.618040 1.000000 0.086761
0.750902 1.000000 0.082592
0.883764 1.000000 0.078424
1.000000 1.000000 0.074256
1.000000 1.000000 0.070087
0.150990 0.104970 0.296267
0.278121 0.101844 0.294183
0.405252 0.098717 0.292098
0.532383 0.095591 0.290014
0.659514 0.092465 0.287930
0.786869 0.089414 0.285846
0.917126 0.087330 0.283762
1.000000 0.085246 0.281678
1.000000 0.083161 0.279594
0.133463 0.226794 0.289256
0.260593 0.223668 0.287171
0.389087 0.220996 0.285087
0.519344 0.218912 0.283003
0.649601 0.216828 0.280919
0.779858 0.214744 0.278835
0.910115 0.212660 0.276751
1.000000 0.210576 0.274667
1.000000 0.208491 0.272583
0.121562 0.350494 0.282244
0.251819 0.348410 0.280160
0.382076 0.346326 0.278076
0.512333 0.344242 0.275992
0.642590 0.342158 0.273908
0.772847 0.340074 0.271824
0.903104 0.337990 0.269740
1.000000 0.335906 0.267656
1.000000 0.333821 0.265571
0.114551 0.475824 0.275233
0.244808 0.473740 0.273149
0.375065 0.471656 0.271065
0.505322 0.469572 0.268981
0.635579 0.467488 0.266897
0.765836 0.465404 0.264813
0.896093 0.463320 0.262729
1.000000 0.461236 0.260644
1.000000 0.459151 0.258560
0.107540 0.601154 0.268222
0.237797 0.599070 0.266138
0.368054 0.596986 0.264054
0.498311 0.594902 0.261970
0.628568 0.592818 0.259886
0.758825 0.590734 0.257801
0.889082 0.588650 0.255717
1.000000 0.586565 0.253633
1.000000 0.584481 0.251549
0.100529 0.726484 0.261211
0.230786 0.724400 0.259127
0.361043 0.722316 0.257043
0.491300 0.720232 0.254959
0.621557 0.718148 0.252874
0.751814 0.716064 0.250790
0.882071 0.713980 0.248706
1.000000 0.711895 0.246622
1.000000 0.710540 0.243080
0.093518 0.851814 0.254200
0.223775 0.849730 0.252116
0.354032 0.847646 0.250032
0.484289 0.845562 0.247947
0.614712 0.843544 0.245731
0.747574 0.842502 0.241562
0.880436 0.841460 0.237394
1.000000 0.840418 0.233226
1.000000 0.839376 0.229058
0.086506 0.977144 0.247189
0.217878 0.975506 0.244213
0.350740 0.974464 0.240045
0.483602 0.973422 0.235877
0.616464 0.972380 0.231708
0.749326 0.971338 0.227540
0.882189 0.970296 0.223372
1.000000 0.969254 0.219204
1.000000 0.968212 0.215035
0.086768 1.000000 0.234359
0.219631 1.000000 0.230191
0.352493 1.000000 0.226023
0.485355 1.000000 0.221854
0.618217 1.000000 0.217686
0.751079 1.000000 0.213518
0.883941 1.000000 0.209350
1.000000 1.000000 0.205181
1.000000 1.000000 0.201013
0.149221 0.103908 0.427900
0.276352 0.100782 0.425816
0.403483 0.097656 0.423732
0.530613 0.094530 0.421648
0.657744 0.091403 0.419564
0.786162 0.088706 0.417479
0.916419 0.086622 0.415395
1.000000 0.084538 0.413311
1.000000 0.082454 0.411227
0.131693 0.225732 0.420889
0.258824 0.222606 0.418805
0.388380 0.220288 0.416721
0.518637 0.218204 0.414637
0.648894 0.216120 0.412552
0.779151 0.214036 0.410468
0.909408 0.211952 0.408384
1.000000 0.209868 0.406300
1.000000 0.207784 0.404216
0.120854 0.349787 0.413878
0.251111 0.347703 0.411794
0.381368 0.345618 0.409710
0.511625 0.343534 0.407625
0.641882 0.341450 0.405541
0.772139 0.339366 0.403457
0.902396 0.337282 0.401373
1.000000 0.335198 0.399289
1.000000 0.333114 0.397205
0.113843 0.475117 0.406867
0.244100 0.473032 0.404782
0.374357 0.470948 0.402698
0.504614 0.468864 0.400614
0.634871 0.466780 0.398530
0.765128 0.464696 0.396446
0.895385 0.462612 0.394362
1.000000 0.460528 0.392278
1.000000 0.458444 0.390194
0.106832 0.600447 0.399855
0.237089 0.598362 0.397771
0.367346 0.596278 0.395687
0.497603 0.594194 0.393603
0.627860 0.592110 0.391519
0.758117 0.590026 0.389435
0.888374 0.587942 0.387351
1.000000 0.585858 0.385267
1.000000 0.583774 0.383182
0.099821 0.725777 0.392844
0.230078 0.723692 0.390760
0.360335 0.721608 0.388676
0.490592 0.719524 0.386592
0.620849 0.717440 0.384508
0.751106 0.715356 0.382424
0.881363 0.713272 0.380340
1.000000 0.711229 0.378174
1.000000 0.710187 0.374005
0.092810 0.851107 0.385833
0.223067 0.849022 0.383749
0.353324 0.846938 0.381665
0.483581 0.844854 0.379581
0.614888 0.843190 0.376656
0.747751 0.842148 0.372488
0.880613 0.841106 0.368320
1.000000 0.840064 0.364151
1.000000 0.839022 0.359983
0.085799 0.976437 0.378822
0.218055 0.975152 0.375139
0.350917 0.974110 0.370970
0.483779 0.973068 0.366802
0.616641 0.972026 0.362634
0.749503 0.970984 0.358466
0.882366 0.969942 0.354297
1.000000 0.968900 0.350129
1.000000 0.967858 0.345961
0.086945 1.000000 0.365285
0.219808 1.000000 0.361116
0.352670 1.000000 0.356948
0.485532 1.000000 0.352780
0.618394 1.000000 0.348612
0.751256 1.000000 0.344443
0.884118 1.000000 0.340275
1.000000 1.000000 0.336107
1.000000 1.000000 0.331939
0.147451 0.102846 0.559533
0.274582 0.099720 0.557449
0.401713 0.096594 0.555365
0.528844 0.093468 0.553281
0.655975 0.090342 0.551197
0.785454 0.087998 0.549113
0.915711 0.085914 0.547029
1.000000 0.083830 0.544944
1.000000 0.081746 0.542860
0.129924 0.224671 0.552522
0.257415 0.221665 0.550438
0.387672 0.219581 0.548354
0.517929 0.217496 0.546270
0.648186 0.215412 0.544186
0.778443 0.213328 0.542102
0.908700 0.211244 0.540017
1.000000 0.209160 0.537933
1.000000 0.207076 0.535849
0.120147 0.349079 0.545511
0.250404 0.346995 0.543427
0.380661 0.344911 0.541343
0.510918 0.342826 0.539259
0.641175 0.340742 0.537175
0.771432 0.338658 0.535090
0.901689 0.336574 0.533006
1.000000 0.334490 0.530922
1.000000 0.332406 0.528838
0.113135 0.474409 0.538500
0.243392 0.472325 0.536416
0.373649 0.470241 0.534332
0.503906 0.468156 0.532248
0.634163 0.466072 0.530163
0.764420 0.463988 0.528079
0.894677 0.461904 0.525995
1.000000 0.459820 0.523911
1.000000 0.457736 0.521827
0.106124 0.599739 0.531489
0.236381 0.597655 0.529405
0.366638 0.595571 0.527321
0.496895 0.593486 0.525236
0.627152 0.591402 0.523152
0.757409 0.589318 0.521068
0.887666 0.587234 0.518984
1.000000 0.585150 0.516900
1.000000 0.583066 0.514816
0.099113 0.725069 0.524478
0.229370 0.722985 0.522394
0.359627 0.720901 0.520309
0.489884 0.718816 0.518225
0.620141 0.716732 0.516141
0.750398 0.714648 0.514057
0.880655 0.712564 0.511973
1.000000 0.710875 0.509099
1.000000 0.709833 0.504931
0.092102 0.850399 0.517467
0.222359 0.848315 0.515382
0.352616 0.846231 0.513298
0.482873 0.844146 0.511214
0.615065 0.842836 0.507582
0.747928 0.841794 0.503413
0.880790 0.840752 0.499245
1.000000 0.839710 0.495077
1.000000 0.838668 0.490909
0.085370 0.975840 0.510232
0.218232 0.974798 0.506064
0.351094 0.973756 0.501896
0.483956 0.972714 0.497728
0.616818 0.971672 0.493559
0.749680 0.970630 0.489391
0.882542 0.969588 0.485223
1.000000 0.968546 0.481055
1.000000 0.967504 0.476886
0.087122 1.000000 0.496210
0.219984 1.000000 0.492042
0.352847 1.000000 0.487874
0.485709 1.000000 0.483705
0.618571 1.000000 0.479537
0.751433 1.000000 0.475369
0.884295 1.000000 0.471201
1.000000 1.000000 0.467032
1.000000 1.000000 0.462864
0.145682 0.101785 0.691167
0.272813 0.098659 0.689083
0.399944 0.095532 0.686998
0.527074 0.092406 0.684914
0.654489 0.089375 0.682830
0.784746 0.087290 0.680746
0.915003 0.085206 0.678662
1.000000 0.083122 0.676578
1.000000 0.081038 0.674494
0.128154 0.223609 0.684156
0.256707 0.220957 0.682071
0.386964 0.218873 0.679987
0.517221 0.216789 0.677903
0.647478 0.214705 0.675819
0.777735 0.212620 0.673735
0.907992 0.210536 0.671651
1.000000 0.208452 0.669567
1.000000 0.206368 0.667483
0.119439 0.348371 0.677144
0.249696 0.346287 0.675060
0.379953 0.344203 0.672976
0.510210 0.342119 0.670892
0.640467 0.340035 0.668808
0.770724 0.337950 0.666724
0.900981 0.335866 0.664640
1.000000 0.333782 0.662556
1.000000 0.331698 0.660471
0.112428 0.473701 0.670133
0.242685 0.471617 0.668049
0.372942 0.469533 0.665965
0.503199 0.467449 0.663881
0.633456 0.465365 0.661797
0.763713 0.463280 0.659713
0.893970 0.461196 0.657629
1.000000 0.459112 0.655544
1.000000 0.457028 0.653460
0.105417 0.599031 0.663122
0.235674 0.596947 0.661038
0.365931 0.594863 0.658954
0.496188 0.592779 0.656870
0.626445 0.590695 0.654786
0.756702 0.588610 0.652702
0.886959 0.586526 0.650617
1.000000 0.584442 0.648533
1.000000 0.582358 0.646449
0.098405 0.724361 0.656111
0.228662 0.722277 0.654027
0.358919 0.720193 0.651943
0.489176 0.718109 0.649859
0.619433 0.716025 0.647775
0.749690 0.713940 0.645690
0.879947 0.711856 0.643606
1.000000 0.710521 0.640025
1.000000 0.709479 0.635857
0.091394 0.849691 0.649100
0.221651 0.847607 0.647016
0.351908 0.845523 0.644932
0.482380 0.843525 0.642676
0.615242 0.842483 0.638507
0.748104 0.841440 0.634339
0.880967 0.840398 0.630171
1.000000 0.839356 0.626003
1.000000 0.838314 0.621834
0.085546 0.975486 0.641158
0.218409 0.974444 0.636990
0.351271 0.973402 0.632822
0.484133 0.972360 0.628653
0.616995 0.971318 0.624485
0.749857 0.970276 0.620317
0.882719 0.969234 0.616149
1.000000 0.968192 0.611980
1.000000 0.967150 0.607812
0.087299 1.000000 0.627136
0.220161 1.000000 0.622968
0.353024 1.000000 0.618799
0.485886 1.000000 0.614631
0.618748 1.000000 0.610463
0.751610 1.000000 0.606295
0.884472 1.000000 0.602126
1.000000 1.000000 0.597958
1.000000 1.000000 0.593790
0.143913 0.100723 0.822800
0.271043 0.097597 0.820716
0.398174 0.094471 0.818632
0.525305 0.091344 0.816548
0.653781 0.088667 0.814464
0.784038 0.086583 0.812379
0.914295 0.084499 0.810295
1.000000 0.082414 0.808211
1.000000 0.080330 0.806127
0.126385 0.222547 0.815789
0.255999 0.220249 0.813705
0.386256 0.218165 0.811621
0.516513 0.216081 0.809537
0.646770 0.213997 0.807452
0.777027 0.211913 0.805368
0.907284 0.209829 0.803284
1.000000 0.207744 0.801200
1.000000 0.205660 0.799116
0.118731 0.347663 0.808778
0.248988 0.345579 0.806694
0.379245 0.343495 0.804610
0.509502 0.341411 0.802525
0.639759 0.339327 0.800441
0.770016 0.337243 0.798357
0.900273 0.335159 0.796273
1.000000 0.333074 0.794189
1.000000 0.330990 0.792105
0.111720 0.472993 0.801767
0.241977 0.470909 0.799683
0.372234 0.468825 0.797598
0.502491 0.466741 0.795514
0.632748 0.464657 0.793430
0.763005 0.462573 0.791346
0.893262 0.460489 0.789262
1.000000 0.458404 0.787178
1.000000 0.456320 0.785094
0.104709 0.598323 0.794756
0.234966 0.596239 0.792671
0.365223 0.594155 0.790587
0.495480 0.592071 0.788503
0.625737 0.589987 0.786419
0.755994 0.587903 0.784335
0.886251 0.585818 0.782251
1.000000 0.583734 0.780167
1.000000 0.581650 0.778082
0.097698 0.723653 0.787744
0.227955 0.721569 0.785660
0.358212 0.719485 0.783576
0.488469 0.717401 0.781492
0.618726 0.715317 0.779408
0.748983 0.713233 0.777324
0.879391 0.711209 0.775119
1.000000 0.710167 0.770950
1.000000 0.709125 0.766782
0.090686 0.848983 0.780733
0.220943 0.846899 0.778649
0.351200 0.844815 0.776565
0.482557 0.843171 0.773601
0.615419 0.842129 0.769433
0.748281 0.841087 0.765265
0.881144 0.840045 0.761096
1.000000 0.839002 0.756928
1.000000 0.837960 0.752760
0.085723 0.975132 0.772084
0.218586 0.974090 0.767915
0.351448 0.973048 0.763747
0.484310 0.972006 0.759579
0.617172 0.970964 0.755411
0.750034 0.969922 0.751242
0.882896 0.968880 0.747074
1.000000 0.967838 0.742906
1.000000 0.966796 0.738738
0.087476 1.000000 0.758061
0.220338 1.000000 0.753893
0.353201 1.000000 0.749725
0.486063 1.000000 0.745557
0.618925 1.000000 0.741388
0.751787 1.000000 0.737220
0.884649 1.000000 0.733052
1.000000 1.000000 0.728884
1.000000 1.000000 0.724715
0.142143 0.099661 0.954433
0.269274 0.096535 0.952349
0.396405 0.093409 0.950265
0.523536 0.090283 0.948181
0.653074 0.087959 0.946097
0.783331 0.085875 0.944013
0.913588 0.083791 0.941929
1.000000 0.081707 0.939845
1.000000 0.079623 0.937760
0.125034 0.221626 0.947422
0.255291 0.219541 0.945338
0.385548 0.217457 0.943254
0.515805 0.215373 0.941170
0.646062 0.213289 0.939086
0.776319 0.211205 0.937002
0.906576 0.209121 0.934918
1.000000 0.207037 0.932833
1.000000 0.204953 0.930749
0.118023 0.346956 0.940411
0.248280 0.344871 0.938327
0.378537 0.342787 0.936243
0.508794 0.340703 0.934159
0.639051 0.338619 0.932075
0.769308 0.336535 0.929990
0.899565 0.334451 0.927906
1.000000 0.332367 0.925822
1.000000 0.330282 0.923738
0.111012 0.472285 0.933400
0.241269 0.470201 0.931316
0.371526 0.468117 0.929232
0.501783 0.466033 0.927148
0.632040 0.463949 0.925063
0.762297 0.461865 0.922979
0.892554 0.459781 0.920895
1.000000 0.457697 0.918811
1.000000 0.455612 0.916727
0.104001 0.597615 0.926389
0.234258 0.595531 0.924305
0.364515 0.593447 0.922221
0.494772 0.591363 0.920136
0.625029 0.589279 0.918052
0.755286 0.587195 0.915968
0.885543 0.585111 0.913884
1.000000 0.583027 0.911800
1.000000 0.580942 0.909716
0.096990 0.722945 0.919378
0.227247 0.720861 0.917294
0.357504 0.718777 0.915209
0.487761 0.716693 0.913125
0.618018 0.714609 0.911041
0.748275 0.712525 0.908957
0.879568 0.710855 0.906044
1.000000 0.709813 0.901876
1.000000 0.708771 0.897708
0.089979 0.848275 0.912367
0.220236 0.846191 0.910282
0.350493 0.844107 0.908198
0.482734 0.842817 0.904527
0.615596 0.841775 0.900358
0.748458 0.840733 0.896190
0.881321 0.839691 0.892022
1.000000 0.838649 0.887854
1.000000 0.837607 0.883685
0.085900 0.974779 0.903009
0.218763 0.973737 0.898841
0.351625 0.972694 0.894673
0.484487 0.971652 0.890504
0.617349 0.970610 0.886336
0.750211 0.969568 0.882168
0.883073 0.968526 0.878000
1.000000 0.967484 0.873831
1.000000 0.966442 0.869663
0.087653 1.000000 0.888987
0.220515 1.000000 0.884819
0.353377 1.000000 0.880650
0.486240 1.000000 0.876482
0.619102 1.000000 0.872314
0.751964 1.000000 0.868146
0.884826 1.000000 0.863977
1.000000 1.000000 0.859809
1.000000 1.000000 0.855641
0.140374 0.098600 1.000000
0.267504 0.095474 1.000000
0.394635 0.092347 1.000000
0.522109 0.089335 1.000000
0.652366 0.087251 1.000000
0.782623 0.085167 1.000000
0.912880 0.083083 1.000000
1.000000 0.080999 1.000000
1.000000 0.078915 1.000000
0.124327 0.220918 1.000000
0.254584 0.218834 1.000000
0.384841 0.216749 1.000000
0.515098 0.214665 1.000000
0.645355 0.212581 1.000000
0.775612 0.210497 1.000000
0.905869 0.208413 1.000000
1.000000 0.206329 1.000000
1.000000 0.204245 1.000000
0.117315 0.346248 1.000000
0.247572 0.344164 1.000000
0.377829 0.342079 1.000000
0.508086 0.339995 1.000000
0.638343 0.337911 1.000000
0.768600 0.335827 1.000000
0.898857 0.333743 1.000000
1.000000 0.331659 1.000000
1.000000 0.329575 1.000000
0.110304 0.471578 1.000000
0.240561 0.469494 1.000000
0.370818 0.467409 1.000000
0.501075 0.465325 1.000000
0.631332 0.463241 1.000000
0.761589 0.461157 1.000000
0.891846 0.459073 1.000000
1.000000 0.456989 1.000000
1.000000 0.454905 1.000000
0.103293 0.596908 1.000000
0.233550 0.594824 1.000000
0.363807 0.592739 1.000000
0.494064 0.590655 1.000000
0.624321 0.588571 1.000000
0.754578 0.586487 1.000000
0.884835 0.584403 1.000000
1.000000 0.582319 1.000000
1.000000 0.580235 1.000000
0.096282 0.722238 1.000000
0.226539 0.720154 1.000000
0.356796 0.718069 1.000000
0.487053 0.715985 1.000000
0.617310 0.713901 1.000000
0.747567 0.711817 1.000000
0.879745 0.710501 1.000000
1.000000 0.709459 1.000000
1.000000 0.708417 1.000000
0.089271 0.847568 1.000000
0.219528 0.845484 1.000000
0.350049 0.843505 1.000000
0.482911 0.842463 1.000000
0.615773 0.841421 1.000000
0.748635 0.840379 1.000000
0.881497 0.839337 1.000000
1.000000 0.838295 1.000000
1.000000 0.837253 1.000000
0.086077 0.974425 1.000000
0.218939 0.973383 1.000000
0.351802 0.972341 1.000000
0.484664 0.971298 1.000000
0.617526 0.970256 1.000000
0.750388 0.969214 1.000000
0.883250 0.968172 1.000000
1.000000 0.967130 1.000000
1.000000 0.966088 1.000000
0.087830 1.000000 1.000000
0.220692 1.000000 1.000000
0.353554 1.000000 1.000000
0.486417 1.000000 1.000000
0.619279 1.000000 1.000000
0.752141 1.000000 0.999071
0.885003 1.000000 0.994903
1.000000 1.000000 0.990735
1.000000 1.000000 0.986566
