fexer/Resources/LUTs/golden_hour.cube
TITLE "Golden Hour"
LUT_3D_SIZE 5
DOMAIN_MIN 0.0 0.0 0.0
DOMAIN_MAX 1.0 1.0 1.0
0.154529 0.107093 0.033000
0.408791 0.100841 0.028832
0.663052 0.094588 0.024663
0.918542 0.088745 0.020495
1.000000 0.084577 0.016327
0.122978 0.351910 0.018978
0.383492 0.347742 0.014809
0.644006 0.343573 0.010641
0.904520 0.339405 0.006473
1.000000 0.335237 0.002305
0.108955 0.602570 0.004955
0.369469 0.598402 0.000787
0.629983 0.594233 0.000000
0.890497 0.590065 0.000000
1.000000 0.585897 0.000000
0.094933 0.853230 0.000000
0.355447 0.849062 0.000000
0.615961 0.844893 0.000000
0.880082 0.842168 0.000000
1.000000 0.840084 0.000000
0.086415 1.000000 0.000000
0.352139 1.000000 0.000000
0.617863 1.000000 0.000000
0.883587 1.000000 0.000000
1.000000 1.000000 0.000000
0.150990 0.104970 0.296267
0.405252 0.098717 0.292098
0.659514 0.092465 0.287930
0.917126 0.087330 0.283762
1.000000 0.083161 0.279594
0.121562 0.350494 0.282244
0.382076 0.346326 0.278076
0.642590 0.342158 0.273908
0.903104 0.337990 0.269740
1.000000 0.333821 0.265571
0.107540 0.601154 0.268222
0.368054 0.596986 0.264054
0.628568 0.592818 0.259886
0.889082 0.588650 0.255717
1.000000 0.584481 0.251549
0.093518 0.851814 0.254200
0.354032 0.847646 0.250032
0.614712 0.843544 0.245731
0.880436 0.841460 0.237394
1.000000 0.839376 0.229058
0.086768 1.000000 0.234359
0.352493 1.000000 0.226023
0.618217 1.000000 0.217686
0.883941 1.000000 0.209350
1.000000 1.000000 0.201013
0.147451 0.102846 0.559533
0.401713 0.096594 0.555365
0.655975 0.090342 0.551197
0.915711 0.085914 0.547029
1.000000 0.081746 0.542860
0.120147 0.349079 0.545511
0.380661 0.344911 0.541343
0.641175 0.340742 0.537175
0.901689 0.336574 0.533006
1.000000 0.332406 0.528838
0.106124 0.599739 0.531489
0.366638 0.595571 0.527321
0.627152 0.591402 0.523152
0.887666 0.587234 0.518984
1.000000 0.583066 0.514816
0.092102 0.850399 0.517467
0.352616 0.846231 0.513298
0.615065 0.842836 0.507582
0.880790 0.840752 0.499245
1.000000 0.838668 0.490909
0.087122 1.000000 0.496210
0.352847 1.000000 0.487874
0.618571 1.000000 0.479537
0.884295 1.000000 0.471201
1.000000 1.000000 0.462864
0.143913 0.100723 0.822800
0.398174 0.094471 0.818632
0.653781 0.088667 0.814464
0.914295 0.084499 0.810295
1.000000 0.080330 0.806127
0.118731 0.347663 0.808778
0.379245 0.343495 0.804610
0.639759 0.339327 0.800441
0.900273 0.335159 0.796273
1.000000 0.330990 0.792105
0.104709 0.598323 0.794756
0.365223 0.594155 0.790587
0.625737 0.589987 0.786419
0.886251 0.585818 0.782251
1.000000 0.581650 0.778082
0.090686 0.848983 0.780733
0.351200 0.844815 0.776565
0.615419 0.842129 0.769433
0.881144 0.840045 0.761096
1.000000 0.837960 0.752760
0.087476 1.000000 0.758061
0.353201 1.000000 0.749725
0.618925 1.000000 0.741388
0.884649 1.000000 0.733052
1.000000 1.000000 0.724715
0.140374 0.098600 1.000000
0.394635 0.092347 1.000000
0.652366 0.087251 1.000000
0.912880 0.083083 1.000000
1.000000 0.078915 1.000000
0.117315 0.346248 1.000000
0.377829 0.342079 1.000000
0.638343 0.337911 1.000000
0.898857 0.333743 1.000000
1.000000 0.329575 1.000000
0.103293 0.596908 1.000000
0.363807 0.592739 1.000000
0.624321 0.588571 1.000000
0.884835 0.584403 1.000000
1.000000 0.580235 1.000000
0.089271 0.847568 1.000000
0.350049 0.843505 1.000000
0.615773 0.841421 1.000000
0.881497 0.839337 1.000000
1.000000 0.837253 1.000000
0.087830 1.000000 1.000000
0.353554 1.000000 1.000000
0.619279 1.000000 1.000000
0.885003 1.000000 0.994903
1.000000 1.000000 0.986566
