fexer/Resources/LUTs/ilford_hp5_bw.cube
TITLE "HP5 BW"
LUT_3D_SIZE 33
DOMAIN_MIN 0.0 0.0 0.0
DOMAIN_MAX 1.0 1.0 1.0
0.001250 0.001250 0.001250
0.008536 0.008536 0.008536
0.015823 0.015823 0.015823
0.023109 0.023109 0.023109
0.030396 0.030396 0.030396
0.037682 0.037682 0.037682
0.044969 0.044969 0.044969
0.052255 0.052255 0.052255
0.059542 0.059542 0.059542
0.066828 0.066828 0.066828
0.074115 0.074115 0.074115
0.081401 0.081401 0.081401
0.088688 0.088688 0.088688
0.095974 0.095974 0.095974
0.103261 0.103261 0.103261
0.110547 0.110547 0.110547
0.117834 0.117834 0.117834
0.125120 0.125120 0.125120
0.132407 0.132407 0.132407
0.139693 0.139693 0.139693
0.146980 0.146980 0.146980
0.154266 0.154266 0.154266
0.161553 0.161553 0.161553
0.168839 0.168839 0.168839
0.176126 0.176126 0.176126
0.183412 0.183412 0.183412
0.190699 0.190699 0.190699
0.197985 0.197985 0.197985
0.205272 0.205272 0.205272
0.212558 0.212558 0.212558
0.219845 0.219845 0.219845
0.227131 0.227131 0.227131
0.234418 0.234418 0.234418
0.024434 0.024434 0.024434
0.031721 0.031721 0.031721
0.039007 0.039007 0.039007
0.046294 0.046294 0.046294
0.053580 0.053580 0.053580
0.060867 0.060867 0.060867
0.068153 0.068153 0.068153
0.075440 0.075440 0.075440
0.082726 0.082726 0.082726
0.090013 0.090013 0.090013
0.097299 0.097299 0.097299
0.104586 0.104586 0.104586
0.111872 0.111872 0.111872
0.119159 0.119159 0.119159
0.126445 0.126445 0.126445
0.133732 0.133732 0.133732
0.141018 0.141018 0.141018
0.148305 0.148305 0.148305
0.155591 0.155591 0.155591
0.162878 0.162878 0.162878
0.170164 0.170164 0.170164
0.177450 0.177450 0.177450
0.184737 0.184737 0.184737
0.192023 0.192023 0.192023
0.199310 0.199310 0.199310
0.206596 0.206596 0.206596
0.213883 0.213883 0.213883
0.221169 0.221169 0.221169
0.228456 0.228456 0.228456
0.235742 0.235742 0.235742
0.243029 0.243029 0.243029
0.250315 0.250315 0.250315
0.257602 0.257602 0.257602
0.047619 0.047619 0.047619
0.054905 0.054905 0.054905
0.062192 0.062192 0.062192
0.069478 0.069478 0.069478
0.076764 0.076764 0.076764
0.084051 0.084051 0.084051
0.091337 0.091337 0.091337
0.098624 0.098624 0.098624
0.105910 0.105910 0.105910
0.113197 0.113197 0.113197
0.120483 0.120483 0.120483
0.127770 0.127770 0.127770
0.135056 0.135056 0.135056
0.142343 0.142343 0.142343
0.149629 0.149629 0.149629
0.156916 0.156916 0.156916
0.164202 0.164202 0.164202
0.171489 0.171489 0.171489
0.178775 0.178775 0.178775
0.186062 0.186062 0.186062
0.193348 0.193348 0.193348
0.200635 0.200635 0.200635
0.207921 0.207921 0.207921
0.215208 0.215208 0.215208
0.222494 0.222494 0.222494
0.229781 0.229781 0.229781
0.237067 0.237067 0.237067
0.244354 0.244354 0.244354
0.251640 0.251640 0.251640
0.258927 0.258927 0.258927
0.266213 0.266213 0.266213
0.273500 0.273500 0.273500
0.280786 0.280786 0.280786
0.070803 0.070803 0.070803
0.078089 0.078089 0.078089
0.085376 0.085376 0.085376
0.092662 0.092662 0.092662
0.099949 0.099949 0.099949
0.107235 0.107235 0.107235
0.114522 0.114522 0.114522
0.121808 0.121808 0.121808
0.129095 0.129095 0.129095
0.136381 0.136381 0.136381
0.143668 0.143668 0.143668
0.150954 0.150954 0.150954
0.158241 0.158241 0.158241
0.165527 0.165527 0.165527
0.172814 0.172814 0.172814
0.180100 0.180100 0.180100
0.187387 0.187387 0.187387
0.194673 0.194673 0.194673
0.201960 0.201960 0.201960
0.209246 0.209246 0.209246
0.216533 0.216533 0.216533
0.223819 0.223819 0.223819
0.231106 0.231106 0.231106
0.238392 0.238392 0.238392
0.245678 0.245678 0.245678
0.252965 0.252965 0.252965
0.260251 0.260251 0.260251
0.267538 0.267538 0.267538
0.274824 0.274824 0.274824
0.282111 0.282111 0.282111
0.289397 0.289397 0.289397
0.296684 0.296684 0.296684
0.303970 0.303970 0.303970
0.093987 0.093987 0.093987
0.101274 0.101274 0.101274
0.108560 0.108560 0.108560
0.115847 0.115847 0.115847
0.123133 0.123133 0.123133
0.130420 0.130420 0.130420
0.137706 0.137706 0.137706
0.144992 0.144992 0.144992
0.152279 0.152279 0.152279
0.159565 0.159565 0.159565
0.166852 0.166852 0.166852
0.174138 0.174138 0.174138
0.181425 0.181425 0.181425
0.188711 0.188711 0.188711
0.195998 0.195998 0.195998
0.203284 0.203284 0.203284
0.210571 0.210571 0.210571
0.217857 0.217857 0.217857
0.225144 0.225144 0.225144
0.232430 0.232430 0.232430
0.239717 0.239717 0.239717
0.247003 0.247003 0.247003
0.254290 0.254290 0.254290
0.261576 0.261576 0.261576
0.268863 0.268863 0.268863
0.276149 0.276149 0.276149
0.283436 0.283436 0.283436
0.290722 0.290722 0.290722
0.298009 0.298009 0.298009
0.305295 0.305295 0.305295
0.312582 0.312582 0.312582
0.319868 0.319868 0.319868
0.327155 0.327155 0.327155
0.117171 0.117171 0.117171
0.124458 0.124458 0.124458
0.131744 0.131744 0.131744
0.139031 0.139031 0.139031
0.146317 0.146317 0.146317
0.153604 0.153604 0.153604
0.160890 0.160890 0.160890
0.168177 0.168177 0.168177
0.175463 0.175463 0.175463
0.182750 0.182750 0.182750
0.190036 0.190036 0.190036
0.197323 0.197323 0.197323
0.204609 0.204609 0.204609
0.211896 0.211896 0.211896
0.219182 0.219182 0.219182
0.226469 0.226469 0.226469
0.233755 0.233755 0.233755
0.241042 0.241042 0.241042
0.248328 0.248328 0.248328
0.255615 0.255615 0.255615
0.262901 0.262901 0.262901
0.270188 0.270188 0.270188
0.277474 0.277474 0.277474
0.284761 0.284761 0.284761
0.292047 0.292047 0.292047
0.299334 0.299334 0.299334
0.306620 0.306620 0.306620
0.313906 0.313906 0.313906
0.321193 0.321193 0.321193
0.328479 0.328479 0.328479
0.335766 0.335766 0.335766
0.343052 0.343052 0.343052
0.350339 0.350339 0.350339
0.140356 0.140356 0.140356
0.147642 0.147642 0.147642
0.154929 0.154929 0.154929
0.162215 0.162215 0.162215
0.169502 0.169502 0.169502
0.176788 0.176788 0.176788
0.184075 0.184075 0.184075
0.191361 0.191361 0.191361
0.198648 0.198648 0.198648
0.205934 0.205934 0.205934
0.213220 0.213220 0.213220
0.220507 0.220507 0.220507
0.227793 0.227793 0.227793
0.235080 0.235080 0.235080
0.242366 0.242366 0.242366
0.249653 0.249653 0.249653
0.256939 0.256939 0.256939
0.264226 0.264226 0.264226
0.271512 0.271512 0.271512
0.278799 0.278799 0.278799
0.286085 0.286085 0.286085
0.293372 0.293372 0.293372
0.300658 0.300658 0.300658
0.307945 0.307945 0.307945
0.315231 0.315231 0.315231
0.322518 0.322518 0.322518
0.329804 0.329804 0.329804
0.337091 0.337091 0.337091
0.344377 0.344377 0.344377
0.351664 0.351664 0.351664
0.358950 0.358950 0.358950
0.366237 0.366237 0.366237
0.373523 0.373523 0.373523
0.163540 0.163540 0.163540
0.170826 0.170826 0.170826
0.178113 0.178113 0.178113
0.185399 0.185399 0.185399
0.192686 0.192686 0.192686
0.199972 0.199972 0.199972
0.207259 0.207259 0.207259
0.214545 0.214545 0.214545
0.221832 0.221832 0.221832
0.229118 0.229118 0.229118
0.236405 0.236405 0.236405
0.243691 0.243691 0.243691
0.250978 0.250978 0.250978
0.258264 0.258264 0.258264
0.265551 0.265551 0.265551
0.272837 0.272837 0.272837
0.280124 0.280124 0.280124
0.287410 0.287410 0.287410
0.294697 0.294697 0.294697
0.301983 0.301983 0.301983
0.309270 0.309270 0.309270
0.316556 0.316556 0.316556
0.323843 0.323843 0.323843
0.331129 0.331129 0.331129
0.338416 0.338416 0.338416
0.345702 0.345702 0.345702
0.352989 0.352989 0.352989
0.360275 0.360275 0.360275
0.367562 0.367562 0.367562
0.374848 0.374848 0.374848
0.382134 0.382134 0.382134
0.389421 0.389421 0.389421
0.396707 0.396707 0.396707
0.186724 0.186724 0.186724
0.194011 0.194011 0.194011
0.201297 0.201297 0.201297
0.208584 0.208584 0.208584
0.215870 0.215870 0.215870
0.223157 0.223157 0.223157
0.230443 0.230443 0.230443
0.237730 0.237730 0.237730
0.245016 0.245016 0.245016
0.252303 0.252303 0.252303
0.259589 0.259589 0.259589
0.266876 0.266876 0.266876
0.274162 0.274162 0.274162
0.281448 0.281448 0.281448
0.288735 0.288735 0.288735
0.296021 0.296021 0.296021
0.303308 0.303308 0.303308
0.310594 0.310594 0.310594
0.317881 0.317881 0.317881
0.325167 0.325167 0.325167
0.332454 0.332454 0.332454
0.339740 0.339740 0.339740
0.347027 0.347027 0.347027
0.354313 0.354313 0.354313
0.361600 0.361600 0.361600
0.368886 0.368886 0.368886
0.376173 0.376173 0.376173
0.383459 0.383459 0.383459
0.390746 0.390746 0.390746
0.398032 0.398032 0.398032
0.405319 0.405319 0.405319
0.412605 0.412605 0.412605
0.419892 0.419892 0.419892
0.209908 0.209908 0.209908
0.217195 0.217195 0.217195
0.224481 0.224481 0.224481
0.231768 0.231768 0.231768
0.239054 0.239054 0.239054
0.246341 0.246341 0.246341
0.253627 0.253627 0.253627
0.260914 0.260914 0.260914
0.268200 0.268200 0.268200
0.275487 0.275487 0.275487
0.282773 0.282773 0.282773
0.290060 0.290060 0.290060
0.297346 0.297346 0.297346
0.304633 0.304633 0.304633
0.311919 0.311919 0.311919
0.319206 0.319206 0.319206
0.326492 0.326492 0.326492
0.333779 0.333779 0.333779
0.341065 0.341065 0.341065
0.348352 0.348352 0.348352
0.355638 0.355638 0.355638
0.362925 0.362925 0.362925
0.370211 0.370211 0.370211
0.377498 0.377498 0.377498
0.384784 0.384784 0.384784
0.392071 0.392071 0.392071
0.399357 0.399357 0.399357
0.406644 0.406644 0.406644
0.413930 0.413930 0.413930
0.421217 0.421217 0.421217
0.428503 0.428503 0.428503
0.435790 0.435790 0.435790
0.443076 0.443076 0.443076
0.233093 0.233093 0.233093
0.240379 0.240379 0.240379
0.247666 0.247666 0.247666
0.254952 0.254952 0.254952
0.262239 0.262239 0.262239
0.269525 0.269525 0.269525
0.276812 0.276812 0.276812
0.284098 0.284098 0.284098
0.291385 0.291385 0.291385
0.298671 0.298671 0.298671
0.305958 0.305958 0.305958
0.313244 0.313244 0.313244
0.320531 0.320531 0.320531
0.327817 0.327817 0.327817
0.335104 0.335104 0.335104
0.342390 0.342390 0.342390
0.349676 0.349676 0.349676
0.356963 0.356963 0.356963
0.364249 0.364249 0.364249
0.371536 0.371536 0.371536
0.378822 0.378822 0.378822
0.386109 0.386109 0.386109
0.393395 0.393395 0.393395
0.400682 0.400682 0.400682
0.407968 0.407968 0.407968
0.415255 0.415255 0.415255
0.422541 0.422541 0.422541
0.429828 0.429828 0.429828
0.437114 0.437114 0.437114
0.444401 0.444401 0.444401
0.451687 0.451687 0.451687
0.458974 0.458974 0.458974
0.466260 0.466260 0.466260
0.256277 0.256277 0.256277
0.263563 0.263563 0.263563
0.270850 0.270850 0.270850
0.278136 0.278136 0.278136
0.285423 0.285423 0.285423
0.292709 0.292709 0.292709
0.299996 0.299996 0.299996
0.307282 0.307282 0.307282
0.314569 0.314569 0.314569
0.321855 0.321855 0.321855
0.329142 0.329142 0.329142
0.336428 0.336428 0.336428
0.343715 0.343715 0.343715
0.351001 0.351001 0.351001
0.358288 0.358288 0.358288
0.365574 0.365574 0.365574
0.372861 0.372861 0.372861
0.380147 0.380147 0.380147
0.387434 0.387434 0.387434
0.394720 0.394720 0.394720
0.402007 0.402007 0.402007
0.409293 0.409293 0.409293
0.416580 0.416580 0.416580
0.423866 0.423866 0.423866
0.431153 0.431153 0.431153
0.438439 0.438439 0.438439
0.445726 0.445726 0.445726
0.453012 0.453012 0.453012
0.460299 0.460299 0.460299
0.467585 0.467585 0.467585
0.474872 0.474872 0.474872
0.482158 0.482158 0.482158
0.489445 0.489445 0.489445
0.279461 0.279461 0.279461
0.286748 0.286748 0.286748
0.294034 0.294034 0.294034
0.301321 0.301321 0.301321
0.308607 0.308607 0.308607
0.315894 0.315894 0.315894
0.323180 0.323180 0.323180
0.330467 0.330467 0.330467
0.337753 0.337753 0.337753
0.345040 0.345040 0.345040
0.352326 0.352326 0.352326
0.359613 0.359613 0.359613
0.366899 0.366899 0.366899
0.374186 0.374186 0.374186
0.381472 0.381472 0.381472
0.388759 0.388759 0.388759
0.396045 0.396045 0.396045
0.403332 0.403332 0.403332
0.410618 0.410618 0.410618
0.417905 0.417905 0.417905
0.425191 0.425191 0.425191
0.432477 0.432477 0.432477
0.439764 0.439764 0.439764
0.447050 0.447050 0.447050
0.454337 0.454337 0.454337
0.461623 0.461623 0.461623
0.468910 0.468910 0.468910
0.476196 0.476196 0.476196
0.483483 0.483483 0.483483
0.490769 0.490769 0.490769
0.498056 0.498056 0.498056
0.505342 0.505342 0.505342
0.512629 0.512629 0.512629
0.302646 0.302646 0.302646
0.309932 0.309932 0.309932
0.317219 0.317219 0.317219
0.324505 0.324505 0.324505
0.331791 0.331791 0.331791
0.339078 0.339078 0.339078
0.346364 0.346364 0.346364
0.353651 0.353651 0.353651
0.360937 0.360937 0.360937
0.368224 0.368224 0.368224
0.375510 0.375510 0.375510
0.382797 0.382797 0.382797
0.390083 0.390083 0.390083
0.397370 0.397370 0.397370
0.404656 0.404656 0.404656
0.411943 0.411943 0.411943
0.419229 0.419229 0.419229
0.426516 0.426516 0.426516
0.433802 0.433802 0.433802
0.441089 0.441089 0.441089
0.448375 0.448375 0.448375
0.455662 0.455662 0.455662
0.462948 0.462948 0.462948
0.470235 0.470235 0.470235
0.477521 0.477521 0.477521
0.484808 0.484808 0.484808
0.492094 0.492094 0.492094
0.499381 0.499381 0.499381
0.506667 0.506667 0.506667
0.513954 0.513954 0.513954
0.521240 0.521240 0.521240
0.528527 0.528527 0.528527
0.535813 0.535813 0.535813
0.325830 0.325830 0.325830
0.333116 0.333116 0.333116
0.340403 0.340403 0.340403
0.347689 0.347689 0.347689
0.354976 0.354976 0.354976
0.362262 0.362262 0.362262
0.369549 0.369549 0.369549
0.376835 0.376835 0.376835
0.384122 0.384122 0.384122
0.391408 0.391408 0.391408
0.398695 0.398695 0.398695
0.405981 0.405981 0.405981
0.413268 0.413268 0.413268
0.420554 0.420554 0.420554
0.427841 0.427841 0.427841
0.435127 0.435127 0.435127
0.442414 0.442414 0.442414
0.449700 0.449700 0.449700
0.456987 0.456987 0.456987
0.464273 0.464273 0.464273
0.471560 0.471560 0.471560
0.478846 0.478846 0.478846
0.486133 0.486133 0.486133
0.493419 0.493419 0.493419
0.500705 0.500705 0.500705
0.507992 0.507992 0.507992
0.515278 0.515278 0.515278
0.522565 0.522565 0.522565
0.529851 0.529851 0.529851
0.537138 0.537138 0.537138
0.544424 0.544424 0.544424
0.551711 0.551711 0.551711
0.558997 0.558997 0.558997
0.349014 0.349014 0.349014
0.356301 0.356301 0.356301
0.363587 0.363587 0.363587
0.370874 0.370874 0.370874
0.378160 0.378160 0.378160
0.385447 0.385447 0.385447
0.392733 0.392733 0.392733
0.400019 0.400019 0.400019
0.407306 0.407306 0.407306
0.414592 0.414592 0.414592
0.421879 0.421879 0.421879
0.429165 0.429165 0.429165
0.436452 0.436452 0.436452
0.443738 0.443738 0.443738
0.451025 0.451025 0.451025
0.458311 0.458311 0.458311
0.465598 0.465598 0.465598
0.472884 0.472884 0.472884
0.480171 0.480171 0.480171
0.487457 0.487457 0.487457
0.494744 0.494744 0.494744
0.502030 0.502030 0.502030
0.509317 0.509317 0.509317
0.516603 0.516603 0.516603
0.523890 0.523890 0.523890
0.531176 0.531176 0.531176
0.538463 0.538463 0.538463
0.545749 0.545749 0.545749
0.553036 0.553036 0.553036
0.560322 0.560322 0.560322
0.567609 0.567609 0.567609
0.574895 0.574895 0.574895
0.582182 0.582182 0.582182
0.372198 0.372198 0.372198
0.379485 0.379485 0.379485
0.386771 0.386771 0.386771
0.394058 0.394058 0.394058
0.401344 0.401344 0.401344
0.408631 0.408631 0.408631
0.415917 0.415917 0.415917
0.423204 0.423204 0.423204
0.430490 0.430490 0.430490
0.437777 0.437777 0.437777
0.445063 0.445063 0.445063
0.452350 0.452350 0.452350
0.459636 0.459636 0.459636
0.466923 0.466923 0.466923
0.474209 0.474209 0.474209
0.481496 0.481496 0.481496
0.488782 0.488782 0.488782
0.496069 0.496069 0.496069
0.503355 0.503355 0.503355
0.510642 0.510642 0.510642
0.517928 0.517928 0.517928
0.525215 0.525215 0.525215
0.532501 0.532501 0.532501
0.539788 0.539788 0.539788
0.547074 0.547074 0.547074
0.554361 0.554361 0.554361
0.561647 0.561647 0.561647
0.568933 0.568933 0.568933
0.576220 0.576220 0.576220
0.583506 0.583506 0.583506
0.590793 0.590793 0.590793
0.598079 0.598079 0.598079
0.605366 0.605366 0.605366
0.395383 0.395383 0.395383
0.402669 0.402669 0.402669
0.409956 0.409956 0.409956
0.417242 0.417242 0.417242
0.424529 0.424529 0.424529
0.431815 0.431815 0.431815
0.439102 0.439102 0.439102
0.446388 0.446388 0.446388
0.453675 0.453675 0.453675
0.460961 0.460961 0.460961
0.468247 0.468247 0.468247
0.475534 0.475534 0.475534
0.482820 0.482820 0.482820
0.490107 0.490107 0.490107
0.497393 0.497393 0.497393
0.504680 0.504680 0.504680
0.511966 0.511966 0.511966
0.519253 0.519253 0.519253
0.526539 0.526539 0.526539
0.533826 0.533826 0.533826
0.541112 0.541112 0.541112
0.548399 0.548399 0.548399
0.555685 0.555685 0.555685
0.562972 0.562972 0.562972
0.570258 0.570258 0.570258
0.577545 0.577545 0.577545
0.584831 0.584831 0.584831
0.592118 0.592118 0.592118
0.599404 0.599404 0.599404
0.606691 0.606691 0.606691
0.613977 0.613977 0.613977
0.621264 0.621264 0.621264
0.628550 0.628550 0.628550
0.418567 0.418567 0.418567
0.425853 0.425853 0.425853
0.433140 0.433140 0.433140
0.440426 0.440426 0.440426
0.447713 0.447713 0.447713
0.454999 0.454999 0.454999
0.462286 0.462286 0.462286
0.469572 0.469572 0.469572
0.476859 0.476859 0.476859
0.484145 0.484145 0.484145
0.491432 0.491432 0.491432
0.498718 0.498718 0.498718
0.506005 0.506005 0.506005
0.513291 0.513291 0.513291
0.520578 0.520578 0.520578
0.527864 0.527864 0.527864
0.535151 0.535151 0.535151
0.542437 0.542437 0.542437
0.549724 0.549724 0.549724
0.557010 0.557010 0.557010
0.564297 0.564297 0.564297
0.571583 0.571583 0.571583
0.578870 0.578870 0.578870
0.586156 0.586156 0.586156
0.593443 0.593443 0.593443
0.600729 0.600729 0.600729
0.608016 0.608016 0.608016
0.615302 0.615302 0.615302
0.622589 0.622589 0.622589
0.629875 0.629875 0.629875
0.637161 0.637161 0.637161
0.644448 0.644448 0.644448
0.651734 0.651734 0.651734
0.441751 0.441751 0.441751
0.449038 0.449038 0.449038
0.456324 0.456324 0.456324
0.463611 0.463611 0.463611
0.470897 0.470897 0.470897
0.478184 0.478184 0.478184
0.485470 0.485470 0.485470
0.492757 0.492757 0.492757
0.500043 0.500043 0.500043
0.507330 0.507330 0.507330
0.514616 0.514616 0.514616
0.521903 0.521903 0.521903
0.529189 0.529189 0.529189
0.536475 0.536475 0.536475
0.543762 0.543762 0.543762
0.551048 0.551048 0.551048
0.558335 0.558335 0.558335
0.565621 0.565621 0.565621
0.572908 0.572908 0.572908
0.580194 0.580194 0.580194
0.587481 0.587481 0.587481
0.594767 0.594767 0.594767
0.602054 0.602054 0.602054
0.609340 0.609340 0.609340
0.616627 0.616627 0.616627
0.623913 0.623913 0.623913
0.631200 0.631200 0.631200
0.638486 0.638486 0.638486
0.645773 0.645773 0.645773
0.653059 0.653059 0.653059
0.660346 0.660346 0.660346
0.667632 0.667632 0.667632
0.674919 0.674919 0.674919
0.464935 0.464935 0.464935
0.472222 0.472222 0.472222
0.479508 0.479508 0.479508
0.486795 0.486795 0.486795
0.494081 0.494081 0.494081
0.501368 0.501368 0.501368
0.508654 0.508654 0.508654
0.515941 0.515941 0.515941
0.523227 0.523227 0.523227
0.530514 0.530514 0.530514
0.537800 0.537800 0.537800
0.545087 0.545087 0.545087
0.552373 0.552373 0.552373
0.559660 0.559660 0.559660
0.566946 0.566946 0.566946
0.574233 0.574233 0.574233
0.581519 0.581519 0.581519
0.588806 0.588806 0.588806
0.596092 0.596092 0.596092
0.603379 0.603379 0.603379
0.610665 0.610665 0.610665
0.617952 0.617952 0.617952
0.625238 0.625238 0.625238
0.632525 0.632525 0.632525
0.639811 0.639811 0.639811
0.647098 0.647098 0.647098
0.654384 0.654384 0.654384
0.661671 0.661671 0.661671
0.668957 0.668957 0.668957
0.676244 0.676244 0.676244
0.683530 0.683530 0.683530
0.690817 0.690817 0.690817
0.698103 0.698103 0.698103
0.488120 0.488120 0.488120
0.495406 0.495406 0.495406
0.502693 0.502693 0.502693
0.509979 0.509979 0.509979
0.517266 0.517266 0.517266
0.524552 0.524552 0.524552
0.531839 0.531839 0.531839
0.539125 0.539125 0.539125
0.546412 0.546412 0.546412
0.553698 0.553698 0.553698
0.560985 0.560985 0.560985
0.568271 0.568271 0.568271
0.575558 0.575558 0.575558
0.582844 0.582844 0.582844
0.590131 0.590131 0.590131
0.597417 0.597417 0.597417
0.604703 0.604703 0.604703
0.611990 0.611990 0.611990
0.619276 0.619276 0.619276
0.626563 0.626563 0.626563
0.633849 0.633849 0.633849
0.641136 0.641136 0.641136
0.648422 0.648422 0.648422
0.655709 0.655709 0.655709
0.662995 0.662995 0.662995
0.670282 0.670282 0.670282
0.677568 0.677568 0.677568
0.684855 0.684855 0.684855
0.692141 0.692141 0.692141
0.699428 0.699428 0.699428
0.706714 0.706714 0.706714
0.714001 0.714001 0.714001
0.721287 0.721287 0.721287
0.511304 0.511304 0.511304
0.518590 0.518590 0.518590
0.525877 0.525877 0.525877
0.533163 0.533163 0.533163
0.540450 0.540450 0.540450
0.547736 0.547736 0.547736
0.555023 0.555023 0.555023
0.562309 0.562309 0.562309
0.569596 0.569596 0.569596
0.576882 0.576882 0.576882
0.584169 0.584169 0.584169
0.591455 0.591455 0.591455
0.598742 0.598742 0.598742
0.606028 0.606028 0.606028
0.613315 0.613315 0.613315
0.620601 0.620601 0.620601
0.627888 0.627888 0.627888
0.635174 0.635174 0.635174
0.642461 0.642461 0.642461
0.649747 0.649747 0.649747
0.657034 0.657034 0.657034
0.664320 0.664320 0.664320
0.671607 0.671607 0.671607
0.678893 0.678893 0.678893
0.686180 0.686180 0.686180
0.693466 0.693466 0.693466
0.700753 0.700753 0.700753
0.708039 0.708039 0.708039
0.715326 0.715326 0.715326
0.722612 0.722612 0.722612
0.729899 0.729899 0.729899
0.737185 0.737185 0.737185
0.744472 0.744472 0.744472
0.534488 0.534488 0.534488
0.541775 0.541775 0.541775
0.549061 0.549061 0.549061
0.556348 0.556348 0.556348
0.563634 0.563634 0.563634
0.570921 0.570921 0.570921
0.578207 0.578207 0.578207
0.585494 0.585494 0.585494
0.592780 0.592780 0.592780
0.600067 0.600067 0.600067
0.607353 0.607353 0.607353
0.614640 0.614640 0.614640
0.621926 0.621926 0.621926
0.629213 0.629213 0.629213
0.636499 0.636499 0.636499
0.643786 0.643786 0.643786
0.651072 0.651072 0.651072
0.658359 0.658359 0.658359
0.665645 0.665645 0.665645
0.672932 0.672932 0.672932
0.680218 0.680218 0.680218
0.687504 0.687504 0.687504
0.694791 0.694791 0.694791
0.702077 0.702077 0.702077
0.709364 0.709364 0.709364
0.716650 0.716650 0.716650
0.723937 0.723937 0.723937
0.731223 0.731223 0.731223
0.738510 0.738510 0.738510
0.745796 0.745796 0.745796
0.753083 0.753083 0.753083
0.760369 0.760369 0.760369
0.767656 0.767656 0.767656
0.557673 0.557673 0.557673
0.564959 0.564959 0.564959
0.572246 0.572246 0.572246
0.579532 0.579532 0.579532
0.586818 0.586818 0.586818
0.594105 0.594105 0.594105
0.601391 0.601391 0.601391
0.608678 0.608678 0.608678
0.615964 0.615964 0.615964
0.623251 0.623251 0.623251
0.630537 0.630537 0.630537
0.637824 0.637824 0.637824
0.645110 0.645110 0.645110
0.652397 0.652397 0.652397
0.659683 0.659683 0.659683
0.666970 0.666970 0.666970
0.674256 0.674256 0.674256
0.681543 0.681543 0.681543
0.688829 0.688829 0.688829
0.696116 0.696116 0.696116
0.703402 0.703402 0.703402
0.710689 0.710689 0.710689
0.717975 0.717975 0.717975
0.725262 0.725262 0.725262
0.732548 0.732548 0.732548
0.739835 0.739835 0.739835
0.747121 0.747121 0.747121
0.754408 0.754408 0.754408
0.761694 0.761694 0.761694
0.768981 0.768981 0.768981
0.776267 0.776267 0.776267
0.783554 0.783554 0.783554
0.790840 0.790840 0.790840
0.580857 0.580857 0.580857
0.588143 0.588143 0.588143
0.595430 0.595430 0.595430
0.602716 0.602716 0.602716
0.610003 0.610003 0.610003
0.617289 0.617289 0.617289
0.624576 0.624576 0.624576
0.631862 0.631862 0.631862
0.639149 0.639149 0.639149
0.646435 0.646435 0.646435
0.653722 0.653722 0.653722
0.661008 0.661008 0.661008
0.668295 0.668295 0.668295
0.675581 0.675581 0.675581
0.682868 0.682868 0.682868
0.690154 0.690154 0.690154
0.697441 0.697441 0.697441
0.704727 0.704727 0.704727
0.712014 0.712014 0.712014
0.719300 0.719300 0.719300
0.726587 0.726587 0.726587
0.733873 0.733873 0.733873
0.741160 0.741160 0.741160
0.748446 0.748446 0.748446
0.755732 0.755732 0.755732
0.763019 0.763019 0.763019
0.770305 0.770305 0.770305
0.777592 0.777592 0.777592
0.784878 0.784878 0.784878
0.792165 0.792165 0.792165
0.799451 0.799451 0.799451
0.806738 0.806738 0.806738
0.814024 0.814024 0.814024
0.604041 0.604041 0.604041
0.611328 0.611328 0.611328
0.618614 0.618614 0.618614
0.625901 0.625901 0.625901
0.633187 0.633187 0.633187
0.640474 0.640474 0.640474
0.647760 0.647760 0.647760
0.655046 0.655046 0.655046
0.662333 0.662333 0.662333
0.669619 0.669619 0.669619
0.676906 0.676906 0.676906
0.684192 0.684192 0.684192
0.691479 0.691479 0.691479
0.698765 0.698765 0.698765
0.706052 0.706052 0.706052
0.713338 0.713338 0.713338
0.720625 0.720625 0.720625
0.727911 0.727911 0.727911
0.735198 0.735198 0.735198
0.742484 0.742484 0.742484
0.749771 0.749771 0.749771
0.757057 0.757057 0.757057
0.764344 0.764344 0.764344
0.771630 0.771630 0.771630
0.778917 0.778917 0.778917
0.786203 0.786203 0.786203
0.793490 0.793490 0.793490
0.800776 0.800776 0.800776
