fexer/Resources/LUTs/ilford_hp5_bw.cube
TITLE "HP5 BW"
LUT_3D_SIZE 9
DOMAIN_MIN 0.0 0.0 0.0
DOMAIN_MAX 1.0 1.0 1.0
0.001250 0.001250 0.001250
0.030396 0.030396 0.030396
0.059542 0.059542 0.059542
0.088688 0.088688 0.088688
0.117834 0.117834 0.117834
0.146980 0.146980 0.146980
0.176126 0.176126 0.176126
0.205272 0.205272 0.205272
0.234418 0.234418 0.234418
0.093987 0.093987 0.093987
0.123133 0.123133 0.123133
0.152279 0.152279 0.152279
0.181425 0.181425 0.181425
0.210571 0.210571 0.210571
0.239717 0.239717 0.239717
0.268863 0.268863 0.268863
0.298009 0.298009 0.298009
0.327155 0.327155 0.327155
0.186724 0.186724 0.186724
0.215870 0.215870 0.215870
0.245016 0.245016 0.245016
0.274162 0.274162 0.274162
0.303308 0.303308 0.303308
0.332454 0.332454 0.332454
0.361600 0.361600 0.361600
0.390746 0.390746 0.390746
0.419892 0.419892 0.419892
0.279461 0.279461 0.279461
0.308607 0.308607 0.308607
0.337753 0.337753 0.337753
0.366899 0.366899 0.366899
0.396045 0.396045 0.396045
0.425191 0.425191 0.425191
0.454337 0.454337 0.454337
0.483483 0.483483 0.483483
0.512629 0.512629 0.512629
0.372198 0.372198 0.372198
0.401344 0.401344 0.401344
0.430490 0.430490 0.430490
0.459636 0.459636 0.459636
0.488782 0.488782 0.488782
0.517928 0.517928 0.517928
0.547074 0.547074 0.547074
0.576220 0.576220 0.576220
0.605366 0.605366 0.605366
0.464935 0.464935 0.464935
0.494081 0.494081 0.494081
0.523227 0.523227 0.523227
0.552373 0.552373 0.552373
0.581519 0.581519 0.581519
0.610665 0.610665 0.610665
0.639811 0.639811 0.639811
0.668957 0.668957 0.668957
0.698103 0.698103 0.698103
0.557673 0.557673 0.557673
0.586818 0.586818 0.586818
0.615964 0.615964 0.615964
0.645110 0.645110 0.645110
0.674256 0.674256 0.674256
0.703402 0.703402 0.703402
0.732548 0.732548 0.732548
0.761694 0.761694 0.761694
0.790840 0.790840 0.790840
0.650410 0.650410 0.650410
0.679556 0.679556 0.679556
0.708702 0.708702 0.708702
0.737847 0.737847 0.737847
0.766993 0.766993 0.766993
0.796139 0.796139 0.796139
0.825285 0.825285 0.825285
0.854431 0.854431 0.854431
0.883577 0.883577 0.883577
0.743147 0.743147 0.743147
0.772293 0.772293 0.772293
0.801439 0.801439 0.801439
0.830585 0.830585 0.830585
0.859730 0.859730 0.859730
0.888876 0.888876 0.888876
0.918022 0.918022 0.918022
0.947168 0.947168 0.947168
0.976314 0.976314 0.976314
0.011849 0.011849 0.011849
0.040994 0.040994 0.040994
0.070140 0.070140 0.070140
0.099286 0.099286 0.099286
0.128432 0.128432 0.128432
0.157578 0.157578 0.157578
0.186724 0.186724 0.186724
0.215870 0.215870 0.215870
0.245016 0.245016 0.245016
0.104586 0.104586 0.104586
0.133732 0.133732 0.133732
0.162878 0.162878 0.162878
0.192023 0.192023 0.192023
0.221169 0.221169 0.221169
0.250315 0.250315 0.250315
0.279461 0.279461 0.279461
0.308607 0.308607 0.308607
0.337753 0.337753 0.337753
0.197323 0.197323 0.197323
0.226469 0.226469 0.226469
0.255615 0.255615 0.255615
0.284761 0.284761 0.284761
0.313906 0.313906 0.313906
0.343052 0.343052 0.343052
0.372198 0.372198 0.372198
0.401344 0.401344 0.401344
0.430490 0.430490 0.430490
0.290060 0.290060 0.290060
0.319206 0.319206 0.319206
0.348352 0.348352 0.348352
0.377498 0.377498 0.377498
0.406644 0.406644 0.406644
0.435790 0.435790 0.435790
0.464935 0.464935 0.464935
0.494081 0.494081 0.494081
0.523227 0.523227 0.523227
0.382797 0.382797 0.382797
0.411943 0.411943 0.411943
0.441089 0.441089 0.441089
0.470235 0.470235 0.470235
0.499381 0.499381 0.499381
0.528527 0.528527 0.528527
0.557673 0.557673 0.557673
0.586818 0.586818 0.586818
0.615964 0.615964 0.615964
0.475534 0.475534 0.475534
0.504680 0.504680 0.504680
0.533826 0.533826 0.533826
0.562972 0.562972 0.562972
0.592118 0.592118 0.592118
0.621264 0.621264 0.621264
0.650410 0.650410 0.650410
0.679556 0.679556 0.679556
0.708702 0.708702 0.708702
0.568271 0.568271 0.568271
0.597417 0.597417 0.597417
0.626563 0.626563 0.626563
0.655709 0.655709 0.655709
0.684855 0.684855 0.684855
0.714001 0.714001 0.714001
0.743147 0.743147 0.743147
0.772293 0.772293 0.772293
0.801439 0.801439 0.801439
0.661008 0.661008 0.661008
0.690154 0.690154 0.690154
0.719300 0.719300 0.719300
0.748446 0.748446 0.748446
0.777592 0.777592 0.777592
0.806738 0.806738 0.806738
0.835884 0.835884 0.835884
0.865030 0.865030 0.865030
0.894176 0.894176 0.894176
0.753745 0.753745 0.753745
0.782891 0.782891 0.782891
0.812037 0.812037 0.812037
0.841183 0.841183 0.841183
0.870329 0.870329 0.870329
0.899475 0.899475 0.899475
0.928621 0.928621 0.928621
0.957767 0.957767 0.957767
0.986913 0.986913 0.986913
0.022447 0.022447 0.022447
0.051593 0.051593 0.051593
0.080739 0.080739 0.080739
0.109885 0.109885 0.109885
0.139031 0.139031 0.139031
0.168177 0.168177 0.168177
0.197323 0.197323 0.197323
0.226469 0.226469 0.226469
0.255615 0.255615 0.255615
0.115184 0.115184 0.115184
0.144330 0.144330 0.144330
0.173476 0.173476 0.173476
0.202622 0.202622 0.202622
0.231768 0.231768 0.231768
0.260914 0.260914 0.260914
0.290060 0.290060 0.290060
0.319206 0.319206 0.319206
0.348352 0.348352 0.348352
0.207921 0.207921 0.207921
0.237067 0.237067 0.237067
0.266213 0.266213 0.266213
0.295359 0.295359 0.295359
0.324505 0.324505 0.324505
0.353651 0.353651 0.353651
0.382797 0.382797 0.382797
0.411943 0.411943 0.411943
0.441089 0.441089 0.441089
0.300658 0.300658 0.300658
0.329804 0.329804 0.329804
0.358950 0.358950 0.358950
0.388096 0.388096 0.388096
0.417242 0.417242 0.417242
0.446388 0.446388 0.446388
0.475534 0.475534 0.475534
0.504680 0.504680 0.504680
0.533826 0.533826 0.533826
0.393395 0.393395 0.393395
0.422541 0.422541 0.422541
0.451687 0.451687 0.451687
0.480833 0.480833 0.480833
0.509979 0.509979 0.509979
0.539125 0.539125 0.539125
0.568271 0.568271 0.568271
0.597417 0.597417 0.597417
0.626563 0.626563 0.626563
0.486133 0.486133 0.486133
0.515278 0.515278 0.515278
0.544424 0.544424 0.544424
0.573570 0.573570 0.573570
0.602716 0.602716 0.602716
0.631862 0.631862 0.631862
0.661008 0.661008 0.661008
0.690154 0.690154 0.690154
0.719300 0.719300 0.719300
0.578870 0.578870 0.578870
0.608016 0.608016 0.608016
0.637161 0.637161 0.637161
0.666307 0.666307 0.666307
0.695453 0.695453 0.695453
0.724599 0.724599 0.724599
0.753745 0.753745 0.753745
0.782891 0.782891 0.782891
0.812037 0.812037 0.812037
0.671607 0.671607 0.671607
0.700753 0.700753 0.700753
0.729899 0.729899 0.729899
0.759045 0.759045 0.759045
0.788190 0.788190 0.788190
0.817336 0.817336 0.817336
0.846482 0.846482 0.846482
0.875628 0.875628 0.875628
0.904774 0.904774 0.904774
0.764344 0.764344 0.764344
0.793490 0.793490 0.793490
0.822636 0.822636 0.822636
0.851782 0.851782 0.851782
0.880928 0.880928 0.880928
0.910073 0.910073 0.910073
0.939219 0.939219 0.939219
0.968365 0.968365 0.968365
0.997511 0.997511 0.997511
0.033046 0.033046 0.033046
0.062192 0.062192 0.062192
0.091337 0.091337 0.091337
0.120483 0.120483 0.120483
0.149629 0.149629 0.149629
0.178775 0.178775 0.178775
0.207921 0.207921 0.207921
0.237067 0.237067 0.237067
0.266213 0.266213 0.266213
0.125783 0.125783 0.125783
0.154929 0.154929 0.154929
0.184075 0.184075 0.184075
0.213220 0.213220 0.213220
0.242366 0.242366 0.242366
0.271512 0.271512 0.271512
0.300658 0.300658 0.300658
0.329804 0.329804 0.329804
0.358950 0.358950 0.358950
0.218520 0.218520 0.218520
0.247666 0.247666 0.247666
0.276812 0.276812 0.276812
0.305958 0.305958 0.305958
0.335104 0.335104 0.335104
0.364249 0.364249 0.364249
0.393395 0.393395 0.393395
0.422541 0.422541 0.422541
0.451687 0.451687 0.451687
0.311257 0.311257 0.311257
0.340403 0.340403 0.340403
0.369549 0.369549 0.369549
0.398695 0.398695 0.398695
0.427841 0.427841 0.427841
0.456987 0.456987 0.456987
0.486133 0.486133 0.486133
0.515278 0.515278 0.515278
0.544424 0.544424 0.544424
0.403994 0.403994 0.403994
0.433140 0.433140 0.433140
0.462286 0.462286 0.462286
0.491432 0.491432 0.491432
0.520578 0.520578 0.520578
0.549724 0.549724 0.549724
0.578870 0.578870 0.578870
0.608016 0.608016 0.608016
0.637161 0.637161 0.637161
0.496731 0.496731 0.496731
0.525877 0.525877 0.525877
0.555023 0.555023 0.555023
0.584169 0.584169 0.584169
0.613315 0.613315 0.613315
0.642461 0.642461 0.642461
0.671607 0.671607 0.671607
0.700753 0.700753 0.700753
0.729899 0.729899 0.729899
0.589468 0.589468 0.589468
0.618614 0.618614 0.618614
0.647760 0.647760 0.647760
0.676906 0.676906 0.676906
0.706052 0.706052 0.706052
0.735198 0.735198 0.735198
0.764344 0.764344 0.764344
0.793490 0.793490 0.793490
0.822636 0.822636 0.822636
0.682205 0.682205 0.682205
0.711351 0.711351 0.711351
0.740497 0.740497 0.740497
0.769643 0.769643 0.769643
0.798789 0.798789 0.798789
0.827935 0.827935 0.827935
0.857081 0.857081 0.857081
0.886227 0.886227 0.886227
0.915373 0.915373 0.915373
0.774942 0.774942 0.774942
0.804088 0.804088 0.804088
0.833234 0.833234 0.833234
0.862380 0.862380 0.862380
0.891526 0.891526 0.891526
0.920672 0.920672 0.920672
0.949818 0.949818 0.949818
0.978964 0.978964 0.978964
1.000000 1.000000 1.000000
0.043644 0.043644 0.043644
0.072790 0.072790 0.072790
0.101936 0.101936 0.101936
0.131082 0.131082 0.131082
0.160228 0.160228 0.160228
0.189374 0.189374 0.189374
0.218520 0.218520 0.218520
0.247666 0.247666 0.247666
0.276812 0.276812 0.276812
0.136381 0.136381 0.136381
0.165527 0.165527 0.165527
0.194673 0.194673 0.194673
0.223819 0.223819 0.223819
0.252965 0.252965 0.252965
0.282111 0.282111 0.282111
0.311257 0.311257 0.311257
0.340403 0.340403 0.340403
0.369549 0.369549 0.369549
0.229118 0.229118 0.229118
0.258264 0.258264 0.258264
0.287410 0.287410 0.287410
0.316556 0.316556 0.316556
0.345702 0.345702 0.345702
0.374848 0.374848 0.374848
0.403994 0.403994 0.403994
0.433140 0.433140 0.433140
0.462286 0.462286 0.462286
0.321855 0.321855 0.321855
0.351001 0.351001 0.351001
0.380147 0.380147 0.380147
0.409293 0.409293 0.409293
0.438439 0.438439 0.438439
0.467585 0.467585 0.467585
0.496731 0.496731 0.496731
0.525877 0.525877 0.525877
0.555023 0.555023 0.555023
0.414592 0.414592 0.414592
0.443738 0.443738 0.443738
0.472884 0.472884 0.472884
0.502030 0.502030 0.502030
0.531176 0.531176 0.531176
0.560322 0.560322 0.560322
0.589468 0.589468 0.589468
0.618614 0.618614 0.618614
0.647760 0.647760 0.647760
0.507330 0.507330 0.507330
0.536475 0.536475 0.536475
0.565621 0.565621 0.565621
0.594767 0.594767 0.594767
0.623913 0.623913 0.623913
0.653059 0.653059 0.653059
0.682205 0.682205 0.682205
0.711351 0.711351 0.711351
0.740497 0.740497 0.740497
0.600067 0.600067 0.600067
0.629213 0.629213 0.629213
0.658359 0.658359 0.658359
0.687504 0.687504 0.687504
0.716650 0.716650 0.716650
0.745796 0.745796 0.745796
0.774942 0.774942 0.774942
0.804088 0.804088 0.804088
0.833234 0.833234 0.833234
0.692804 0.692804 0.692804
0.721950 0.721950 0.721950
0.751096 0.751096 0.751096
0.780242 0.780242 0.780242
0.809388 0.809388 0.809388
0.838533 0.838533 0.838533
0.867679 0.867679 0.867679
0.896825 0.896825 0.896825
0.925971 0.925971 0.925971
0.785541 0.785541 0.785541
0.814687 0.814687 0.814687
0.843833 0.843833 0.843833
0.872979 0.872979 0.872979
0.902125 0.902125 0.902125
0.931271 0.931271 0.931271
0.960416 0.960416 0.960416
0.989562 0.989562 0.989562
1.000000 1.000000 1.000000
0.054243 0.054243 0.054243
0.083389 0.083389 0.083389
0.112535 0.112535 0.112535
0.141680 0.141680 0.141680
0.170826 0.170826 0.170826
0.199972 0.199972 0.199972
0.229118 0.229118 0.229118
0.258264 0.258264 0.258264
0.287410 0.287410 0.287410
0.146980 0.146980 0.146980
0.176126 0.176126 0.176126
0.205272 0.205272 0.205272
0.234418 0.234418 0.234418
0.263563 0.263563 0.263563
0.292709 0.292709 0.292709
0.321855 0.321855 0.321855
0.351001 0.351001 0.351001
0.380147 0.380147 0.380147
0.239717 0.239717 0.239717
0.268863 0.268863 0.268863
0.298009 0.298009 0.298009
0.327155 0.327155 0.327155
0.356301 0.356301 0.356301
0.385447 0.385447 0.385447
0.414592 0.414592 0.414592
0.443738 0.443738 0.443738
0.472884 0.472884 0.472884
0.332454 0.332454 0.332454
0.361600 0.361600 0.361600
0.390746 0.390746 0.390746
0.419892 0.419892 0.419892
0.449038 0.449038 0.449038
0.478184 0.478184 0.478184
0.507330 0.507330 0.507330
0.536475 0.536475 0.536475
0.565621 0.565621 0.565621
0.425191 0.425191 0.425191
0.454337 0.454337 0.454337
0.483483 0.483483 0.483483
0.512629 0.512629 0.512629
0.541775 0.541775 0.541775
0.570921 0.570921 0.570921
0.600067 0.600067 0.600067
0.629213 0.629213 0.629213
0.658359 0.658359 0.658359
0.517928 0.517928 0.517928
0.547074 0.547074 0.547074
0.576220 0.576220 0.576220
0.605366 0.605366 0.605366
0.634512 0.634512 0.634512
0.663658 0.663658 0.663658
0.692804 0.692804 0.692804
0.721950 0.721950 0.721950
0.751096 0.751096 0.751096
0.610665 0.610665 0.610665
0.639811 0.639811 0.639811
0.668957 0.668957 0.668957
0.698103 0.698103 0.698103
0.727249 0.727249 0.727249
0.756395 0.756395 0.756395
0.785541 0.785541 0.785541
0.814687 0.814687 0.814687
0.843833 0.843833 0.843833
0.703402 0.703402 0.703402
0.732548 0.732548 0.732548
0.761694 0.761694 0.761694
0.790840 0.790840 0.790840
0.819986 0.819986 0.819986
0.849132 0.849132 0.849132
0.878278 0.878278 0.878278
0.907424 0.907424 0.907424
0.936570 0.936570 0.936570
0.796139 0.796139 0.796139
0.825285 0.825285 0.825285
0.854431 0.854431 0.854431
0.883577 0.883577 0.883577
0.912723 0.912723 0.912723
0.941869 0.941869 0.941869
0.971015 0.971015 0.971015
1.000000 1.000000 1.000000
1.000000 1.000000 1.000000
0.064841 0.064841 0.064841
0.093987 0.093987 0.093987
0.123133 0.123133 0.123133
0.152279 0.152279 0.152279
0.181425 0.181425 0.181425
0.210571 0.210571 0.210571
0.239717 0.239717 0.239717
0.268863 0.268863 0.268863
0.298009 0.298009 0.298009
0.157578 0.157578 0.157578
0.186724 0.186724 0.186724
0.215870 0.215870 0.215870
0.245016 0.245016 0.245016
0.274162 0.274162 0.274162
0.303308 0.303308 0.303308
0.332454 0.332454 0.332454
0.361600 0.361600 0.361600
0.390746 0.390746 0.390746
0.250315 0.250315 0.250315
0.279461 0.279461 0.279461
0.308607 0.308607 0.308607
0.337753 0.337753 0.337753
0.366899 0.366899 0.366899
0.396045 0.396045 0.396045
0.425191 0.425191 0.425191
0.454337 0.454337 0.454337
0.483483 0.483483 0.483483
0.343052 0.343052 0.343052
0.372198 0.372198 0.372198
0.401344 0.401344 0.401344
0.430490 0.430490 0.430490
0.459636 0.459636 0.459636
0.488782 0.488782 0.488782
0.517928 0.517928 0.517928
0.547074 0.547074 0.547074
0.576220 0.576220 0.576220
0.435790 0.435790 0.435790
0.464935 0.464935 0.464935
0.494081 0.494081 0.494081
0.523227 0.523227 0.523227
0.552373 0.552373 0.552373
0.581519 0.581519 0.581519
0.610665 0.610665 0.610665
0.639811 0.639811 0.639811
0.668957 0.668957 0.668957
0.528527 0.528527 0.528527
0.557673 0.557673 0.557673
0.586818 0.586818 0.586818
0.615964 0.615964 0.615964
0.645110 0.645110 0.645110
0.674256 0.674256 0.674256
0.703402 0.703402 0.703402
0.732548 0.732548 0.732548
0.761694 0.761694 0.761694
0.621264 0.621264 0.621264
0.650410 0.650410 0.650410
0.679556 0.679556 0.679556
0.708702 0.708702 0.708702
0.737847 0.737847 0.737847
0.766993 0.766993 0.766993
0.796139 0.796139 0.796139
0.825285 0.825285 0.825285
0.854431 0.854431 0.854431
0.714001 0.714001 0.714001
0.743147 0.743147 0.743147
0.772293 0.772293 0.772293
0.801439 0.801439 0.801439
0.830585 0.830585 0.830585
0.859730 0.859730 0.859730
0.888876 0.888876 0.888876
0.918022 0.918022 0.918022
0.947168 0.947168 0.947168
0.806738 0.806738 0.806738
0.835884 0.835884 0.835884
0.865030 0.865030 0.865030
0.894176 0.894176 0.894176
0.923322 0.923322 0.923322
0.952468 0.952468 0.952468
0.981614 0.981614 0.981614
1.000000 1.000000 1.000000
1.000000 1.000000 1.000000
0.075440 0.075440 0.075440
0.104586 0.104586 0.104586
0.133732 0.133732 0.133732
0.162878 0.162878 0.162878
0.192023 0.192023 0.192023
0.221169 0.221169 0.221169
0.250315 0.250315 0.250315
0.279461 0.279461 0.279461
0.308607 0.308607 0.308607
0.168177 0.168177 0.168177
0.197323 0.197323 0.197323
0.226469 0.226469 0.226469
0.255615 0.255615 0.255615
0.284761 0.284761 0.284761
0.313906 0.313906 0.313906
0.343052 0.343052 0.343052
0.372198 0.372198 0.372198
0.401344 0.401344 0.401344
0.260914 0.260914 0.260914
0.290060 0.290060 0.290060
0.319206 0.319206 0.319206
0.348352 0.348352 0.348352
0.377498 0.377498 0.377498
0.406644 0.406644 0.406644
0.435790 0.435790 0.435790
0.464935 0.464935 0.464935
0.494081 0.494081 0.494081
0.353651 0.353651 0.353651
0.382797 0.382797 0.382797
0.411943 0.411943 0.411943
0.441089 0.441089 0.441089
0.470235 0.470235 0.470235
0.499381 0.499381 0.499381
0.528527 0.528527 0.528527
0.557673 0.557673 0.557673
0.586818 0.586818 0.586818
0.446388 0.446388 0.446388
0.475534 0.475534 0.475534
0.504680 0.504680 0.504680
0.533826 0.533826 0.533826
0.562972 0.562972 0.562972
0.592118 0.592118 0.592118
0.621264 0.621264 0.621264
0.650410 0.650410 0.650410
0.679556 0.679556 0.679556
0.539125 0.539125 0.539125
0.568271 0.568271 0.568271
0.597417 0.597417 0.597417
0.626563 0.626563 0.626563
0.655709 0.655709 0.655709
0.684855 0.684855 0.684855
0.714001 0.714001 0.714001
0.743147 0.743147 0.743147
0.772293 0.772293 0.772293
0.631862 0.631862 0.631862
0.661008 0.661008 0.661008
0.690154 0.690154 0.690154
0.719300 0.719300 0.719300
0.748446 0.748446 0.748446
0.777592 0.777592 0.777592
0.806738 0.806738 0.806738
0.835884 0.835884 0.835884
0.865030 0.865030 0.865030
0.724599 0.724599 0.724599
0.753745 0.753745 0.753745
0.782891 0.782891 0.782891
0.812037 0.812037 0.812037
0.841183 0.841183 0.841183
0.870329 0.870329 0.870329
0.899475 0.899475 0.899475
0.928621 0.928621 0.928621
0.957767 0.957767 0.957767
0.817336 0.817336 0.817336
0.846482 0.846482 0.846482
0.875628 0.875628 0.875628
0.904774 0.904774 0.904774
0.933920 0.933920 0.933920
0.963066 0.963066 0.963066
0.992212 0.992212 0.992212
1.000000 1.000000 1.000000
1.000000 1.000000 1.000000
0.086038 0.086038 0.086038
0.115184 0.115184 0.115184
0.144330 0.144330 0.144330
0.173476 0.173476 0.173476
0.202622 0.202622 0.202622
0.231768 0.231768 0.231768
0.260914 0.260914 0.260914
0.290060 0.290060 0.290060
0.319206 0.319206 0.319206
0.178775 0.178775 0.178775
0.207921 0.207921 0.207921
0.237067 0.237067 0.237067
0.266213 0.266213 0.266213
0.295359 0.295359 0.295359
0.324505 0.324505 0.324505
0.353651 0.353651 0.353651
0.382797 0.382797 0.382797
0.411943 0.411943 0.411943
0.271512 0.271512 0.271512
0.300658 0.300658 0.300658
0.329804 0.329804 0.329804
0.358950 0.358950 0.358950
0.388096 0.388096 0.388096
0.417242 0.417242 0.417242
0.446388 0.446388 0.446388
0.475534 0.475534 0.475534
0.504680 0.504680 0.504680
0.364249 0.364249 0.364249
0.393395 0.393395 0.393395
0.422541 0.422541 0.422541
0.451687 0.451687 0.451687
0.480833 0.480833 0.480833
0.509979 0.509979 0.509979
0.539125 0.539125 0.539125
0.568271 0.568271 0.568271
0.597417 0.597417 0.597417
0.456987 0.456987 0.456987
0.486133 0.486133 0.486133
0.515278 0.515278 0.515278
0.544424 0.544424 0.544424
0.573570 0.573570 0.573570
0.602716 0.602716 0.602716
0.631862 0.631862 0.631862
0.661008 0.661008 0.661008
0.690154 0.690154 0.690154
0.549724 0.549724 0.549724
0.578870 0.578870 0.578870
0.608016 0.608016 0.608016
0.637161 0.637161 0.637161
0.666307 0.666307 0.666307
0.695453 0.695453 0.695453
0.724599 0.724599 0.724599
0.753745 0.753745 0.753745
0.782891 0.782891 0.782891
0.642461 0.642461 0.642461
0.671607 0.671607 0.671607
0.700753 0.700753 0.700753
0.729899 0.729899 0.729899
0.759045 0.759045 0.759045
0.788190 0.788190 0.788190
0.817336 0.817336 0.817336
0.846482 0.846482 0.846482
0.875628 0.875628 0.875628
0.735198 0.735198 0.735198
0.764344 0.764344 0.764344
0.793490 0.793490 0.793490
0.822636 0.822636 0.822636
0.851782 0.851782 0.851782
0.880928 0.880928 0.880928
0.910073 0.910073 0.910073
0.939219 0.939219 0.939219
0.968365 0.968365 0.968365
0.827935 0.827935 0.827935
0.857081 0.857081 0.857081
0.886227 0.886227 0.886227
0.915373 0.915373 0.915373
0.944519 0.944519 0.944519
0.973665 0.973665 0.973665
1.000000 1.000000 1.000000
1.000000 1.000000 1.000000
1.000000 1.000000 1.000000
