fexer/Resources/LUTs/ilford_hp5_bw.cube
TITLE "HP5 BW"
LUT_3D_SIZE 5
DOMAIN_MIN 0.0 0.0 0.0
DOMAIN_MAX 1.0 1.0 1.0
0.001250 0.001250 0.001250
0.059542 0.059542 0.059542
0.117834 0.117834 0.117834
0.176126 0.176126 0.176126
0.234418 0.234418 0.234418
0.186724 0.186724 0.186724
0.245016 0.245016 0.245016
0.303308 0.303308 0.303308
0.361600 0.361600 0.361600
0.419892 0.419892 0.419892
0.372198 0.372198 0.372198
0.430490 0.430490 0.430490
0.488782 0.488782 0.488782
0.547074 0.547074 0.547074
0.605366 0.605366 0.605366
0.557673 0.557673 0.557673
0.615964 0.615964 0.615964
0.674256 0.674256 0.674256
0.732548 0.732548 0.732548
0.790840 0.790840 0.790840
0.743147 0.743147 0.743147
0.801439 0.801439 0.801439
0.859730 0.859730 0.859730
0.918022 0.918022 0.918022
0.976314 0.976314 0.976314
0.022447 0.022447 0.022447
0.080739 0.080739 0.080739
0.139031 0.139031 0.139031
0.197323 0.197323 0.197323
0.255615 0.255615 0.255615
0.207921 0.207921 0.207921
0.266213 0.266213 0.266213
0.324505 0.324505 0.324505
0.382797 0.382797 0.382797
0.441089 0.441089 0.441089
0.393395 0.393395 0.393395
0.451687 0.451687 0.451687
0.509979 0.509979 0.509979
0.568271 0.568271 0.568271
0.626563 0.626563 0.626563
0.578870 0.578870 0.578870
0.637161 0.637161 0.637161
0.695453 0.695453 0.695453
0.753745 0.753745 0.753745
0.812037 0.812037 0.812037
0.764344 0.764344 0.764344
0.822636 0.822636 0.822636
0.880928 0.880928 0.880928
0.939219 0.939219 0.939219
0.997511 0.997511 0.997511
0.043644 0.043644 0.043644
0.101936 0.101936 0.101936
0.160228 0.160228 0.160228
0.218520 0.218520 0.218520
0.276812 0.276812 0.276812
0.229118 0.229118 0.229118
0.287410 0.287410 0.287410
0.345702 0.345702 0.345702
0.403994 0.403994 0.403994
0.462286 0.462286 0.462286
0.414592 0.414592 0.414592
0.472884 0.472884 0.472884
0.531176 0.531176 0.531176
0.589468 0.589468 0.589468
0.647760 0.647760 0.647760
0.600067 0.600067 0.600067
0.658359 0.658359 0.658359
0.716650 0.716650 0.716650
0.774942 0.774942 0.774942
0.833234 0.833234 0.833234
0.785541 0.785541 0.785541
0.843833 0.843833 0.843833
0.902125 0.902125 0.902125
0.960416 0.960416 0.960416
1.000000 1.000000 1.000000
0.064841 0.064841 0.064841
0.123133 0.123133 0.123133
0.181425 0.181425 0.181425
0.239717 0.239717 0.239717
0.298009 0.298009 0.298009
0.250315 0.250315 0.250315
0.308607 0.308607 0.308607
0.366899 0.366899 0.366899
0.425191 0.425191 0.425191
0.483483 0.483483 0.483483
0.435790 0.435790 0.435790
0.494081 0.494081 0.494081
0.552373 0.552373 0.552373
0.610665 0.610665 0.610665
0.668957 0.668957 0.668957
0.621264 0.621264 0.621264
0.679556 0.679556 0.679556
0.737847 0.737847 0.737847
0.796139 0.796139 0.796139
0.854431 0.854431 0.854431
0.806738 0.806738 0.806738
0.865030 0.865030 0.865030
0.923322 0.923322 0.923322
0.981614 0.981614 0.981614
1.000000 1.000000 1.000000
0.086038 0.086038 0.086038
0.144330 0.144330 0.144330
0.202622 0.202622 0.202622
0.260914 0.260914 0.260914
0.319206 0.319206 0.319206
0.271512 0.271512 0.271512
0.329804 0.329804 0.329804
0.388096 0.388096 0.388096
0.446388 0.446388 0.446388
0.504680 0.504680 0.504680
0.456987 0.456987 0.456987
0.515278 0.515278 0.515278
0.573570 0.573570 0.573570
0.631862 0.631862 0.631862
0.690154 0.690154 0.690154
0.642461 0.642461 0.642461
0.700753 0.700753 0.700753
0.759045 0.759045 0.759045
0.817336 0.817336 0.817336
0.875628 0.875628 0.875628
0.827935 0.827935 0.827935
0.886227 0.886227 0.886227
0.944519 0.944519 0.944519
1.000000 1.000000 1.000000
1.000000 1.000000 1.000000
