fexer/Resources/LUTs/kodak_portra_400.cube
TITLE "Portra 400"
LUT_3D_SIZE 9
DOMAIN_MIN 0.0 0.0 0.0
DOMAIN_MAX 1.0 1.0 1.0
0.123085 0.091250 0.054500
0.222427 0.094102 0.057352
0.321770 0.096955 0.060205
0.421112 0.099807 0.063057
0.520454 0.102660 0.065910
0.619797 0.105512 0.068762
0.719139 0.108365 0.071615
0.819208 0.111217 0.074467
0.920452 0.114070 0.077320
0.126283 0.199237 0.064096
0.225626 0.202090 0.066948
0.324968 0.204942 0.069801
0.424311 0.207795 0.072653
0.525072 0.210647 0.075506
0.626316 0.213500 0.078358
0.727560 0.216352 0.081211
0.828804 0.219205 0.084063
0.930048 0.222057 0.086916
0.129692 0.307225 0.073692
0.230936 0.310077 0.076544
0.332180 0.312930 0.079397
0.433424 0.315782 0.082249
0.534668 0.318635 0.085102
0.635912 0.321487 0.087954
0.737156 0.324340 0.090806
0.838400 0.327192 0.093659
0.939644 0.330045 0.096511
0.139288 0.415212 0.083288
0.240532 0.418065 0.086140
0.341776 0.420917 0.088993
0.443020 0.423770 0.091845
0.544264 0.426622 0.094697
0.645508 0.429475 0.097550
0.746752 0.432327 0.100402
0.847996 0.435180 0.103255
0.949240 0.438032 0.106107
0.148883 0.523200 0.092883
0.250127 0.526052 0.095736
0.351372 0.528905 0.098588
0.452616 0.531757 0.101441
0.553860 0.534610 0.104293
0.655104 0.537462 0.107146
0.756348 0.540315 0.109998
0.857592 0.543167 0.112851
0.958836 0.546019 0.115703
0.158479 0.631187 0.102479
0.259723 0.634040 0.105332
0.360967 0.636892 0.108184
0.462211 0.639745 0.111037
0.563455 0.642597 0.113889
0.664700 0.645450 0.116742
0.765944 0.648302 0.119594
0.867188 0.651154 0.122447
0.968432 0.654007 0.125299
0.168075 0.739175 0.112075
0.269319 0.742027 0.114928
0.370563 0.744880 0.117780
0.471807 0.747732 0.120633
0.573051 0.750584 0.123485
0.674295 0.753437 0.126337
0.775539 0.756289 0.129190
0.876783 0.759142 0.132042
0.978786 0.761994 0.134389
0.177671 0.847162 0.121671
0.278915 0.850015 0.124523
0.380159 0.852867 0.127376
0.481403 0.855719 0.130228
0.582647 0.858572 0.133081
0.685169 0.861424 0.135081
0.787840 0.864277 0.136983
0.890510 0.867129 0.138885
0.993180 0.869982 0.140786
0.187267 0.955150 0.131267
0.288882 0.958002 0.133872
0.391552 0.960854 0.135774
0.494223 0.963707 0.137675
0.596893 0.966559 0.139577
0.699563 0.969412 0.141479
0.802233 0.972264 0.143380
0.904904 0.975117 0.145282
1.000000 0.977969 0.147183
0.123408 0.092219 0.153860
0.222750 0.095071 0.156713
0.322093 0.097924 0.159565
0.421435 0.100776 0.162418
0.520777 0.103629 0.165270
0.620120 0.106481 0.168123
0.719462 0.109333 0.170975
0.820177 0.112186 0.173828
0.921421 0.115038 0.176680
0.126606 0.200206 0.163456
0.225949 0.203059 0.166309
0.325291 0.205911 0.169161
0.424797 0.208764 0.172014
0.526041 0.211616 0.174866
0.627285 0.214468 0.177718
0.728529 0.217321 0.180571
0.829773 0.220173 0.183423
0.931017 0.223026 0.186276
0.130660 0.308194 0.173052
0.231904 0.311046 0.175904
0.333149 0.313899 0.178757
0.434393 0.316751 0.181609
0.535637 0.319603 0.184462
0.636881 0.322456 0.187314
0.738125 0.325308 0.190167
0.839369 0.328161 0.193019
0.940613 0.331013 0.195872
0.140256 0.416181 0.182648
0.241500 0.419033 0.185500
0.342744 0.421886 0.188353
0.443988 0.424738 0.191205
0.545232 0.427591 0.194058
0.646476 0.430443 0.196910
0.747721 0.433296 0.199763
0.848965 0.436148 0.202615
0.950209 0.439001 0.205468
0.149852 0.524168 0.192244
0.251096 0.527021 0.195096
0.352340 0.529873 0.197949
0.453584 0.532726 0.200801
0.554828 0.535578 0.203654
0.656072 0.538431 0.206506
0.757316 0.541283 0.209359
0.858560 0.544136 0.212211
0.959804 0.546988 0.215063
0.159448 0.632156 0.201840
0.260692 0.635008 0.204692
0.361936 0.637861 0.207545
0.463180 0.640713 0.210397
0.564424 0.643566 0.213249
0.665668 0.646418 0.216102
0.766912 0.649271 0.218954
0.868156 0.652123 0.221807
0.969400 0.654976 0.224659
0.169044 0.740143 0.211435
0.270288 0.742996 0.214288
0.371532 0.745848 0.217140
0.472776 0.748701 0.219993
0.574020 0.751553 0.222845
0.675264 0.754406 0.225698
0.776508 0.757258 0.228550
0.877752 0.760111 0.231403
0.980239 0.762963 0.233426
0.178640 0.848131 0.221031
0.279884 0.850983 0.223884
0.381128 0.853836 0.226736
0.482372 0.856688 0.229589
0.583952 0.859541 0.232217
0.686622 0.862393 0.234119
0.789293 0.865246 0.236020
0.891963 0.868098 0.237922
0.994633 0.870950 0.239824
0.188236 0.956118 0.230627
0.290335 0.958971 0.232909
0.393005 0.961823 0.234811
0.495676 0.964676 0.236713
0.598346 0.967528 0.238614
0.701016 0.970381 0.240516
0.803686 0.973233 0.242418
0.906357 0.976085 0.244319
1.000000 0.978938 0.246221
0.123731 0.093187 0.253221
0.223073 0.096040 0.256073
0.322415 0.098892 0.258925
0.421758 0.101745 0.261778
0.521100 0.104597 0.264630
0.620443 0.107450 0.267483
0.719902 0.110302 0.270335
0.821146 0.113155 0.273188
0.922390 0.116007 0.276040
0.126929 0.201175 0.262816
0.226272 0.204027 0.265669
0.325614 0.206880 0.268521
0.425765 0.209732 0.271374
0.527009 0.212585 0.274226
0.628253 0.215437 0.277079
0.729498 0.218290 0.279931
0.830742 0.221142 0.282784
0.931986 0.223995 0.285636
0.131629 0.309162 0.272412
0.232873 0.312015 0.275265
0.334117 0.314867 0.278117
0.435361 0.317720 0.280970
0.536605 0.320572 0.283822
0.637849 0.323425 0.286675
0.739093 0.326277 0.289527
0.840337 0.329130 0.292380
0.941581 0.331982 0.295232
0.141225 0.417150 0.282008
0.242469 0.420002 0.284861
0.343713 0.422855 0.287713
0.444957 0.425707 0.290566
0.546201 0.428560 0.293418
0.647445 0.431412 0.296270
0.748689 0.434265 0.299123
0.849933 0.437117 0.301975
0.951177 0.439969 0.304828
0.150821 0.525137 0.291604
0.252065 0.527990 0.294456
0.353309 0.530842 0.297309
0.454553 0.533695 0.300161
0.555797 0.536547 0.303014
0.657041 0.539399 0.305866
0.758285 0.542252 0.308719
0.859529 0.545104 0.311571
0.960773 0.547957 0.314424
0.160417 0.633125 0.301200
0.261661 0.635977 0.304052
0.362905 0.638830 0.306905
0.464149 0.641682 0.309757
0.565393 0.644534 0.312610
0.666637 0.647387 0.315462
0.767881 0.650239 0.318315
0.869125 0.653092 0.321167
0.970369 0.655944 0.324020
0.170013 0.741112 0.310796
0.271257 0.743965 0.313648
0.372501 0.746817 0.316501
0.473745 0.749669 0.319353
0.574989 0.752522 0.322206
0.676233 0.755374 0.325058
0.777477 0.758227 0.327911
0.879022 0.761079 0.330562
0.981692 0.763932 0.332464
0.179608 0.849100 0.320392
0.280852 0.851952 0.323244
0.382097 0.854804 0.326097
0.483341 0.857657 0.328949
0.585405 0.860509 0.331254
0.688075 0.863362 0.333156
0.790746 0.866214 0.335058
0.893416 0.869067 0.336959
0.996086 0.871919 0.338861
0.189204 0.957087 0.329987
0.291788 0.959939 0.331947
0.394458 0.962792 0.333848
0.497129 0.965644 0.335750
0.599799 0.968497 0.337652
0.702469 0.971349 0.339553
0.805139 0.974202 0.341455
0.907810 0.977054 0.343357
1.000000 0.979907 0.345258
0.124054 0.094156 0.352581
0.223396 0.097009 0.355433
0.322738 0.099861 0.358286
0.422081 0.102714 0.361138
0.521423 0.105566 0.363991
0.620766 0.108418 0.366843
0.720870 0.111271 0.369696
0.822114 0.114123 0.372548
0.923358 0.116976 0.375401
0.127252 0.202144 0.362177
0.226595 0.204996 0.365029
0.325937 0.207848 0.367882
0.426734 0.210701 0.370734
0.527978 0.213553 0.373587
0.629222 0.216406 0.376439
0.730466 0.219258 0.379291
0.831710 0.222111 0.382144
0.932954 0.224963 0.384996
0.132598 0.310131 0.371773
0.233842 0.312983 0.374625
0.335086 0.315836 0.377478
0.436330 0.318688 0.380330
0.537574 0.321541 0.383182
0.638818 0.324393 0.386035
0.740062 0.327246 0.388887
0.841306 0.330098 0.391740
0.942550 0.332951 0.394592
0.142194 0.418118 0.381368
0.243438 0.420971 0.384221
0.344682 0.423823 0.387073
0.445926 0.426676 0.389926
0.547170 0.429528 0.392778
0.648414 0.432381 0.395631
0.749658 0.435233 0.398483
0.850902 0.438086 0.401336
0.952146 0.440938 0.404188
0.151790 0.526106 0.390964
0.253034 0.528958 0.393817
0.354278 0.531811 0.396669
0.455522 0.534663 0.399522
0.556766 0.537516 0.402374
0.658010 0.540368 0.405227
0.759254 0.543221 0.408079
0.860498 0.546073 0.410932
0.961742 0.548926 0.413784
0.161385 0.634093 0.400560
0.262629 0.636946 0.403413
0.363874 0.639798 0.406265
0.465118 0.642651 0.409118
0.566362 0.645503 0.411970
0.667606 0.648356 0.414822
0.768850 0.651208 0.417675
0.870094 0.654061 0.420527
0.971338 0.656913 0.423380
0.170981 0.742081 0.410156
0.272225 0.744933 0.413008
0.373469 0.747786 0.415861
0.474713 0.750638 0.418713
0.575957 0.753491 0.421566
0.677202 0.756343 0.424418
0.778446 0.759196 0.427271
0.880475 0.762048 0.429600
0.983145 0.764900 0.431501
0.180577 0.850068 0.419752
0.281821 0.852921 0.422604
0.383065 0.855773 0.425457
0.484309 0.858626 0.428309
0.586858 0.861478 0.430292
0.689528 0.864331 0.432193
0.792199 0.867183 0.434095
0.894869 0.870035 0.435997
0.997539 0.872888 0.437898
0.190571 0.958056 0.429083
0.293241 0.960908 0.430984
0.395911 0.963761 0.432886
0.498582 0.966613 0.434787
0.601252 0.969465 0.436689
0.703922 0.972318 0.438591
0.806593 0.975170 0.440492
0.909263 0.978023 0.442394
1.000000 0.980875 0.444296
0.124376 0.095125 0.451941
0.223719 0.097977 0.454794
0.323061 0.100830 0.457646
0.422404 0.103682 0.460499
0.521746 0.106535 0.463351
0.621088 0.109387 0.466203
0.721839 0.112240 0.469056
0.823083 0.115092 0.471908
0.924327 0.117945 0.474761
0.127575 0.203112 0.461537
0.226917 0.205965 0.464389
0.326459 0.208817 0.467242
0.427703 0.211670 0.470094
0.528947 0.214522 0.472947
0.630191 0.217375 0.475799
0.731435 0.220227 0.478652
0.832679 0.223080 0.481504
0.933923 0.225932 0.484357
0.133567 0.311100 0.471133
0.234811 0.313952 0.473985
0.336055 0.316805 0.476838
0.437299 0.319657 0.479690
0.538543 0.322510 0.482543
0.639787 0.325362 0.485395
0.741031 0.328214 0.488248
0.842275 0.331067 0.491100
0.943519 0.333919 0.493953
0.143162 0.419087 0.480729
0.244406 0.421940 0.483581
0.345651 0.424792 0.486434
0.446895 0.427645 0.489286
0.548139 0.430497 0.492139
0.649383 0.433349 0.494991
0.750627 0.436202 0.497844
0.851871 0.439054 0.500696
0.953115 0.441907 0.503548
0.152758 0.527075 0.490325
0.254002 0.529927 0.493177
0.355246 0.532780 0.496030
0.456490 0.535632 0.498882
0.557734 0.538484 0.501734
0.658978 0.541337 0.504587
0.760223 0.544189 0.507439
0.861467 0.547042 0.510292
0.962711 0.549894 0.513144
0.162354 0.635062 0.499920
0.263598 0.637915 0.502773
0.364842 0.640767 0.505625
0.466086 0.643619 0.508478
0.567330 0.646472 0.511330
0.668574 0.649324 0.514183
0.769818 0.652177 0.517035
0.871062 0.655029 0.519888
0.972306 0.657882 0.522740
0.171950 0.743049 0.509516
0.273194 0.745902 0.512369
0.374438 0.748754 0.515221
0.475682 0.751607 0.518074
0.576926 0.754459 0.520926
0.678170 0.757312 0.523779
0.779414 0.760164 0.526631
0.881928 0.763017 0.528637
0.984599 0.765869 0.530539
0.181546 0.851037 0.519112
0.282790 0.853889 0.521965
0.384034 0.856742 0.524817
0.485641 0.859594 0.527428
0.588311 0.862447 0.529329
0.690982 0.865299 0.531231
0.793652 0.868152 0.533133
0.896322 0.871004 0.535034
0.998992 0.873857 0.536936
0.192024 0.959024 0.528120
0.294694 0.961877 0.530022
0.397364 0.964729 0.531923
0.500035 0.967582 0.533825
0.602705 0.970434 0.535726
0.705375 0.973287 0.537628
0.808046 0.976139 0.539530
0.910716 0.978992 0.541431
1.000000 0.981844 0.543333
0.124699 0.096094 0.551301
0.224042 0.098946 0.554154
0.323384 0.101798 0.557006
0.422727 0.104651 0.559859
0.522069 0.107503 0.562711
0.621564 0.110356 0.565564
0.722808 0.113208 0.568416
0.824052 0.116061 0.571269
0.925296 0.118913 0.574121
0.127898 0.204081 0.560897
0.227240 0.206933 0.563750
0.327427 0.209786 0.566602
0.428672 0.212638 0.569455
0.529916 0.215491 0.572307
0.631160 0.218343 0.575160
0.732404 0.221196 0.578012
0.833648 0.224048 0.580865
0.934892 0.226901 0.583717
0.134535 0.312068 0.570493
0.235779 0.314921 0.573346
0.337023 0.317773 0.576198
0.438267 0.320626 0.579051
0.539511 0.323478 0.581903
0.640755 0.326331 0.584755
0.742000 0.329183 0.587608
0.843244 0.332036 0.590460
0.944488 0.334888 0.593313
0.144131 0.420056 0.580089
0.245375 0.422908 0.582941
0.346619 0.425761 0.585794
0.447863 0.428613 0.588646
0.549107 0.431466 0.591499
0.650351 0.434318 0.594351
0.751595 0.437171 0.597204
0.852839 0.440023 0.600056
0.954083 0.442876 0.602909
0.153727 0.528043 0.589685
0.254971 0.530896 0.592537
0.356215 0.533748 0.595390
0.457459 0.536601 0.598242
0.558703 0.539453 0.601095
0.659947 0.542306 0.603947
0.761191 0.545158 0.606800
0.862435 0.548011 0.609652
0.963679 0.550863 0.612505
0.163323 0.636031 0.599281
0.264567 0.638883 0.602133
0.365811 0.641736 0.604986
0.467055 0.644588 0.607838
0.568299 0.647441 0.610691
0.669543 0.650293 0.613543
0.770787 0.653146 0.616396
0.872031 0.655998 0.619248
0.973275 0.658850 0.622100
0.172919 0.744018 0.608877
0.274163 0.746871 0.611729
0.375407 0.749723 0.614582
0.476651 0.752576 0.617434
0.577895 0.755428 0.620286
0.679139 0.758280 0.623139
0.780711 0.761133 0.625773
0.883381 0.763985 0.627674
0.986052 0.766838 0.629576
0.182515 0.852006 0.618472
0.283759 0.854858 0.621325
0.385003 0.857711 0.624177
0.487094 0.860563 0.626465
0.589764 0.863415 0.628367
0.692435 0.866268 0.630268
0.795105 0.869120 0.632170
0.897775 0.871973 0.634072
1.000000 0.874825 0.635973
0.193477 0.959993 0.627157
0.296147 0.962846 0.629059
0.398818 0.965698 0.630961
0.501488 0.968550 0.632862
0.604158 0.971403 0.634764
0.706828 0.974255 0.636665
0.809499 0.977108 0.638567
0.912169 0.979960 0.640469
1.000000 0.982813 0.642370
0.125022 0.097062 0.650662
0.224365 0.099915 0.653514
0.323707 0.102767 0.656367
0.423049 0.105620 0.659219
0.522392 0.108472 0.662072
0.622532 0.111325 0.664924
0.723776 0.114177 0.667776
0.825021 0.117029 0.670629
0.926265 0.119882 0.673481
0.128221 0.205050 0.660258
0.227563 0.207902 0.663110
0.328396 0.210755 0.665963
0.429640 0.213607 0.668815
0.530884 0.216460 0.671667
0.632128 0.219312 0.674520
0.733372 0.222164 0.677372
0.834616 0.225017 0.680225
0.935860 0.227869 0.683077
0.135504 0.313037 0.669853
0.236748 0.315890 0.672706
0.337992 0.318742 0.675558
0.439236 0.321595 0.678411
0.540480 0.324447 0.681263
0.641724 0.327299 0.684116
0.742968 0.330152 0.686968
0.844212 0.333004 0.689821
0.945456 0.335857 0.692673
0.145100 0.421025 0.679449
0.246344 0.423877 0.682302
0.347588 0.426730 0.685154
0.448832 0.429582 0.688007
0.550076 0.432434 0.690859
0.651320 0.435287 0.693712
0.752564 0.438139 0.696564
0.853808 0.440992 0.699417
0.955052 0.443844 0.702269
0.154696 0.529012 0.689045
0.255940 0.531864 0.691898
0.357184 0.534717 0.694750
0.458428 0.537569 0.697603
0.559672 0.540422 0.700455
0.660916 0.543274 0.703307
0.762160 0.546127 0.706160
0.863404 0.548979 0.709012
0.964648 0.551832 0.711865
0.164292 0.636999 0.698641
0.265536 0.639852 0.701494
0.366780 0.642704 0.704346
0.468024 0.645557 0.707198
0.569268 0.648409 0.710051
0.670512 0.651262 0.712903
0.771756 0.654114 0.715756
0.873000 0.656967 0.718608
0.974244 0.659819 0.721461
0.173887 0.744987 0.708237
0.275131 0.747839 0.711089
0.376376 0.750692 0.713942
0.477620 0.753544 0.716794
0.578864 0.756397 0.719647
0.680108 0.759249 0.722499
0.782164 0.762102 0.724810
0.884834 0.764954 0.726712
0.987505 0.767807 0.728613
0.183483 0.852974 0.717833
0.284727 0.855827 0.720685
0.385971 0.858679 0.723538
0.488547 0.861532 0.725502
0.591217 0.864384 0.727404
0.693888 0.867237 0.729306
0.796558 0.870089 0.731207
0.899228 0.872942 0.733109
1.000000 0.875794 0.735011
0.194930 0.960962 0.726195
0.297600 0.963814 0.728096
0.400271 0.966667 0.729998
0.502941 0.969519 0.731900
0.605611 0.972372 0.733801
0.708281 0.975224 0.735703
0.810952 0.978077 0.737605
0.913622 0.980929 0.739506
1.000000 0.983781 0.741408
0.125345 0.098031 0.750022
0.224688 0.100883 0.752874
0.324030 0.103736 0.755727
0.423372 0.106588 0.758579
0.522715 0.109441 0.761432
0.623501 0.112293 0.764284
0.724745 0.115146 0.767137
0.825989 0.117998 0.769989
0.927233 0.120851 0.772842
0.128544 0.206018 0.759618
0.228121 0.208871 0.762470
0.329365 0.211723 0.765323
0.430609 0.214576 0.768175
0.531853 0.217428 0.771028
0.633097 0.220281 0.773880
0.734341 0.223133 0.776733
0.835585 0.225986 0.779585
0.936829 0.228838 0.782438
0.136473 0.314006 0.769214
0.237717 0.316858 0.772066
0.338961 0.319711 0.774919
0.440205 0.322563 0.777771
0.541449 0.325416 0.780624
0.642693 0.328268 0.783476
0.743937 0.331121 0.786329
0.845181 0.333973 0.789181
0.946425 0.336826 0.792033
0.146069 0.421993 0.778810
0.247313 0.424846 0.781662
0.348557 0.427698 0.784515
0.449801 0.430551 0.787367
0.551045 0.433403 0.790219
0.652289 0.436256 0.793072
0.753533 0.439108 0.795924
0.854777 0.441961 0.798777
0.956021 0.444813 0.801629
0.155664 0.529981 0.788405
0.256908 0.532833 0.791258
0.358152 0.535686 0.794110
0.459397 0.538538 0.796963
0.560641 0.541391 0.799815
0.661885 0.544243 0.802668
0.763129 0.547095 0.805520
0.864373 0.549948 0.808373
0.965617 0.552800 0.811225
0.165260 0.637968 0.798001
0.266504 0.640821 0.800854
0.367748 0.643673 0.803706
0.468992 0.646526 0.806559
0.570236 0.649378 0.809411
0.671480 0.652230 0.812264
0.772725 0.655083 0.815116
0.873969 0.657935 0.817969
0.975213 0.660788 0.820821
0.174856 0.745956 0.807597
0.276100 0.748808 0.810450
0.377344 0.751661 0.813302
0.478588 0.754513 0.816155
0.579832 0.757365 0.819007
0.681076 0.760218 0.821859
0.783617 0.763070 0.823847
0.886287 0.765923 0.825749
0.988958 0.768775 0.827651
0.184452 0.853943 0.817193
0.285696 0.856796 0.820046
0.387330 0.859648 0.822638
0.490000 0.862500 0.824540
0.592670 0.865353 0.826441
0.695341 0.868205 0.828343
0.798011 0.871058 0.830245
0.900681 0.873910 0.832146
1.000000 0.876763 0.834048
0.196383 0.961930 0.825232
0.299053 0.964783 0.827134
0.401724 0.967635 0.829035
0.504394 0.970488 0.830937
0.607064 0.973340 0.832839
0.709735 0.976193 0.834740
0.812405 0.979045 0.836642
0.915075 0.981898 0.838544
1.000000 0.984750 0.840445
0.125668 0.099000 0.849382
0.225010 0.101852 0.852235
0.324353 0.104705 0.855087
0.423695 0.107557 0.857940
0.523226 0.110410 0.860792
0.624470 0.113262 0.863645
0.725714 0.116114 0.866497
0.826958 0.118967 0.869350
0.928202 0.121819 0.872202
0.128867 0.206987 0.858978
0.229090 0.209840 0.861831
0.330334 0.212692 0.864683
0.431578 0.215545 0.867536
0.532822 0.218397 0.870388
0.634066 0.221249 0.873240
0.735310 0.224102 0.876093
0.836554 0.226954 0.878945
0.937798 0.229807 0.881798
0.137441 0.314975 0.868574
0.238685 0.317827 0.871426
0.339929 0.320679 0.874279
0.441174 0.323532 0.877131
0.542418 0.326384 0.879984
0.643662 0.329237 0.882836
0.744906 0.332089 0.885689
0.846150 0.334942 0.888541
0.947394 0.337794 0.891394
0.147037 0.422962 0.878170
0.248281 0.425814 0.881022
0.349525 0.428667 0.883875
0.450769 0.431519 0.886727
0.552013 0.434372 0.889580
0.653257 0.437224 0.892432
0.754502 0.440077 0.895285
0.855746 0.442929 0.898137
0.956990 0.445782 0.900990
0.156633 0.530949 0.887766
0.257877 0.533802 0.890618
0.359121 0.536654 0.893471
0.460365 0.539507 0.896323
0.561609 0.542359 0.899176
0.662853 0.545212 0.902028
0.764097 0.548064 0.904881
0.865341 0.550917 0.907733
0.966585 0.553769 0.910585
0.166229 0.638937 0.897362
0.267473 0.641789 0.900214
0.368717 0.644642 0.903067
0.469961 0.647494 0.905919
0.571205 0.650347 0.908771
0.672449 0.653199 0.911624
0.773693 0.656052 0.914476
0.874937 0.658904 0.917329
0.976181 0.661757 0.920181
0.175825 0.746924 0.906957
0.277069 0.749777 0.909810
0.378313 0.752629 0.912662
0.479557 0.755482 0.915515
0.580801 0.758334 0.918367
0.682400 0.761187 0.920983
0.785070 0.764039 0.922885
0.887741 0.766892 0.924786
0.990411 0.769744 0.926688
0.185421 0.854912 0.916553
0.286665 0.857764 0.919406
0.388783 0.860617 0.921675
0.491453 0.863469 0.923577
0.594124 0.866322 0.925479
0.696794 0.869174 0.927380
0.799464 0.872027 0.929282
0.902134 0.874879 0.931184
1.000000 0.877731 0.933085
0.197836 0.962899 0.924269
0.300506 0.965752 0.926171
0.403177 0.968604 0.928073
0.505847 0.971457 0.929974
0.608517 0.974309 0.931876
0.711188 0.977162 0.933778
0.813858 0.980014 0.935679
0.916528 0.982866 0.937581
1.000000 0.985719 0.939483
