fexer/Resources/LUTs/kodak_portra_400.cube
TITLE "Portra 400"
LUT_3D_SIZE 5
DOMAIN_MIN 0.0 0.0 0.0
DOMAIN_MAX 1.0 1.0 1.0
0.123085 0.091250 0.054500
0.321770 0.096955 0.060205
0.520454 0.102660 0.065910
0.719139 0.108365 0.071615
0.920452 0.114070 0.077320
0.129692 0.307225 0.073692
0.332180 0.312930 0.079397
0.534668 0.318635 0.085102
0.737156 0.324340 0.090806
0.939644 0.330045 0.096511
0.148883 0.523200 0.092883
0.351372 0.528905 0.098588
0.553860 0.534610 0.104293
0.756348 0.540315 0.109998
0.958836 0.546019 0.115703
0.168075 0.739175 0.112075
0.370563 0.744880 0.117780
0.573051 0.750584 0.123485
0.775539 0.756289 0.129190
0.978786 0.761994 0.134389
0.187267 0.955150 0.131267
0.391552 0.960854 0.135774
0.596893 0.966559 0.139577
0.802233 0.972264 0.143380
1.000000 0.977969 0.147183
0.123731 0.093187 0.253221
0.322415 0.098892 0.258925
0.521100 0.104597 0.264630
0.719902 0.110302 0.270335
0.922390 0.116007 0.276040
0.131629 0.309162 0.272412
0.334117 0.314867 0.278117
0.536605 0.320572 0.283822
0.739093 0.326277 0.289527
0.941581 0.331982 0.295232
0.150821 0.525137 0.291604
0.353309 0.530842 0.297309
0.555797 0.536547 0.303014
0.758285 0.542252 0.308719
0.960773 0.547957 0.314424
0.170013 0.741112 0.310796
0.372501 0.746817 0.316501
0.574989 0.752522 0.322206
0.777477 0.758227 0.327911
0.981692 0.763932 0.332464
0.189204 0.957087 0.329987
0.394458 0.962792 0.333848
0.599799 0.968497 0.337652
0.805139 0.974202 0.341455
1.000000 0.979907 0.345258
0.124376 0.095125 0.451941
0.323061 0.100830 0.457646
0.521746 0.106535 0.463351
0.721839 0.112240 0.469056
0.924327 0.117945 0.474761
0.133567 0.311100 0.471133
0.336055 0.316805 0.476838
0.538543 0.322510 0.482543
0.741031 0.328214 0.488248
0.943519 0.333919 0.493953
0.152758 0.527075 0.490325
0.355246 0.532780 0.496030
0.557734 0.538484 0.501734
0.760223 0.544189 0.507439
0.962711 0.549894 0.513144
0.171950 0.743049 0.509516
0.374438 0.748754 0.515221
0.576926 0.754459 0.520926
0.779414 0.760164 0.526631
0.984599 0.765869 0.530539
0.192024 0.959024 0.528120
0.397364 0.964729 0.531923
0.602705 0.970434 0.535726
0.808046 0.976139 0.539530
1.000000 0.981844 0.543333
0.125022 0.097062 0.650662
0.323707 0.102767 0.656367
0.522392 0.108472 0.662072
0.723776 0.114177 0.667776
0.926265 0.119882 0.673481
0.135504 0.313037 0.669853
0.337992 0.318742 0.675558
0.540480 0.324447 0.681263
0.742968 0.330152 0.686968
0.945456 0.335857 0.692673
0.154696 0.529012 0.689045
0.357184 0.534717 0.694750
0.559672 0.540422 0.700455
0.762160 0.546127 0.706160
0.964648 0.551832 0.711865
0.173887 0.744987 0.708237
0.376376 0.750692 0.713942
0.578864 0.756397 0.719647
0.782164 0.762102 0.724810
0.987505 0.767807 0.728613
0.194930 0.960962 0.726195
0.400271 0.966667 0.729998
0.605611 0.972372 0.733801
0.810952 0.978077 0.737605
1.000000 0.983781 0.741408
0.125668 0.099000 0.849382
0.324353 0.104705 0.855087
0.523226 0.110410 0.860792
0.725714 0.116114 0.866497
0.928202 0.121819 0.872202
0.137441 0.314975 0.868574
0.339929 0.320679 0.874279
0.542418 0.326384 0.879984
0.744906 0.332089 0.885689
0.947394 0.337794 0.891394
0.156633 0.530949 0.887766
0.359121 0.536654 0.893471
0.561609 0.542359 0.899176
0.764097 0.548064 0.904881
0.966585 0.553769 0.910585
0.175825 0.746924 0.906957
0.378313 0.752629 0.912662
0.580801 0.758334 0.918367
0.785070 0.764039 0.922885
0.990411 0.769744 0.926688
0.197836 0.962899 0.924269
0.403177 0.968604 0.928073
0.608517 0.974309 0.931876
0.813858 0.980014 0.935679
1.000000 0.985719 0.939483
