fexer/Resources/LUTs/kodak_portra_400.cube
TITLE "Portra 400"
LUT_3D_SIZE 33
DOMAIN_MIN 0.0 0.0 0.0
DOMAIN_MAX 1.0 1.0 1.0
0.123085 0.091250 0.054500
0.147920 0.091963 0.055213
0.172756 0.092676 0.055926
0.197592 0.093389 0.056639
0.222427 0.094102 0.057352
0.247263 0.094816 0.058066
0.272098 0.095529 0.058779
0.296934 0.096242 0.059492
0.321770 0.096955 0.060205
0.346605 0.097668 0.060918
0.371441 0.098381 0.061631
0.396276 0.099094 0.062344
0.421112 0.099807 0.063057
0.445948 0.100520 0.063770
0.470783 0.101234 0.064484
0.495619 0.101947 0.065197
0.520454 0.102660 0.065910
0.545290 0.103373 0.066623
0.570126 0.104086 0.067336
0.594961 0.104799 0.068049
0.619797 0.105512 0.068762
0.644632 0.106225 0.069475
0.669468 0.106939 0.070189
0.694304 0.107652 0.070902
0.719139 0.108365 0.071615
0.743975 0.109078 0.072328
0.768810 0.109791 0.073041
0.793897 0.110504 0.073754
0.819208 0.111217 0.074467
0.844519 0.111930 0.075180
0.869830 0.112643 0.075893
0.895141 0.113357 0.076607
0.920452 0.114070 0.077320
0.123885 0.118247 0.056899
0.148720 0.118960 0.057612
0.173556 0.119673 0.058325
0.198391 0.120386 0.059038
0.223227 0.121099 0.059751
0.248063 0.121812 0.060465
0.272898 0.122526 0.061178
0.297734 0.123239 0.061891
0.322569 0.123952 0.062604
0.347405 0.124665 0.063317
0.372241 0.125378 0.064030
0.397076 0.126091 0.064743
0.421912 0.126804 0.065456
0.446747 0.127517 0.066169
0.471583 0.128230 0.066883
0.496419 0.128944 0.067596
0.521254 0.129657 0.068309
0.546090 0.130370 0.069022
0.570925 0.131083 0.069735
0.595761 0.131796 0.070448
0.620597 0.132509 0.071161
0.645432 0.133222 0.071874
0.670268 0.133935 0.072588
0.695103 0.134649 0.073301
0.720363 0.135362 0.074014
0.745674 0.136075 0.074727
0.770985 0.136788 0.075440
0.796296 0.137501 0.076153
0.821607 0.138214 0.076866
0.846918 0.138927 0.077579
0.872229 0.139640 0.078292
0.897540 0.140353 0.079006
0.922851 0.141067 0.079719
0.124684 0.145244 0.059298
0.149520 0.145957 0.060011
0.174355 0.146670 0.060724
0.199191 0.147383 0.061437
0.224027 0.148096 0.062150
0.248862 0.148809 0.062864
0.273698 0.149522 0.063577
0.298533 0.150236 0.064290
0.323369 0.150949 0.065003
0.348205 0.151662 0.065716
0.373040 0.152375 0.066429
0.397876 0.153088 0.067142
0.422711 0.153801 0.067855
0.447547 0.154514 0.068568
0.472383 0.155227 0.069282
0.497218 0.155940 0.069995
0.522054 0.156654 0.070708
0.546889 0.157367 0.071421
0.571725 0.158080 0.072134
0.596561 0.158793 0.072847
0.621518 0.159506 0.073560
0.646829 0.160219 0.074273
0.672140 0.160932 0.074986
0.697451 0.161645 0.075700
0.722762 0.162358 0.076413
0.748073 0.163072 0.077126
0.773384 0.163785 0.077839
0.798695 0.164498 0.078552
0.824006 0.165211 0.079265
0.849317 0.165924 0.079978
0.874628 0.166637 0.080691
0.899939 0.167350 0.081405
0.925250 0.168063 0.082118
0.125484 0.172241 0.061697
0.150319 0.172954 0.062410
0.175155 0.173667 0.063123
0.199991 0.174380 0.063836
0.224826 0.175093 0.064549
0.249662 0.175806 0.065262
0.274497 0.176519 0.065976
0.299333 0.177232 0.066689
0.324169 0.177946 0.067402
0.349004 0.178659 0.068115
0.373840 0.179372 0.068828
0.398675 0.180085 0.069541
0.423511 0.180798 0.070254
0.448347 0.181511 0.070967
0.473182 0.182224 0.071681
0.498018 0.182937 0.072394
0.522853 0.183650 0.073107
0.547984 0.184364 0.073820
0.573295 0.185077 0.074533
0.598606 0.185790 0.075246
0.623917 0.186503 0.075959
0.649228 0.187216 0.076672
0.674539 0.187929 0.077385
0.699850 0.188642 0.078099
0.725161 0.189355 0.078812
0.750472 0.190068 0.079525
0.775783 0.190782 0.080238
0.801094 0.191495 0.080951
0.826405 0.192208 0.081664
0.851716 0.192921 0.082377
0.877027 0.193634 0.083090
0.902338 0.194347 0.083803
0.927649 0.195060 0.084517
0.126283 0.199237 0.064096
0.151119 0.199951 0.064809
0.175955 0.200664 0.065522
0.200790 0.201377 0.066235
0.225626 0.202090 0.066948
0.250461 0.202803 0.067661
0.275297 0.203516 0.068375
0.300133 0.204229 0.069088
0.324968 0.204942 0.069801
0.349804 0.205655 0.070514
0.374639 0.206369 0.071227
0.399475 0.207082 0.071940
0.424311 0.207795 0.072653
0.449146 0.208508 0.073366
0.474450 0.209221 0.074079
0.499761 0.209934 0.074793
0.525072 0.210647 0.075506
0.550383 0.211360 0.076219
0.575694 0.212074 0.076932
0.601005 0.212787 0.077645
0.626316 0.213500 0.078358
0.651627 0.214213 0.079071
0.676938 0.214926 0.079784
0.702249 0.215639 0.080498
0.727560 0.216352 0.081211
0.752871 0.217065 0.081924
0.778182 0.217778 0.082637
0.803493 0.218492 0.083350
0.828804 0.219205 0.084063
0.854115 0.219918 0.084776
0.879426 0.220631 0.085489
0.904737 0.221344 0.086202
0.930048 0.222057 0.086916
0.127083 0.226234 0.066495
0.151919 0.226947 0.067208
0.176754 0.227661 0.067921
0.201590 0.228374 0.068634
0.226426 0.229087 0.069347
0.251261 0.229800 0.070060
0.276097 0.230513 0.070774
0.300932 0.231226 0.071487
0.325768 0.231939 0.072200
0.350604 0.232652 0.072913
0.375605 0.233365 0.073626
0.400916 0.234079 0.074339
0.426227 0.234792 0.075052
0.451538 0.235505 0.075765
0.476849 0.236218 0.076478
0.502160 0.236931 0.077192
0.527471 0.237644 0.077905
0.552782 0.238357 0.078618
0.578093 0.239070 0.079331
0.603404 0.239783 0.080044
0.628715 0.240497 0.080757
0.654026 0.241210 0.081470
0.679337 0.241923 0.082183
0.704648 0.242636 0.082896
0.729959 0.243349 0.083610
0.755270 0.244062 0.084323
0.780581 0.244775 0.085036
0.805892 0.245488 0.085749
0.831203 0.246202 0.086462
0.856514 0.246915 0.087175
0.881825 0.247628 0.087888
0.907136 0.248341 0.088601
0.932447 0.249054 0.089315
0.127883 0.253231 0.068894
0.152718 0.253944 0.069607
0.177554 0.254657 0.070320
0.202390 0.255371 0.071033
0.227225 0.256084 0.071746
0.252061 0.256797 0.072459
0.276896 0.257510 0.073172
0.302071 0.258223 0.073886
0.327382 0.258936 0.074599
0.352693 0.259649 0.075312
0.378004 0.260362 0.076025
0.403315 0.261075 0.076738
0.428626 0.261789 0.077451
0.453937 0.262502 0.078164
0.479248 0.263215 0.078877
0.504559 0.263928 0.079591
0.529870 0.264641 0.080304
0.555181 0.265354 0.081017
0.580492 0.266067 0.081730
0.605803 0.266780 0.082443
0.631114 0.267493 0.083156
0.656425 0.268207 0.083869
0.681736 0.268920 0.084582
0.707047 0.269633 0.085295
0.732358 0.270346 0.086009
0.757669 0.271059 0.086722
0.782980 0.271772 0.087435
0.808291 0.272485 0.088148
0.833602 0.273198 0.088861
0.858913 0.273912 0.089574
0.884224 0.274625 0.090287
0.909535 0.275338 0.091000
0.934846 0.276051 0.091713
0.128682 0.280228 0.071293
0.153518 0.280941 0.072006
0.178354 0.281654 0.072719
0.203226 0.282367 0.073432
0.228537 0.283080 0.074145
0.253848 0.283794 0.074858
0.279159 0.284507 0.075571
0.304470 0.285220 0.076285
0.329781 0.285933 0.076998
0.355092 0.286646 0.077711
0.380403 0.287359 0.078424
0.405714 0.288072 0.079137
0.431025 0.288785 0.079850
0.456336 0.289499 0.080563
0.481647 0.290212 0.081276
0.506958 0.290925 0.081989
0.532269 0.291638 0.082703
0.557580 0.292351 0.083416
0.582891 0.293064 0.084129
0.608202 0.293777 0.084842
0.633513 0.294490 0.085555
0.658824 0.295203 0.086268
0.684135 0.295917 0.086981
0.709446 0.296630 0.087694
0.734757 0.297343 0.088408
0.760068 0.298056 0.089121
0.785379 0.298769 0.089834
0.810690 0.299482 0.090547
0.836001 0.300195 0.091260
0.861312 0.300908 0.091973
0.886623 0.301621 0.092686
0.911934 0.302335 0.093399
0.937245 0.303048 0.094112
0.129692 0.307225 0.073692
0.155003 0.307938 0.074405
0.180314 0.308651 0.075118
0.205625 0.309364 0.075831
0.230936 0.310077 0.076544
0.256247 0.310790 0.077257
0.281558 0.311504 0.077970
0.306869 0.312217 0.078684
0.332180 0.312930 0.079397
0.357491 0.313643 0.080110
0.382802 0.314356 0.080823
0.408113 0.315069 0.081536
0.433424 0.315782 0.082249
0.458735 0.316495 0.082962
0.484046 0.317208 0.083675
0.509357 0.317922 0.084388
0.534668 0.318635 0.085102
0.559979 0.319348 0.085815
0.585290 0.320061 0.086528
0.610601 0.320774 0.087241
0.635912 0.321487 0.087954
0.661223 0.322200 0.088667
0.686534 0.322913 0.089380
0.711845 0.323627 0.090093
0.737156 0.324340 0.090806
0.762467 0.325053 0.091520
0.787778 0.325766 0.092233
0.813089 0.326479 0.092946
0.838400 0.327192 0.093659
0.863711 0.327905 0.094372
0.889022 0.328618 0.095085
0.914333 0.329331 0.095798
0.939644 0.330045 0.096511
0.132091 0.334222 0.076091
0.157402 0.334935 0.076804
0.182713 0.335648 0.077517
0.208024 0.336361 0.078230
0.233335 0.337074 0.078943
0.258646 0.337787 0.079656
0.283957 0.338500 0.080369
0.309268 0.339214 0.081082
0.334579 0.339927 0.081796
0.359890 0.340640 0.082509
0.385201 0.341353 0.083222
0.410512 0.342066 0.083935
0.435823 0.342779 0.084648
0.461134 0.343492 0.085361
0.486445 0.344205 0.086074
0.511756 0.344918 0.086787
0.537067 0.345632 0.087501
0.562378 0.346345 0.088214
0.587689 0.347058 0.088927
0.613000 0.347771 0.089640
0.638311 0.348484 0.090353
0.663622 0.349197 0.091066
0.688933 0.349910 0.091779
0.714244 0.350623 0.092492
0.739555 0.351337 0.093205
0.764866 0.352050 0.093919
0.790177 0.352763 0.094632
0.815488 0.353476 0.095345
0.840799 0.354189 0.096058
0.866110 0.354902 0.096771
0.891421 0.355615 0.097484
0.916732 0.356328 0.098197
0.942043 0.357041 0.098910
0.134490 0.361219 0.078490
0.159801 0.361932 0.079203
0.185112 0.362645 0.079916
0.210423 0.363358 0.080629
0.235734 0.364071 0.081342
0.261045 0.364784 0.082055
0.286356 0.365497 0.082768
0.311667 0.366210 0.083481
0.336978 0.366924 0.084195
0.362289 0.367637 0.084908
0.387600 0.368350 0.085621
0.412911 0.369063 0.086334
0.438222 0.369776 0.087047
0.463533 0.370489 0.087760
0.488844 0.371202 0.088473
0.514155 0.371915 0.089186
0.539466 0.372628 0.089900
0.564777 0.373342 0.090613
0.590088 0.374055 0.091326
0.615399 0.374768 0.092039
0.640710 0.375481 0.092752
0.666021 0.376194 0.093465
0.691332 0.376907 0.094178
0.716643 0.377620 0.094891
0.741954 0.378333 0.095604
0.767265 0.379046 0.096318
0.792576 0.379760 0.097031
0.817887 0.380473 0.097744
0.843198 0.381186 0.098457
0.868509 0.381899 0.099170
0.893820 0.382612 0.099883
0.919131 0.383325 0.100596
0.944442 0.384038 0.101309
0.136889 0.388215 0.080889
0.162200 0.388929 0.081602
0.187511 0.389642 0.082315
0.212822 0.390355 0.083028
0.238133 0.391068 0.083741
0.263444 0.391781 0.084454
0.288755 0.392494 0.085167
0.314066 0.393207 0.085880
0.339377 0.393920 0.086594
0.364688 0.394633 0.087307
0.389999 0.395347 0.088020
0.415310 0.396060 0.088733
0.440621 0.396773 0.089446
0.465932 0.397486 0.090159
0.491243 0.398199 0.090872
0.516554 0.398912 0.091585
0.541865 0.399625 0.092298
0.567176 0.400338 0.093012
0.592487 0.401052 0.093725
0.617798 0.401765 0.094438
0.643109 0.402478 0.095151
0.668420 0.403191 0.095864
0.693731 0.403904 0.096577
0.719042 0.404617 0.097290
0.744353 0.405330 0.098003
0.769664 0.406043 0.098717
0.794975 0.406756 0.099430
0.820286 0.407470 0.100143
0.845597 0.408183 0.100856
0.870908 0.408896 0.101569
0.896219 0.409609 0.102282
0.921530 0.410322 0.102995
0.946841 0.411035 0.103708
0.139288 0.415212 0.083288
0.164599 0.415925 0.084001
0.189910 0.416639 0.084714
0.215221 0.417352 0.085427
0.240532 0.418065 0.086140
0.265843 0.418778 0.086853
0.291154 0.419491 0.087566
0.316465 0.420204 0.088279
0.341776 0.420917 0.088993
0.367087 0.421630 0.089706
0.392398 0.422343 0.090419
0.417709 0.423057 0.091132
0.443020 0.423770 0.091845
0.468331 0.424483 0.092558
0.493642 0.425196 0.093271
0.518953 0.425909 0.093984
0.544264 0.426622 0.094697
0.569575 0.427335 0.095411
0.594886 0.428048 0.096124
0.620197 0.428762 0.096837
0.645508 0.429475 0.097550
0.670819 0.430188 0.098263
0.696130 0.430901 0.098976
0.721441 0.431614 0.099689
0.746752 0.432327 0.100402
0.772063 0.433040 0.101115
0.797374 0.433753 0.101829
0.822685 0.434466 0.102542
0.847996 0.435180 0.103255
0.873307 0.435893 0.103968
0.898618 0.436606 0.104681
0.923929 0.437319 0.105394
0.949240 0.438032 0.106107
0.141687 0.442209 0.085687
0.166998 0.442922 0.086400
0.192309 0.443635 0.087113
0.217620 0.444349 0.087826
0.242931 0.445062 0.088539
0.268242 0.445775 0.089252
0.293553 0.446488 0.089965
0.318864 0.447201 0.090678
0.344175 0.447914 0.091391
0.369486 0.448627 0.092105
0.394797 0.449340 0.092818
0.420108 0.450053 0.093531
0.445419 0.450767 0.094244
0.470730 0.451480 0.094957
0.496041 0.452193 0.095670
0.521352 0.452906 0.096383
0.546663 0.453619 0.097096
0.571974 0.454332 0.097810
0.597285 0.455045 0.098523
0.622596 0.455758 0.099236
0.647907 0.456471 0.099949
0.673218 0.457185 0.100662
0.698529 0.457898 0.101375
0.723840 0.458611 0.102088
0.749151 0.459324 0.102801
0.774462 0.460037 0.103514
0.799773 0.460750 0.104228
0.825084 0.461463 0.104941
0.850395 0.462176 0.105654
0.875706 0.462890 0.106367
0.901017 0.463603 0.107080
0.926328 0.464316 0.107793
0.951639 0.465029 0.108506
0.144086 0.469206 0.088086
0.169397 0.469919 0.088799
0.194708 0.470632 0.089512
0.220019 0.471345 0.090225
0.245330 0.472059 0.090938
0.270641 0.472772 0.091651
0.295952 0.473485 0.092364
0.321263 0.474198 0.093077
0.346574 0.474911 0.093790
0.371885 0.475624 0.094504
0.397196 0.476337 0.095217
0.422507 0.477050 0.095930
0.447818 0.477763 0.096643
0.473129 0.478477 0.097356
0.498440 0.479190 0.098069
0.523751 0.479903 0.098782
0.549062 0.480616 0.099495
0.574373 0.481329 0.100208
0.599684 0.482042 0.100922
0.624995 0.482755 0.101635
0.650306 0.483468 0.102348
0.675617 0.484181 0.103061
0.700928 0.484895 0.103774
0.726239 0.485608 0.104487
0.751550 0.486321 0.105200
0.776861 0.487034 0.105913
0.802172 0.487747 0.106627
0.827483 0.488460 0.107340
0.852794 0.489173 0.108053
0.878105 0.489886 0.108766
0.903416 0.490600 0.109479
0.928727 0.491313 0.110192
0.954038 0.492026 0.110905
0.146484 0.496203 0.090484
0.171795 0.496916 0.091198
0.197107 0.497629 0.091911
0.222418 0.498342 0.092624
0.247729 0.499055 0.093337
0.273040 0.499768 0.094050
0.298351 0.500482 0.094763
0.323662 0.501195 0.095476
0.348973 0.501908 0.096189
0.374284 0.502621 0.096903
0.399595 0.503334 0.097616
0.424906 0.504047 0.098329
0.450217 0.504760 0.099042
0.475528 0.505473 0.099755
0.500839 0.506187 0.100468
0.526150 0.506900 0.101181
0.551461 0.507613 0.101894
0.576772 0.508326 0.102607
0.602083 0.509039 0.103321
0.627394 0.509752 0.104034
0.652705 0.510465 0.104747
0.678016 0.511178 0.105460
0.703327 0.511891 0.106173
0.728638 0.512605 0.106886
0.753949 0.513318 0.107599
0.779260 0.514031 0.108312
0.804571 0.514744 0.109025
0.829882 0.515457 0.109739
0.855193 0.516170 0.110452
0.880504 0.516883 0.111165
0.905815 0.517596 0.111878
0.931126 0.518309 0.112591
0.956437 0.519023 0.113304
0.148883 0.523200 0.092883
0.174194 0.523913 0.093597
0.199505 0.524626 0.094310
0.224816 0.525339 0.095023
0.250127 0.526052 0.095736
0.275438 0.526765 0.096449
0.300750 0.527478 0.097162
0.326061 0.528192 0.097875
0.351372 0.528905 0.098588
0.376683 0.529618 0.099301
0.401994 0.530331 0.100015
0.427305 0.531044 0.100728
0.452616 0.531757 0.101441
0.477927 0.532470 0.102154
0.503238 0.533183 0.102867
0.528549 0.533896 0.103580
0.553860 0.534610 0.104293
0.579171 0.535323 0.105006
0.604482 0.536036 0.105720
0.629793 0.536749 0.106433
0.655104 0.537462 0.107146
0.680415 0.538175 0.107859
0.705726 0.538888 0.108572
0.731037 0.539601 0.109285
0.756348 0.540315 0.109998
0.781659 0.541028 0.110711
0.806970 0.541741 0.111424
0.832281 0.542454 0.112138
0.857592 0.543167 0.112851
0.882903 0.543880 0.113564
0.908214 0.544593 0.114277
0.933525 0.545306 0.114990
0.958836 0.546019 0.115703
0.151282 0.550197 0.095282
0.176593 0.550910 0.095996
0.201904 0.551623 0.096709
0.227215 0.552336 0.097422
0.252526 0.553049 0.098135
0.277837 0.553762 0.098848
0.303148 0.554475 0.099561
0.328459 0.555188 0.100274
0.353770 0.555902 0.100987
0.379082 0.556615 0.101700
0.404393 0.557328 0.102414
0.429704 0.558041 0.103127
0.455015 0.558754 0.103840
0.480326 0.559467 0.104553
0.505637 0.560180 0.105266
0.530948 0.560893 0.105979
0.556259 0.561606 0.106692
0.581570 0.562320 0.107405
0.606881 0.563033 0.108118
0.632192 0.563746 0.108832
0.657503 0.564459 0.109545
0.682814 0.565172 0.110258
0.708125 0.565885 0.110971
0.733436 0.566598 0.111684
0.758747 0.567311 0.112397
0.784058 0.568025 0.113110
0.809369 0.568738 0.113823
0.834680 0.569451 0.114537
0.859991 0.570164 0.115250
0.885302 0.570877 0.115963
0.910613 0.571590 0.116676
0.935924 0.572303 0.117389
0.961235 0.573016 0.118102
0.153681 0.577193 0.097681
0.178992 0.577907 0.098394
0.204303 0.578620 0.099108
0.229614 0.579333 0.099821
0.254925 0.580046 0.100534
0.280236 0.580759 0.101247
0.305547 0.581472 0.101960
0.330858 0.582185 0.102673
0.356169 0.582898 0.103386
0.381480 0.583612 0.104099
0.406791 0.584325 0.104813
0.432102 0.585038 0.105526
0.457413 0.585751 0.106239
0.482725 0.586464 0.106952
0.508036 0.587177 0.107665
0.533347 0.587890 0.108378
0.558658 0.588603 0.109091
0.583969 0.589316 0.109804
0.609280 0.590030 0.110517
0.634591 0.590743 0.111231
0.659902 0.591456 0.111944
0.685213 0.592169 0.112657
0.710524 0.592882 0.113370
0.735835 0.593595 0.114083
0.761146 0.594308 0.114796
0.786457 0.595021 0.115509
0.811768 0.595734 0.116222
0.837079 0.596448 0.116935
0.862390 0.597161 0.117649
0.887701 0.597874 0.118362
0.913012 0.598587 0.119075
0.938323 0.599300 0.119788
0.963634 0.600013 0.120501
0.156080 0.604190 0.100080
0.181391 0.604903 0.100793
0.206702 0.605617 0.101507
0.232013 0.606330 0.102220
0.257324 0.607043 0.102933
0.282635 0.607756 0.103646
0.307946 0.608469 0.104359
0.333257 0.609182 0.105072
0.358568 0.609895 0.105785
0.383879 0.610608 0.106498
0.409190 0.611321 0.107211
0.434501 0.612035 0.107925
0.459812 0.612748 0.108638
0.485123 0.613461 0.109351
0.510434 0.614174 0.110064
0.535745 0.614887 0.110777
0.561057 0.615600 0.111490
0.586368 0.616313 0.112203
0.611679 0.617026 0.112916
0.636990 0.617740 0.113630
0.662301 0.618453 0.114343
0.687612 0.619166 0.115056
0.712923 0.619879 0.115769
0.738234 0.620592 0.116482
0.763545 0.621305 0.117195
0.788856 0.622018 0.117908
0.814167 0.622731 0.118621
0.839478 0.623444 0.119334
0.864789 0.624158 0.120048
0.890100 0.624871 0.120761
0.915411 0.625584 0.121474
0.940722 0.626297 0.122187
0.966033 0.627010 0.122900
0.158479 0.631187 0.102479
0.183790 0.631900 0.103192
0.209101 0.632613 0.103906
0.234412 0.633327 0.104619
0.259723 0.634040 0.105332
0.285034 0.634753 0.106045
0.310345 0.635466 0.106758
0.335656 0.636179 0.107471
0.360967 0.636892 0.108184
0.386278 0.637605 0.108897
0.411589 0.638318 0.109610
0.436900 0.639031 0.110324
0.462211 0.639745 0.111037
0.487522 0.640458 0.111750
0.512833 0.641171 0.112463
0.538144 0.641884 0.113176
0.563455 0.642597 0.113889
0.588766 0.643310 0.114602
0.614077 0.644023 0.115315
0.639388 0.644736 0.116029
0.664700 0.645450 0.116742
0.690011 0.646163 0.117455
0.715322 0.646876 0.118168
0.740633 0.647589 0.118881
0.765944 0.648302 0.119594
0.791255 0.649015 0.120307
0.816566 0.649728 0.121020
0.841877 0.650441 0.121733
0.867188 0.651154 0.122447
0.892499 0.651868 0.123160
0.917810 0.652581 0.123873
0.943121 0.653294 0.124586
0.968432 0.654007 0.125299
0.160878 0.658184 0.104878
0.186189 0.658897 0.105591
0.211500 0.659610 0.106305
0.236811 0.660323 0.107018
0.262122 0.661037 0.107731
0.287433 0.661750 0.108444
0.312744 0.662463 0.109157
0.338055 0.663176 0.109870
0.363366 0.663889 0.110583
0.388677 0.664602 0.111296
0.413988 0.665315 0.112009
0.439299 0.666028 0.112723
0.464610 0.666741 0.113436
0.489921 0.667455 0.114149
0.515232 0.668168 0.114862
0.540543 0.668881 0.115575
0.565854 0.669594 0.116288
0.591165 0.670307 0.117001
0.616476 0.671020 0.117714
0.641787 0.671733 0.118427
0.667098 0.672446 0.119141
0.692409 0.673159 0.119854
0.717720 0.673873 0.120567
0.743032 0.674586 0.121280
0.768343 0.675299 0.121993
0.793654 0.676012 0.122706
0.818965 0.676725 0.123419
0.844276 0.677438 0.124132
0.869587 0.678151 0.124846
0.894898 0.678864 0.125559
0.920209 0.679578 0.126272
0.945520 0.680291 0.126985
0.970831 0.681004 0.127698
0.163277 0.685181 0.107277
0.188588 0.685894 0.107990
0.213899 0.686607 0.108703
0.239210 0.687320 0.109417
0.264521 0.688033 0.110130
0.289832 0.688747 0.110843
0.315143 0.689460 0.111556
0.340454 0.690173 0.112269
0.365765 0.690886 0.112982
0.391076 0.691599 0.113695
0.416387 0.692312 0.114408
0.441698 0.693025 0.115122
0.467009 0.693738 0.115835
0.492320 0.694451 0.116548
0.517631 0.695165 0.117261
0.542942 0.695878 0.117974
0.568253 0.696591 0.118687
0.593564 0.697304 0.119400
0.618875 0.698017 0.120113
0.644186 0.698730 0.120826
0.669497 0.699443 0.121540
0.694808 0.700156 0.122253
0.720119 0.700869 0.122966
0.745430 0.701583 0.123679
0.770741 0.702296 0.124392
0.796052 0.703009 0.125105
0.821364 0.703722 0.125818
0.846675 0.704435 0.126531
0.871986 0.705148 0.127244
0.897297 0.705861 0.127958
0.922608 0.706574 0.128671
0.947919 0.707287 0.129384
0.973230 0.708001 0.130097
0.165676 0.712178 0.109676
0.190987 0.712891 0.110389
0.216298 0.713604 0.111102
0.241609 0.714317 0.111816
0.266920 0.715030 0.112529
0.292231 0.715743 0.113242
0.317542 0.716456 0.113955
0.342853 0.717170 0.114668
0.368164 0.717883 0.115381
0.393475 0.718596 0.116094
0.418786 0.719309 0.116807
0.444097 0.720022 0.117520
0.469408 0.720735 0.118234
0.494719 0.721448 0.118947
0.520030 0.722161 0.119660
0.545341 0.722875 0.120373
0.570652 0.723588 0.121086
0.595963 0.724301 0.121799
0.621274 0.725014 0.122512
0.646585 0.725727 0.123225
0.671896 0.726440 0.123939
0.697207 0.727153 0.124652
0.722518 0.727866 0.125365
0.747829 0.728579 0.126078
0.773140 0.729293 0.126791
0.798451 0.730006 0.127504
0.823762 0.730719 0.128217
0.849073 0.731432 0.128930
0.874384 0.732145 0.129643
0.899695 0.732858 0.130357
0.925007 0.733571 0.131070
0.950318 0.734284 0.131783
0.975629 0.734997 0.132496
0.168075 0.739175 0.112075
0.193386 0.739888 0.112788
0.218697 0.740601 0.113501
0.244008 0.741314 0.114215
0.269319 0.742027 0.114928
0.294630 0.742740 0.115641
0.319941 0.743453 0.116354
0.345252 0.744166 0.117067
0.370563 0.744880 0.117780
0.395874 0.745593 0.118493
0.421185 0.746306 0.119206
0.446496 0.747019 0.119919
0.471807 0.747732 0.120633
0.497118 0.748445 0.121346
0.522429 0.749158 0.122059
0.547740 0.749871 0.122772
0.573051 0.750584 0.123485
0.598362 0.751298 0.124198
0.623673 0.752011 0.124911
0.648984 0.752724 0.125624
0.674295 0.753437 0.126337
0.699606 0.754150 0.127051
0.724917 0.754863 0.127764
0.750228 0.755576 0.128477
0.775539 0.756289 0.129190
0.800850 0.757003 0.129903
0.826161 0.757716 0.130616
0.851472 0.758429 0.131329
0.876783 0.759142 0.132042
0.902094 0.759855 0.132756
0.927451 0.760568 0.133438
0.953119 0.761281 0.133914
0.978786 0.761994 0.134389
0.170474 0.766172 0.114474
0.195785 0.766885 0.115187
0.221096 0.767598 0.115900
0.246407 0.768311 0.116613
0.271718 0.769024 0.117327
0.297029 0.769737 0.118040
0.322340 0.770450 0.118753
0.347651 0.771163 0.119466
0.372962 0.771876 0.120179
0.398273 0.772590 0.120892
0.423584 0.773303 0.121605
0.448895 0.774016 0.122318
0.474206 0.774729 0.123032
0.499517 0.775442 0.123745
0.524828 0.776155 0.124458
0.550139 0.776868 0.125171
0.575450 0.777581 0.125884
0.600761 0.778294 0.126597
0.626072 0.779008 0.127310
0.651383 0.779721 0.128023
0.676694 0.780434 0.128736
0.702005 0.781147 0.129450
0.727316 0.781860 0.130163
0.752627 0.782573 0.130876
0.777938 0.783286 0.131589
0.803249 0.783999 0.132302
0.828560 0.784713 0.133015
0.854047 0.785426 0.133611
0.879714 0.786139 0.134087
0.905382 0.786852 0.134562
0.931050 0.787565 0.135037
0.956717 0.788278 0.135513
0.982385 0.788991 0.135988
0.172873 0.793168 0.116873
0.198184 0.793881 0.117586
0.223495 0.794595 0.118299
0.248806 0.795308 0.119012
0.274117 0.796021 0.119726
0.299428 0.796734 0.120439
0.324739 0.797447 0.121152
0.350050 0.798160 0.121865
0.375361 0.798873 0.122578
0.400672 0.799586 0.123291
0.425983 0.800300 0.124004
0.451294 0.801013 0.124717
0.476605 0.801726 0.125430
0.501916 0.802439 0.126144
0.527227 0.803152 0.126857
0.552538 0.803865 0.127570
0.577849 0.804578 0.128283
0.603160 0.805291 0.128996
0.628471 0.806004 0.129709
0.653782 0.806718 0.130422
0.679093 0.807431 0.131135
0.704404 0.808144 0.131849
0.729715 0.808857 0.132562
0.755026 0.809570 0.133275
0.780643 0.810283 0.133784
0.806310 0.810996 0.134260
0.831978 0.811709 0.134735
