fexer/Resources/LUTs/kodak_gold_200.cube
TITLE "Gold 200"
LUT_3D_SIZE 9
DOMAIN_MIN 0.0 0.0 0.0
DOMAIN_MAX 1.0 1.0 1.0
0.127699 0.087430 0.009641
0.253654 0.084345 0.009641
0.379609 0.081260 0.009641
0.505565 0.078176 0.009641
0.631520 0.075091 0.009641
0.757475 0.072006 0.009641
0.883430 0.068922 0.009641
1.000000 0.066355 0.008605
1.000000 0.064299 0.006549
0.112133 0.207635 0.009641
0.238089 0.204550 0.009641
0.364044 0.201466 0.009641
0.489999 0.198381 0.009641
0.618185 0.196189 0.007856
0.746711 0.194132 0.005800
0.875237 0.192076 0.003743
1.000000 0.190019 0.001687
1.000000 0.187963 0.000000
0.097164 0.328078 0.009164
0.225690 0.326022 0.007108
0.354216 0.323966 0.005051
0.482741 0.321909 0.002995
0.611267 0.319853 0.000938
0.739793 0.317796 0.000000
0.868319 0.315740 0.000000
0.996844 0.313683 0.000000
1.000000 0.311627 0.000000
0.090246 0.451743 0.002246
0.218772 0.449686 0.000190
0.347298 0.447630 0.000000
0.475823 0.445573 0.000000
0.604349 0.443517 0.000000
0.732875 0.441461 0.000000
0.861401 0.439404 0.000000
0.989927 0.437348 0.000000
1.000000 0.435291 0.000000
0.083328 0.575407 0.000000
0.211854 0.573351 0.000000
0.340380 0.571294 0.000000
0.468905 0.569238 0.000000
0.597431 0.567181 0.000000
0.725957 0.565125 0.000000
0.854483 0.563068 0.000000
0.983009 0.561012 0.000000
1.000000 0.558956 0.000000
0.076410 0.699071 0.000000
0.204936 0.697015 0.000000
0.333462 0.694958 0.000000
0.461988 0.692902 0.000000
0.590513 0.690846 0.000000
0.719039 0.688789 0.000000
0.847565 0.686733 0.000000
0.976091 0.684676 0.000000
1.000000 0.682620 0.000000
0.069492 0.822735 0.000000
0.198018 0.820679 0.000000
0.326544 0.818623 0.000000
0.455070 0.816566 0.000000
0.583595 0.814510 0.000000
0.712121 0.812453 0.000000
0.841134 0.810397 0.000000
0.971716 0.808340 0.000000
1.000000 0.806284 0.000000
0.062574 0.946400 0.000000
0.191100 0.944343 0.000000
0.319626 0.942287 0.000000
0.449388 0.940230 0.000000
0.579970 0.938174 0.000000
0.710552 0.936118 0.000000
0.841134 0.934061 0.000000
0.971716 0.932005 0.000000
1.000000 0.929948 0.000000
0.057641 1.000000 0.000000
0.188223 1.000000 0.000000
0.318805 1.000000 0.000000
0.449388 1.000000 0.000000
0.579970 1.000000 0.000000
0.710552 1.000000 0.000000
0.841134 1.000000 0.000000
0.971716 1.000000 0.000000
1.000000 1.000000 0.000000
0.126128 0.086382 0.140223
0.252083 0.083297 0.140223
0.378038 0.080213 0.140223
0.503993 0.077128 0.140223
0.629948 0.074043 0.140223
0.755904 0.070959 0.140223
0.881859 0.067874 0.140223
1.000000 0.065657 0.138489
1.000000 0.063600 0.136432
0.110562 0.206587 0.140223
0.236517 0.203503 0.140223
0.362473 0.200418 0.140223
0.488961 0.197547 0.139797
0.617487 0.195490 0.137740
0.746013 0.193434 0.135684
0.874538 0.191377 0.133627
1.000000 0.189321 0.131571
1.000000 0.187264 0.129514
0.096466 0.327380 0.139048
0.224991 0.325324 0.136991
0.353517 0.323267 0.134935
0.482043 0.321211 0.132879
0.610569 0.319154 0.130822
0.739095 0.317098 0.128766
0.867620 0.315042 0.126709
0.996146 0.312985 0.124653
1.000000 0.310929 0.122596
0.089548 0.451044 0.132130
0.218074 0.448988 0.130074
0.346599 0.446932 0.128017
0.475125 0.444875 0.125961
0.603651 0.442819 0.123904
0.732177 0.440762 0.121848
0.860702 0.438706 0.119791
0.989228 0.436649 0.117735
1.000000 0.434593 0.115679
0.082630 0.574709 0.125212
0.211156 0.572652 0.123156
0.339681 0.570596 0.121099
0.468207 0.568539 0.119043
0.596733 0.566483 0.116986
0.725259 0.564426 0.114930
0.853784 0.562370 0.112873
0.982310 0.560314 0.110817
1.000000 0.558257 0.108761
0.075712 0.698373 0.118294
0.204238 0.696316 0.116238
0.332763 0.694260 0.114181
0.461289 0.692204 0.112125
0.589815 0.690147 0.110068
0.718341 0.688091 0.108012
0.846866 0.686034 0.105955
0.975392 0.683978 0.103899
1.000000 0.681921 0.101843
0.068794 0.822037 0.111376
0.197320 0.819981 0.109320
0.325845 0.817924 0.107263
0.454371 0.815868 0.105207
0.582897 0.813811 0.103150
0.711423 0.811755 0.101094
0.841134 0.809699 0.098445
0.971716 0.807642 0.095360
1.000000 0.805586 0.092275
0.061876 0.945701 0.104458
0.190402 0.943645 0.102402
0.318927 0.941588 0.100345
0.449388 0.939532 0.097322
0.579970 0.937476 0.094237
0.710552 0.935419 0.091152
0.841134 0.933363 0.088068
0.971716 0.931306 0.084983
1.000000 0.929250 0.081899
0.057641 1.000000 0.096199
0.188223 1.000000 0.093114
0.318805 1.000000 0.090029
0.449388 1.000000 0.086945
0.579970 1.000000 0.083860
0.710552 1.000000 0.080776
0.841134 1.000000 0.077691
0.971716 1.000000 0.074606
1.000000 1.000000 0.071522
0.124556 0.085334 0.270805
0.250511 0.082250 0.270805
0.376467 0.079165 0.270805
0.502422 0.076080 0.270805
0.628377 0.072996 0.270805
0.754332 0.069911 0.270805
0.880758 0.067015 0.270429
1.000000 0.064958 0.268373
1.000000 0.062902 0.266316
0.108991 0.205540 0.270805
0.234946 0.202455 0.270805
0.360901 0.199370 0.270805
0.488263 0.196848 0.269680
0.616788 0.194792 0.267624
0.745314 0.192735 0.265568
0.873840 0.190679 0.263511
1.000000 0.188623 0.261455
1.000000 0.186566 0.259398
0.095767 0.326682 0.268932
0.224293 0.324625 0.266875
0.352819 0.322569 0.264819
0.481345 0.320512 0.262762
0.609870 0.318456 0.260706
0.738396 0.316400 0.258650
0.866922 0.314343 0.256593
0.995448 0.312287 0.254537
1.000000 0.310230 0.252480
0.088849 0.450346 0.262014
0.217375 0.448290 0.259957
0.345901 0.446233 0.257901
0.474427 0.444177 0.255845
0.602952 0.442120 0.253788
0.731478 0.440064 0.251732
0.860004 0.438007 0.249675
0.988530 0.435951 0.247619
1.000000 0.433895 0.245562
0.081931 0.574010 0.255096
0.210457 0.571954 0.253039
0.338983 0.569897 0.250983
0.467509 0.567841 0.248927
0.596035 0.565785 0.246870
0.724560 0.563728 0.244814
0.853086 0.561672 0.242757
0.981612 0.559615 0.240701
1.000000 0.557559 0.238644
0.075013 0.697674 0.248178
0.203539 0.695618 0.246121
0.332065 0.693562 0.244065
0.460591 0.691505 0.242009
0.589117 0.689449 0.239952
0.717642 0.687392 0.237896
0.846168 0.685336 0.235839
0.974694 0.683279 0.233783
1.000000 0.681223 0.231726
0.068096 0.821339 0.241260
0.196621 0.819282 0.239203
0.325147 0.817226 0.237147
0.453673 0.815169 0.235091
0.582199 0.813113 0.233034
0.710724 0.811057 0.230978
0.841134 0.809000 0.227979
0.971716 0.806944 0.224895
1.000000 0.804887 0.221810
0.061178 0.945003 0.234342
0.189703 0.942947 0.232286
0.318805 0.940890 0.229941
0.449388 0.938834 0.226856
0.579970 0.936777 0.223772
0.710552 0.934721 0.220687
0.841134 0.932664 0.217602
0.971716 0.930608 0.214518
1.000000 0.928552 0.211433
0.057641 1.000000 0.225733
0.188223 1.000000 0.222649
0.318805 1.000000 0.219564
0.449388 1.000000 0.216479
0.579970 1.000000 0.213395
0.710552 1.000000 0.210310
0.841134 1.000000 0.207226
0.971716 1.000000 0.204141
1.000000 1.000000 0.201056
0.122985 0.084287 0.401388
0.248940 0.081202 0.401388
0.374895 0.078118 0.401388
0.500851 0.075033 0.401388
0.626806 0.071948 0.401388
0.752761 0.068864 0.401388
0.880060 0.066316 0.400313
1.000000 0.064260 0.398256
1.000000 0.062203 0.396200
0.107419 0.204492 0.401388
0.233375 0.201407 0.401388
0.359330 0.198323 0.401388
0.487564 0.196150 0.399564
0.616090 0.194093 0.397508
0.744616 0.192037 0.395451
0.873142 0.189981 0.393395
1.000000 0.187924 0.391339
1.000000 0.185868 0.389282
0.095069 0.325983 0.398816
0.223595 0.323927 0.396759
0.352121 0.321871 0.394703
0.480646 0.319814 0.392646
0.609172 0.317758 0.390590
0.737698 0.315701 0.388533
0.866224 0.313645 0.386477
0.994749 0.311588 0.384421
1.000000 0.309532 0.382364
0.088151 0.449648 0.391898
0.216677 0.447591 0.389841
0.345203 0.445535 0.387785
0.473728 0.443478 0.385728
0.602254 0.441422 0.383672
0.730780 0.439365 0.381615
0.859306 0.437309 0.379559
0.987831 0.435253 0.377503
1.000000 0.433196 0.375446
0.081233 0.573312 0.384980
0.209759 0.571255 0.382923
0.338285 0.569199 0.380867
0.466810 0.567143 0.378810
0.595336 0.565086 0.376754
0.723862 0.563030 0.374698
0.852388 0.560973 0.372641
0.980913 0.558917 0.370585
1.000000 0.556860 0.368528
0.074315 0.696976 0.378062
0.202841 0.694920 0.376005
0.331367 0.692863 0.373949
0.459892 0.690807 0.371892
0.588418 0.688750 0.369836
0.716944 0.686694 0.367780
0.845470 0.684638 0.365723
0.973996 0.682581 0.363667
1.000000 0.680525 0.361610
0.067397 0.820640 0.371144
0.195923 0.818584 0.369087
0.324449 0.816527 0.367031
0.452974 0.814471 0.364974
0.581500 0.812415 0.362918
0.710552 0.810358 0.360599
0.841134 0.808302 0.357514
0.971716 0.806245 0.354429
1.000000 0.804189 0.351345
0.060479 0.944305 0.364226
0.189005 0.942248 0.362169
0.318805 0.940192 0.359476
0.449388 0.938135 0.356391
0.579970 0.936079 0.353306
0.710552 0.934022 0.350222
0.841134 0.931966 0.347137
0.971716 0.929910 0.344052
1.000000 0.927853 0.340968
0.057641 1.000000 0.355268
0.188223 1.000000 0.352183
0.318805 1.000000 0.349099
0.449388 1.000000 0.346014
0.579970 1.000000 0.342929
0.710552 1.000000 0.339845
0.841134 1.000000 0.336760
0.971716 1.000000 0.333676
1.000000 1.000000 0.330591
0.121413 0.083239 0.531970
0.247369 0.080155 0.531970
0.373324 0.077070 0.531970
0.499279 0.073985 0.531970
0.625234 0.070901 0.531970
0.751190 0.067816 0.531970
0.879361 0.065618 0.530197
1.000000 0.063562 0.528140
1.000000 0.061505 0.526084
0.105848 0.203445 0.531970
0.231803 0.200360 0.531970
0.358340 0.197508 0.531504
0.486866 0.195451 0.529448
0.615392 0.193395 0.527392
0.743917 0.191339 0.525335
0.872443 0.189282 0.523279
1.000000 0.187226 0.521222
1.000000 0.185169 0.519166
0.094371 0.325285 0.528699
0.222896 0.323229 0.526643
0.351422 0.321172 0.524587
0.479948 0.319116 0.522530
0.608474 0.317059 0.520474
0.736999 0.315003 0.518417
0.865525 0.312946 0.516361
0.994051 0.310890 0.514304
1.000000 0.308834 0.512248
0.087453 0.448949 0.521781
0.215978 0.446893 0.519725
0.344504 0.444836 0.517669
0.473030 0.442780 0.515612
0.601556 0.440724 0.513556
0.730082 0.438667 0.511499
0.858607 0.436611 0.509443
0.987133 0.434554 0.507386
1.000000 0.432498 0.505330
0.080535 0.572613 0.514863
0.209060 0.570557 0.512807
0.337586 0.568501 0.510751
0.466112 0.566444 0.508694
0.594638 0.564388 0.506638
0.723164 0.562331 0.504581
0.851689 0.560275 0.502525
0.980215 0.558218 0.500468
1.000000 0.556162 0.498412
0.073617 0.696278 0.507946
0.202143 0.694221 0.505889
0.330668 0.692165 0.503833
0.459194 0.690108 0.501776
0.587720 0.688052 0.499720
0.716246 0.685996 0.497663
0.844771 0.683939 0.495607
0.973297 0.681883 0.493551
1.000000 0.679826 0.491256
0.066699 0.819942 0.501028
0.195225 0.817886 0.498971
0.323750 0.815829 0.496915
0.452276 0.813773 0.494858
0.580802 0.811716 0.492802
0.710552 0.809660 0.490133
0.841134 0.807603 0.487049
0.971716 0.805547 0.483964
1.000000 0.803491 0.480879
0.059781 0.943606 0.494110
0.188307 0.941550 0.492053
0.318805 0.939493 0.489010
0.449388 0.937437 0.485926
0.579970 0.935381 0.482841
0.710552 0.933324 0.479756
0.841134 0.931268 0.476672
0.971716 0.929211 0.473587
1.000000 0.927155 0.470502
0.057641 1.000000 0.484803
0.188223 1.000000 0.481718
0.318805 1.000000 0.478633
0.449388 1.000000 0.475549
0.579970 1.000000 0.472464
0.710552 1.000000 0.469379
0.841134 1.000000 0.466295
0.971716 1.000000 0.463210
1.000000 1.000000 0.460126
0.119842 0.082192 0.662552
0.245797 0.079107 0.662552
0.371753 0.076022 0.662552
0.497708 0.072938 0.662552
0.623663 0.069853 0.662552
0.750137 0.066976 0.662137
0.878663 0.064920 0.660081
1.000000 0.062863 0.658024
1.000000 0.060807 0.655968
0.104277 0.202397 0.662552
0.230232 0.199312 0.662552
0.357642 0.196810 0.661388
0.486167 0.194753 0.659332
0.614693 0.192697 0.657275
0.743219 0.190640 0.655219
0.871745 0.188584 0.653163
1.000000 0.186527 0.651106
1.000000 0.184471 0.649050
0.093672 0.324587 0.658583
0.222198 0.322530 0.656527
0.350724 0.320474 0.654470
0.479250 0.318417 0.652414
0.607775 0.316361 0.650358
0.736301 0.314304 0.648301
0.864827 0.312248 0.646245
0.993353 0.310192 0.644188
1.000000 0.308135 0.642132
0.086754 0.448251 0.651665
0.215280 0.446194 0.649609
0.343806 0.444138 0.647552
0.472332 0.442082 0.645496
0.600857 0.440025 0.643440
0.729383 0.437969 0.641383
0.857909 0.435912 0.639327
0.986435 0.433856 0.637270
1.000000 0.431799 0.635214
0.079836 0.571915 0.644747
0.208362 0.569859 0.642691
0.336888 0.567802 0.640634
0.465414 0.565746 0.638578
0.593939 0.563689 0.636522
0.722465 0.561633 0.634465
0.850991 0.559577 0.632409
0.979517 0.557520 0.630352
1.000000 0.555464 0.628296
0.072918 0.695579 0.637829
0.201444 0.693523 0.635773
0.329970 0.691467 0.633717
0.458496 0.689410 0.631660
0.587021 0.687354 0.629604
0.715547 0.685297 0.627547
0.844073 0.683241 0.625491
0.972599 0.681184 0.623434
1.000000 0.679128 0.620791
0.066000 0.819244 0.630911
0.194526 0.817187 0.628855
0.323052 0.815131 0.626799
0.451578 0.813074 0.624742
0.580103 0.811018 0.622686
0.710552 0.808961 0.619668
0.841134 0.806905 0.616583
0.971716 0.804849 0.613499
1.000000 0.802792 0.610414
0.059082 0.942908 0.623993
0.188223 0.940851 0.621630
0.318805 0.938795 0.618545
0.449388 0.936739 0.615460
0.579970 0.934682 0.612376
0.710552 0.932626 0.609291
0.841134 0.930569 0.606206
0.971716 0.928513 0.603122
1.000000 0.926456 0.600037
0.057641 1.000000 0.614337
0.188223 1.000000 0.611253
0.318805 1.000000 0.608168
0.449388 1.000000 0.605083
0.579970 1.000000 0.601999
0.710552 1.000000 0.598914
0.841134 1.000000 0.595829
0.971716 1.000000 0.592745
1.000000 1.000000 0.589660
0.118271 0.081144 0.793134
0.244226 0.078060 0.793134
0.370181 0.074975 0.793134
0.496137 0.071890 0.793134
0.622092 0.068806 0.793134
0.749439 0.066278 0.792021
0.877964 0.064221 0.789964
1.000000 0.062165 0.787908
1.000000 0.060108 0.785852
0.102705 0.201349 0.793134
0.228661 0.198265 0.793134
0.356943 0.196111 0.791272
0.485469 0.194055 0.789216
0.613995 0.191998 0.787159
0.742521 0.189942 0.785103
0.871046 0.187885 0.783046
0.999572 0.185829 0.780990
1.000000 0.183773 0.778934
0.092974 0.323888 0.788467
0.221500 0.321832 0.786411
0.350025 0.319775 0.784354
0.478551 0.317719 0.782298
0.607077 0.315663 0.780241
0.735603 0.313606 0.778185
0.864128 0.311550 0.776128
0.992654 0.309493 0.774072
1.000000 0.307437 0.772016
0.086056 0.447552 0.781549
0.214582 0.445496 0.779493
0.343107 0.443440 0.777436
0.471633 0.441383 0.775380
0.600159 0.439327 0.773323
0.728685 0.437270 0.771267
0.857211 0.435214 0.769211
0.985736 0.433158 0.767154
1.000000 0.431101 0.765098
0.079138 0.571217 0.774631
0.207664 0.569160 0.772575
0.336189 0.567104 0.770518
0.464715 0.565047 0.768462
0.593241 0.562991 0.766405
0.721767 0.560935 0.764349
0.850293 0.558878 0.762293
0.978818 0.556822 0.760236
1.000000 0.554765 0.758180
0.072220 0.694881 0.767713
0.200746 0.692825 0.765657
0.329272 0.690768 0.763600
0.457797 0.688712 0.761544
0.586323 0.686655 0.759487
0.714849 0.684599 0.757431
0.843375 0.682542 0.755375
0.971900 0.680486 0.753318
1.000000 0.678430 0.750326
0.065302 0.818545 0.760795
0.193828 0.816489 0.758739
0.322354 0.814432 0.756682
0.450879 0.812376 0.754626
0.579970 0.810320 0.752287
0.710552 0.808263 0.749203
0.841134 0.806207 0.746118
0.971716 0.804150 0.743033
1.000000 0.802094 0.739949
0.058384 0.942209 0.753877
0.188223 0.940153 0.751164
0.318805 0.938097 0.748080
0.449388 0.936040 0.744995
0.579970 0.933984 0.741910
0.710552 0.931927 0.738826
0.841134 0.929871 0.735741
0.971716 0.927814 0.732656
1.000000 0.925758 0.729572
0.057641 1.000000 0.743872
0.188223 1.000000 0.740787
0.318805 1.000000 0.737703
0.449388 1.000000 0.734618
0.579970 1.000000 0.731533
0.710552 1.000000 0.728449
0.841134 1.000000 0.725364
0.971716 1.000000 0.722279
1.000000 1.000000 0.719195
0.116699 0.080097 0.923716
0.242655 0.077012 0.923716
0.368610 0.073927 0.923716
0.494565 0.070843 0.923716
0.620520 0.067758 0.923716
0.748740 0.065579 0.921905
0.877266 0.063523 0.919848
1.000000 0.061466 0.917792
1.000000 0.059410 0.915735
0.101134 0.200302 0.923716
0.227719 0.197469 0.923212
0.356245 0.195413 0.921156
0.484771 0.193356 0.919100
0.613297 0.191300 0.917043
0.741822 0.189243 0.914987
0.870348 0.187187 0.912930
0.998874 0.185131 0.910874
1.000000 0.183074 0.908817
0.092275 0.323190 0.918351
0.220801 0.321133 0.916294
0.349327 0.319077 0.914238
0.477853 0.317021 0.912182
0.606379 0.314964 0.910125
0.734904 0.312908 0.908069
0.863430 0.310851 0.906012
0.991956 0.308795 0.903956
1.000000 0.306738 0.901899
0.085358 0.446854 0.911433
0.213883 0.444798 0.909376
0.342409 0.442741 0.907320
0.470935 0.440685 0.905264
0.599461 0.438628 0.903207
0.727986 0.436572 0.901151
0.856512 0.434516 0.899094
0.985038 0.432459 0.897038
1.000000 0.430403 0.894981
0.078440 0.570518 0.904515
0.206965 0.568462 0.902459
0.335491 0.566406 0.900402
0.464017 0.564349 0.898346
0.592543 0.562293 0.896289
0.721068 0.560236 0.894233
0.849594 0.558180 0.892176
0.978120 0.556123 0.890120
1.000000 0.554067 0.888064
0.071522 0.694183 0.897597
0.200047 0.692126 0.895541
0.328573 0.690070 0.893484
0.457099 0.688013 0.891428
0.585625 0.685957 0.889371
0.714150 0.683900 0.887315
0.842676 0.681844 0.885258
0.971716 0.679788 0.882945
1.000000 0.677731 0.879860
0.064604 0.817847 0.890679
0.193129 0.815790 0.888623
0.321655 0.813734 0.886566
0.450181 0.811678 0.884510
0.579970 0.809621 0.881822
0.710552 0.807565 0.878737
0.841134 0.805508 0.875653
0.971716 0.803452 0.872568
1.000000 0.801395 0.869483
0.057686 0.941511 0.883761
0.188223 0.939455 0.880699
0.318805 0.937398 0.877614
0.449388 0.935342 0.874530
0.579970 0.933285 0.871445
0.710552 0.931229 0.868360
0.841134 0.929173 0.865276
0.971716 0.927116 0.862191
1.000000 0.925060 0.859106
0.057641 1.000000 0.873407
0.188223 1.000000 0.870322
0.318805 1.000000 0.867237
0.449388 1.000000 0.864153
0.579970 1.000000 0.861068
0.710552 1.000000 0.857983
0.841134 1.000000 0.854899
0.971716 1.000000 0.851814
1.000000 1.000000 0.848729
0.115128 0.079049 1.000000
0.241083 0.075964 1.000000
0.367039 0.072880 1.000000
0.492994 0.069795 1.000000
0.619516 0.066937 1.000000
0.748042 0.064881 1.000000
0.876568 0.062824 1.000000
1.000000 0.060768 1.000000
1.000000 0.058712 1.000000
0.099563 0.199254 1.000000
0.227021 0.196771 1.000000
0.355547 0.194714 1.000000
0.484072 0.192658 1.000000
0.612598 0.190602 1.000000
0.741124 0.188545 1.000000
0.869650 0.186489 1.000000
0.998175 0.184432 1.000000
1.000000 0.182376 1.000000
0.091577 0.322492 1.000000
0.220103 0.320435 1.000000
0.348629 0.318379 1.000000
0.477154 0.316322 1.000000
0.605680 0.314266 1.000000
0.734206 0.312209 1.000000
0.862732 0.310153 1.000000
0.991258 0.308097 1.000000
1.000000 0.306040 1.000000
0.084659 0.446156 1.000000
0.213185 0.444099 1.000000
0.341711 0.442043 1.000000
0.470236 0.439986 1.000000
0.598762 0.437930 1.000000
0.727288 0.435874 1.000000
0.855814 0.433817 1.000000
0.984340 0.431761 1.000000
1.000000 0.429704 1.000000
0.077741 0.569820 1.000000
0.206267 0.567764 1.000000
0.334793 0.565707 1.000000
0.463319 0.563651 1.000000
0.591844 0.561594 1.000000
0.720370 0.559538 1.000000
0.848896 0.557481 1.000000
0.977422 0.555425 1.000000
1.000000 0.553369 1.000000
0.070823 0.693484 1.000000
0.199349 0.691428 1.000000
0.327875 0.689371 1.000000
0.456401 0.687315 1.000000
0.584926 0.685259 1.000000
0.713452 0.683202 1.000000
0.841978 0.681146 1.000000
0.971716 0.679089 1.000000
1.000000 0.677033 1.000000
0.063905 0.817148 1.000000
0.192431 0.815092 1.000000
0.320957 0.813036 1.000000
0.449483 0.810979 1.000000
0.579970 0.808923 1.000000
0.710552 0.806866 1.000000
0.841134 0.804810 1.000000
0.971716 0.802753 1.000000
1.000000 0.800697 0.999018
0.057641 0.940813 1.000000
0.188223 0.938756 1.000000
0.318805 0.936700 1.000000
0.449388 0.934643 1.000000
0.579970 0.932587 1.000000
0.710552 0.930531 0.997895
0.841134 0.928474 0.994810
0.971716 0.926418 0.991726
1.000000 0.924361 0.988641
0.057641 1.000000 1.000000
0.188223 1.000000 0.999857
0.318805 1.000000 0.996772
0.449388 1.000000 0.993687
0.579970 1.000000 0.990603
0.710552 1.000000 0.987518
0.841134 1.000000 0.984433
0.971716 1.000000 0.981349
1.000000 1.000000 0.978264
