fexer/Resources/LUTs/kodak_gold_200.cube
TITLE "Gold 200"
LUT_3D_SIZE 5
DOMAIN_MIN 0.0 0.0 0.0
DOMAIN_MAX 1.0 1.0 1.0
0.127699 0.087430 0.009641
0.379609 0.081260 0.009641
0.631520 0.075091 0.009641
0.883430 0.068922 0.009641
1.000000 0.064299 0.006549
0.097164 0.328078 0.009164
0.354216 0.323966 0.005051
0.611267 0.319853 0.000938
0.868319 0.315740 0.000000
1.000000 0.311627 0.000000
0.083328 0.575407 0.000000
0.340380 0.571294 0.000000
0.597431 0.567181 0.000000
0.854483 0.563068 0.000000
1.000000 0.558956 0.000000
0.069492 0.822735 0.000000
0.326544 0.818623 0.000000
0.583595 0.814510 0.000000
0.841134 0.810397 0.000000
1.000000 0.806284 0.000000
0.057641 1.000000 0.000000
0.318805 1.000000 0.000000
0.579970 1.000000 0.000000
0.841134 1.000000 0.000000
1.000000 1.000000 0.000000
0.124556 0.085334 0.270805
0.376467 0.079165 0.270805
0.628377 0.072996 0.270805
0.880758 0.067015 0.270429
1.000000 0.062902 0.266316
0.095767 0.326682 0.268932
0.352819 0.322569 0.264819
0.609870 0.318456 0.260706
0.866922 0.314343 0.256593
1.000000 0.310230 0.252480
0.081931 0.574010 0.255096
0.338983 0.569897 0.250983
0.596035 0.565785 0.246870
0.853086 0.561672 0.242757
1.000000 0.557559 0.238644
0.068096 0.821339 0.241260
0.325147 0.817226 0.237147
0.582199 0.813113 0.233034
0.841134 0.809000 0.227979
1.000000 0.804887 0.221810
0.057641 1.000000 0.225733
0.318805 1.000000 0.219564
0.579970 1.000000 0.213395
0.841134 1.000000 0.207226
1.000000 1.000000 0.201056
0.121413 0.083239 0.531970
0.373324 0.077070 0.531970
0.625234 0.070901 0.531970
0.879361 0.065618 0.530197
1.000000 0.061505 0.526084
0.094371 0.325285 0.528699
0.351422 0.321172 0.524587
0.608474 0.317059 0.520474
0.865525 0.312946 0.516361
1.000000 0.308834 0.512248
0.080535 0.572613 0.514863
0.337586 0.568501 0.510751
0.594638 0.564388 0.506638
0.851689 0.560275 0.502525
1.000000 0.556162 0.498412
0.066699 0.819942 0.501028
0.323750 0.815829 0.496915
0.580802 0.811716 0.492802
0.841134 0.807603 0.487049
1.000000 0.803491 0.480879
0.057641 1.000000 0.484803
0.318805 1.000000 0.478633
0.579970 1.000000 0.472464
0.841134 1.000000 0.466295
1.000000 1.000000 0.460126
0.118271 0.081144 0.793134
0.370181 0.074975 0.793134
0.622092 0.068806 0.793134
0.877964 0.064221 0.789964
1.000000 0.060108 0.785852
0.092974 0.323888 0.788467
0.350025 0.319775 0.784354
0.607077 0.315663 0.780241
0.864128 0.311550 0.776128
1.000000 0.307437 0.772016
0.079138 0.571217 0.774631
0.336189 0.567104 0.770518
0.593241 0.562991 0.766405
0.850293 0.558878 0.762293
1.000000 0.554765 0.758180
0.065302 0.818545 0.760795
0.322354 0.814432 0.756682
0.579970 0.810320 0.752287
0.841134 0.806207 0.746118
1.000000 0.802094 0.739949
0.057641 1.000000 0.743872
0.318805 1.000000 0.737703
0.579970 1.000000 0.731533
0.841134 1.000000 0.725364
1.000000 1.000000 0.719195
0.115128 0.079049 1.000000
0.367039 0.072880 1.000000
0.619516 0.066937 1.000000
0.876568 0.062824 1.000000
1.000000 0.058712 1.000000
0.091577 0.322492 1.000000
0.348629 0.318379 1.000000
0.605680 0.314266 1.000000
0.862732 0.310153 1.000000
1.000000 0.306040 1.000000
0.077741 0.569820 1.000000
0.334793 0.565707 1.000000
0.591844 0.561594 1.000000
0.848896 0.557481 1.000000
1.000000 0.553369 1.000000
0.063905 0.817148 1.000000
0.320957 0.813036 1.000000
0.579970 0.808923 1.000000
0.841134 0.804810 1.000000
1.000000 0.800697 0.999018
0.057641 1.000000 1.000000
0.318805 1.000000 0.996772
0.579970 1.000000 0.990603
0.841134 1.000000 0.984433
1.000000 1.000000 0.978264
