fexer/Resources/LUTs/kodak_gold_200.cube
TITLE "Gold 200"
LUT_3D_SIZE 33
DOMAIN_MIN 0.0 0.0 0.0
DOMAIN_MAX 1.0 1.0 1.0
0.127699 0.087430 0.009641
0.159188 0.086658 0.009641
0.190676 0.085887 0.009641
0.222165 0.085116 0.009641
0.253654 0.084345 0.009641
0.285143 0.083574 0.009641
0.316632 0.082803 0.009641
0.348121 0.082031 0.009641
0.379609 0.081260 0.009641
0.411098 0.080489 0.009641
0.442587 0.079718 0.009641
0.474076 0.078947 0.009641
0.505565 0.078176 0.009641
0.537053 0.077404 0.009641
0.568542 0.076633 0.009641
0.600031 0.075862 0.009641
0.631520 0.075091 0.009641
0.663009 0.074320 0.009641
0.694497 0.073549 0.009641
0.725986 0.072777 0.009641
0.757475 0.072006 0.009641
0.788964 0.071235 0.009641
0.820453 0.070464 0.009641
0.851941 0.069693 0.009641
0.883430 0.068922 0.009641
0.914919 0.068151 0.009641
0.946418 0.067383 0.009633
0.978549 0.066869 0.009119
1.000000 0.066355 0.008605
1.000000 0.065841 0.008091
1.000000 0.065327 0.007577
1.000000 0.064813 0.007063
1.000000 0.064299 0.006549
0.123807 0.117481 0.009641
0.155296 0.116710 0.009641
0.186785 0.115939 0.009641
0.218274 0.115167 0.009641
0.249763 0.114396 0.009641
0.281252 0.113625 0.009641
0.312740 0.112854 0.009641
0.344229 0.112083 0.009641
0.375718 0.111312 0.009641
0.407207 0.110540 0.009641
0.438696 0.109769 0.009641
0.470184 0.108998 0.009641
0.501673 0.108227 0.009641
0.533162 0.107456 0.009641
0.564651 0.106685 0.009641
0.596140 0.105913 0.009641
0.627628 0.105142 0.009641
0.659117 0.104371 0.009641
0.690606 0.103600 0.009641
0.722095 0.102829 0.009641
0.753584 0.102058 0.009641
0.785072 0.101286 0.009641
0.816561 0.100515 0.009641
0.848294 0.099842 0.009446
0.880425 0.099327 0.008932
0.912557 0.098813 0.008418
0.944688 0.098299 0.007904
0.976819 0.097785 0.007390
1.000000 0.097271 0.006876
1.000000 0.096757 0.006361
1.000000 0.096243 0.005847
1.000000 0.095729 0.005333
1.000000 0.095215 0.004819
0.119916 0.147532 0.009641
0.151405 0.146761 0.009641
0.182894 0.145990 0.009641
0.214383 0.145219 0.009641
0.245871 0.144448 0.009641
0.277360 0.143676 0.009641
0.308849 0.142905 0.009641
0.340338 0.142134 0.009641
0.371827 0.141363 0.009641
0.403315 0.140592 0.009641
0.434804 0.139821 0.009641
0.466293 0.139049 0.009641
0.497782 0.138278 0.009641
0.529271 0.137507 0.009641
0.560759 0.136736 0.009641
0.592248 0.135965 0.009641
0.623737 0.135194 0.009641
0.655226 0.134422 0.009641
0.686715 0.133651 0.009641
0.718204 0.132880 0.009641
0.750170 0.132300 0.009259
0.782301 0.131786 0.008745
0.814433 0.131272 0.008231
0.846564 0.130758 0.007717
0.878696 0.130244 0.007202
0.910827 0.129729 0.006688
0.942959 0.129215 0.006174
0.975090 0.128701 0.005660
1.000000 0.128187 0.005146
1.000000 0.127673 0.004632
1.000000 0.127159 0.004118
1.000000 0.126645 0.003604
1.000000 0.126131 0.003090
0.116025 0.177583 0.009641
0.147514 0.176812 0.009641
0.179002 0.176041 0.009641
0.210491 0.175270 0.009641
0.241980 0.174499 0.009641
0.273469 0.173728 0.009641
0.304958 0.172957 0.009641
0.336446 0.172185 0.009641
0.367935 0.171414 0.009641
0.399424 0.170643 0.009641
0.430913 0.169872 0.009641
0.462402 0.169101 0.009641
0.493891 0.168330 0.009641
0.525379 0.167558 0.009641
0.556868 0.166787 0.009641
0.588357 0.166016 0.009641
0.619915 0.165272 0.009586
0.652046 0.164758 0.009072
0.684178 0.164244 0.008558
0.716309 0.163730 0.008044
0.748440 0.163216 0.007529
0.780572 0.162702 0.007015
0.812703 0.162188 0.006501
0.844835 0.161674 0.005987
0.876966 0.161160 0.005473
0.909098 0.160646 0.004959
0.941229 0.160131 0.004445
0.973360 0.159617 0.003931
1.000000 0.159103 0.003417
1.000000 0.158589 0.002902
1.000000 0.158075 0.002388
1.000000 0.157561 0.001874
1.000000 0.157047 0.001360
0.112133 0.207635 0.009641
0.143622 0.206864 0.009641
0.175111 0.206092 0.009641
0.206600 0.205321 0.009641
0.238089 0.204550 0.009641
0.269577 0.203779 0.009641
0.301066 0.203008 0.009641
0.332555 0.202237 0.009641
0.364044 0.201466 0.009641
0.395533 0.200694 0.009641
0.427022 0.199923 0.009641
0.458510 0.199152 0.009641
0.489999 0.198381 0.009641
0.521791 0.197731 0.009399
0.553922 0.197217 0.008885
0.586054 0.196703 0.008370
0.618185 0.196189 0.007856
0.650317 0.195674 0.007342
0.682448 0.195160 0.006828
0.714579 0.194646 0.006314
0.746711 0.194132 0.005800
0.778842 0.193618 0.005286
0.810974 0.193104 0.004772
0.843105 0.192590 0.004258
0.875237 0.192076 0.003743
0.907368 0.191562 0.003229
0.939500 0.191047 0.002715
0.971631 0.190533 0.002201
1.000000 0.190019 0.001687
1.000000 0.189505 0.001173
1.000000 0.188991 0.000659
1.000000 0.188477 0.000145
1.000000 0.187963 0.000000
0.108242 0.237686 0.009641
0.139731 0.236915 0.009641
0.171220 0.236144 0.009641
0.202709 0.235373 0.009641
0.234197 0.234601 0.009641
0.265686 0.233830 0.009641
0.297175 0.233059 0.009641
0.328664 0.232288 0.009641
0.360153 0.231517 0.009641
0.391641 0.230746 0.009641
0.423667 0.230189 0.009211
0.455798 0.229675 0.008697
0.487930 0.229161 0.008183
0.520061 0.228647 0.007669
0.552193 0.228133 0.007155
0.584324 0.227619 0.006641
0.616456 0.227105 0.006127
0.648587 0.226590 0.005613
0.680719 0.226076 0.005099
0.712850 0.225562 0.004585
0.744981 0.225048 0.004070
0.777113 0.224534 0.003556
0.809244 0.224020 0.003042
0.841376 0.223506 0.002528
0.873507 0.222992 0.002014
0.905639 0.222478 0.001500
0.937770 0.221964 0.000986
0.969902 0.221449 0.000472
1.000000 0.220935 0.000000
1.000000 0.220421 0.000000
1.000000 0.219907 0.000000
1.000000 0.219393 0.000000
1.000000 0.218879 0.000000
0.104351 0.267737 0.009641
0.135840 0.266966 0.009641
0.167328 0.266195 0.009641
0.198817 0.265424 0.009641
0.230306 0.264653 0.009641
0.261795 0.263882 0.009641
0.293412 0.263162 0.009538
0.325543 0.262648 0.009024
0.357675 0.262134 0.008510
0.389806 0.261619 0.007996
0.421937 0.261105 0.007482
0.454069 0.260591 0.006968
0.486200 0.260077 0.006454
0.518332 0.259563 0.005940
0.550463 0.259049 0.005426
0.582595 0.258535 0.004911
0.614726 0.258021 0.004397
0.646858 0.257507 0.003883
0.678989 0.256992 0.003369
0.711120 0.256478 0.002855
0.743252 0.255964 0.002341
0.775383 0.255450 0.001827
0.807515 0.254936 0.001313
0.839646 0.254422 0.000799
0.871778 0.253908 0.000285
0.903909 0.253394 0.000000
0.936041 0.252880 0.000000
0.968172 0.252365 0.000000
1.000000 0.251851 0.000000
1.000000 0.251337 0.000000
1.000000 0.250823 0.000000
1.000000 0.250309 0.000000
1.000000 0.249795 0.000000
0.100459 0.297789 0.009641
0.131948 0.297018 0.009641
0.163437 0.296246 0.009641
0.195288 0.295620 0.009351
0.227419 0.295106 0.008837
0.259551 0.294592 0.008323
0.291682 0.294078 0.007809
0.323814 0.293564 0.007295
0.355945 0.293050 0.006781
0.388077 0.292535 0.006267
0.420208 0.292021 0.005753
0.452339 0.291507 0.005238
0.484471 0.290993 0.004724
0.516602 0.290479 0.004210
0.548734 0.289965 0.003696
0.580865 0.289451 0.003182
0.612997 0.288937 0.002668
0.645128 0.288423 0.002154
0.677260 0.287909 0.001640
0.709391 0.287394 0.001126
0.741522 0.286880 0.000611
0.773654 0.286366 0.000097
0.805785 0.285852 0.000000
0.837917 0.285338 0.000000
0.870048 0.284824 0.000000
0.902180 0.284310 0.000000
0.934311 0.283796 0.000000
0.966443 0.283282 0.000000
0.998574 0.282767 0.000000
1.000000 0.282253 0.000000
1.000000 0.281739 0.000000
1.000000 0.281225 0.000000
1.000000 0.280711 0.000000
0.097164 0.328078 0.009164
0.129296 0.327564 0.008650
0.161427 0.327050 0.008136
0.193558 0.326536 0.007622
0.225690 0.326022 0.007108
0.257821 0.325508 0.006594
0.289953 0.324994 0.006079
0.322084 0.324480 0.005565
0.354216 0.323966 0.005051
0.386347 0.323452 0.004537
0.418479 0.322937 0.004023
0.450610 0.322423 0.003509
0.482741 0.321909 0.002995
0.514873 0.321395 0.002481
0.547004 0.320881 0.001967
0.579136 0.320367 0.001452
0.611267 0.319853 0.000938
0.643399 0.319339 0.000424
0.675530 0.318825 0.000000
0.707662 0.318310 0.000000
0.739793 0.317796 0.000000
0.771924 0.317282 0.000000
0.804056 0.316768 0.000000
0.836187 0.316254 0.000000
0.868319 0.315740 0.000000
0.900450 0.315226 0.000000
0.932582 0.314712 0.000000
0.964713 0.314198 0.000000
0.996844 0.313683 0.000000
1.000000 0.313169 0.000000
1.000000 0.312655 0.000000
1.000000 0.312141 0.000000
1.000000 0.311627 0.000000
0.095435 0.358995 0.007435
0.127566 0.358480 0.006920
0.159697 0.357966 0.006406
0.191829 0.357452 0.005892
0.223960 0.356938 0.005378
0.256092 0.356424 0.004864
0.288223 0.355910 0.004350
0.320355 0.355396 0.003836
0.352486 0.354882 0.003322
0.384618 0.354368 0.002808
0.416749 0.353853 0.002294
0.448880 0.353339 0.001779
0.481012 0.352825 0.001265
0.513143 0.352311 0.000751
0.545275 0.351797 0.000237
0.577406 0.351283 0.000000
0.609538 0.350769 0.000000
0.641669 0.350255 0.000000
0.673801 0.349741 0.000000
0.705932 0.349227 0.000000
0.738063 0.348712 0.000000
0.770195 0.348198 0.000000
0.802326 0.347684 0.000000
0.834458 0.347170 0.000000
0.866589 0.346656 0.000000
0.898721 0.346142 0.000000
0.930852 0.345628 0.000000
0.962984 0.345114 0.000000
0.995115 0.344600 0.000000
1.000000 0.344085 0.000000
1.000000 0.343571 0.000000
1.000000 0.343057 0.000000
1.000000 0.342543 0.000000
0.093705 0.389911 0.005705
0.125837 0.389397 0.005191
0.157968 0.388882 0.004677
0.190099 0.388368 0.004163
0.222231 0.387854 0.003649
0.254362 0.387340 0.003135
0.286494 0.386826 0.002620
0.318625 0.386312 0.002106
0.350757 0.385798 0.001592
0.382888 0.385284 0.001078
0.415020 0.384770 0.000564
0.447151 0.384255 0.000050
0.479282 0.383741 0.000000
0.511414 0.383227 0.000000
0.543545 0.382713 0.000000
0.575677 0.382199 0.000000
0.607808 0.381685 0.000000
0.639940 0.381171 0.000000
0.672071 0.380657 0.000000
0.704203 0.380143 0.000000
0.736334 0.379628 0.000000
0.768465 0.379114 0.000000
0.800597 0.378600 0.000000
0.832728 0.378086 0.000000
0.864860 0.377572 0.000000
0.896991 0.377058 0.000000
0.929123 0.376544 0.000000
0.961254 0.376030 0.000000
0.993386 0.375516 0.000000
1.000000 0.375002 0.000000
1.000000 0.374487 0.000000
1.000000 0.373973 0.000000
1.000000 0.373459 0.000000
0.091976 0.420827 0.003976
0.124107 0.420313 0.003462
0.156239 0.419798 0.002947
0.188370 0.419284 0.002433
0.220501 0.418770 0.001919
0.252633 0.418256 0.001405
0.284764 0.417742 0.000891
0.316896 0.417228 0.000377
0.349027 0.416714 0.000000
0.381159 0.416200 0.000000
0.413290 0.415686 0.000000
0.445421 0.415171 0.000000
0.477553 0.414657 0.000000
0.509684 0.414143 0.000000
0.541816 0.413629 0.000000
0.573947 0.413115 0.000000
0.606079 0.412601 0.000000
0.638210 0.412087 0.000000
0.670342 0.411573 0.000000
0.702473 0.411059 0.000000
0.734604 0.410545 0.000000
0.766736 0.410030 0.000000
0.798867 0.409516 0.000000
0.830999 0.409002 0.000000
0.863130 0.408488 0.000000
0.895262 0.407974 0.000000
0.927393 0.407460 0.000000
0.959525 0.406946 0.000000
0.991656 0.406432 0.000000
1.000000 0.405918 0.000000
1.000000 0.405403 0.000000
1.000000 0.404889 0.000000
1.000000 0.404375 0.000000
0.090246 0.451743 0.002246
0.122378 0.451229 0.001732
0.154509 0.450715 0.001218
0.186640 0.450200 0.000704
0.218772 0.449686 0.000190
0.250903 0.449172 0.000000
0.283035 0.448658 0.000000
0.315166 0.448144 0.000000
0.347298 0.447630 0.000000
0.379429 0.447116 0.000000
0.411561 0.446602 0.000000
0.443692 0.446088 0.000000
0.475823 0.445573 0.000000
0.507955 0.445059 0.000000
0.540086 0.444545 0.000000
0.572218 0.444031 0.000000
0.604349 0.443517 0.000000
0.636481 0.443003 0.000000
0.668612 0.442489 0.000000
0.700744 0.441975 0.000000
0.732875 0.441461 0.000000
0.765006 0.440946 0.000000
0.797138 0.440432 0.000000
0.829269 0.439918 0.000000
0.861401 0.439404 0.000000
0.893532 0.438890 0.000000
0.925664 0.438376 0.000000
0.957795 0.437862 0.000000
0.989927 0.437348 0.000000
1.000000 0.436834 0.000000
1.000000 0.436320 0.000000
1.000000 0.435805 0.000000
1.000000 0.435291 0.000000
0.088517 0.482659 0.000517
0.120648 0.482145 0.000003
0.152780 0.481631 0.000000
0.184911 0.481116 0.000000
0.217042 0.480602 0.000000
0.249174 0.480088 0.000000
0.281305 0.479574 0.000000
0.313437 0.479060 0.000000
0.345568 0.478546 0.000000
0.377700 0.478032 0.000000
0.409831 0.477518 0.000000
0.441963 0.477004 0.000000
0.474094 0.476490 0.000000
0.506225 0.475975 0.000000
0.538357 0.475461 0.000000
0.570488 0.474947 0.000000
0.602620 0.474433 0.000000
0.634751 0.473919 0.000000
0.666883 0.473405 0.000000
0.699014 0.472891 0.000000
0.731146 0.472377 0.000000
0.763277 0.471863 0.000000
0.795408 0.471348 0.000000
0.827540 0.470834 0.000000
0.859671 0.470320 0.000000
0.891803 0.469806 0.000000
0.923934 0.469292 0.000000
0.956066 0.468778 0.000000
0.988197 0.468264 0.000000
1.000000 0.467750 0.000000
1.000000 0.467236 0.000000
1.000000 0.466721 0.000000
1.000000 0.466207 0.000000
0.086787 0.513575 0.000000
0.118919 0.513061 0.000000
0.151050 0.512547 0.000000
0.183181 0.512033 0.000000
0.215313 0.511518 0.000000
0.247444 0.511004 0.000000
0.279576 0.510490 0.000000
0.311707 0.509976 0.000000
0.343839 0.509462 0.000000
0.375970 0.508948 0.000000
0.408102 0.508434 0.000000
0.440233 0.507920 0.000000
0.472364 0.507406 0.000000
0.504496 0.506891 0.000000
0.536627 0.506377 0.000000
0.568759 0.505863 0.000000
0.600890 0.505349 0.000000
0.633022 0.504835 0.000000
0.665153 0.504321 0.000000
0.697285 0.503807 0.000000
0.729416 0.503293 0.000000
0.761547 0.502779 0.000000
0.793679 0.502265 0.000000
0.825810 0.501750 0.000000
0.857942 0.501236 0.000000
0.890073 0.500722 0.000000
0.922205 0.500208 0.000000
0.954336 0.499694 0.000000
0.986468 0.499180 0.000000
1.000000 0.498666 0.000000
1.000000 0.498152 0.000000
1.000000 0.497638 0.000000
1.000000 0.497123 0.000000
0.085058 0.544491 0.000000
0.117189 0.543977 0.000000
0.149321 0.543463 0.000000
0.181452 0.542949 0.000000
0.213583 0.542434 0.000000
0.245715 0.541920 0.000000
0.277846 0.541406 0.000000
0.309978 0.540892 0.000000
0.342109 0.540378 0.000000
0.374241 0.539864 0.000000
0.406372 0.539350 0.000000
0.438504 0.538836 0.000000
0.470635 0.538322 0.000000
0.502766 0.537808 0.000000
0.534898 0.537293 0.000000
0.567029 0.536779 0.000000
0.599161 0.536265 0.000000
0.631292 0.535751 0.000000
0.663424 0.535237 0.000000
0.695555 0.534723 0.000000
0.727687 0.534209 0.000000
0.759818 0.533695 0.000000
0.791949 0.533181 0.000000
0.824081 0.532666 0.000000
0.856212 0.532152 0.000000
0.888344 0.531638 0.000000
0.920475 0.531124 0.000000
0.952607 0.530610 0.000000
0.984738 0.530096 0.000000
1.000000 0.529582 0.000000
1.000000 0.529068 0.000000
1.000000 0.528554 0.000000
1.000000 0.528039 0.000000
0.083328 0.575407 0.000000
0.115460 0.574893 0.000000
0.147591 0.574379 0.000000
0.179723 0.573865 0.000000
0.211854 0.573351 0.000000
0.243985 0.572836 0.000000
0.276117 0.572322 0.000000
0.308248 0.571808 0.000000
0.340380 0.571294 0.000000
0.372511 0.570780 0.000000
0.404643 0.570266 0.000000
0.436774 0.569752 0.000000
0.468905 0.569238 0.000000
0.501037 0.568724 0.000000
0.533168 0.568209 0.000000
0.565300 0.567695 0.000000
0.597431 0.567181 0.000000
0.629563 0.566667 0.000000
0.661694 0.566153 0.000000
0.693826 0.565639 0.000000
0.725957 0.565125 0.000000
0.758088 0.564611 0.000000
0.790220 0.564097 0.000000
0.822351 0.563583 0.000000
0.854483 0.563068 0.000000
0.886614 0.562554 0.000000
0.918746 0.562040 0.000000
0.950877 0.561526 0.000000
0.983009 0.561012 0.000000
1.000000 0.560498 0.000000
1.000000 0.559984 0.000000
1.000000 0.559470 0.000000
1.000000 0.558956 0.000000
0.081599 0.606323 0.000000
0.113730 0.605809 0.000000
0.145862 0.605295 0.000000
0.177993 0.604781 0.000000
0.210124 0.604267 0.000000
0.242256 0.603753 0.000000
0.274387 0.603238 0.000000
0.306519 0.602724 0.000000
0.338650 0.602210 0.000000
0.370782 0.601696 0.000000
0.402913 0.601182 0.000000
0.435045 0.600668 0.000000
0.467176 0.600154 0.000000
0.499307 0.599640 0.000000
0.531439 0.599126 0.000000
0.563570 0.598611 0.000000
0.595702 0.598097 0.000000
0.627833 0.597583 0.000000
0.659965 0.597069 0.000000
0.692096 0.596555 0.000000
0.724228 0.596041 0.000000
0.756359 0.595527 0.000000
0.788490 0.595013 0.000000
0.820622 0.594499 0.000000
0.852753 0.593984 0.000000
0.884885 0.593470 0.000000
0.917016 0.592956 0.000000
0.949148 0.592442 0.000000
0.981279 0.591928 0.000000
1.000000 0.591414 0.000000
1.000000 0.590900 0.000000
1.000000 0.590386 0.000000
1.000000 0.589872 0.000000
0.079869 0.637239 0.000000
0.112001 0.636725 0.000000
0.144132 0.636211 0.000000
0.176264 0.635697 0.000000
0.208395 0.635183 0.000000
0.240526 0.634669 0.000000
0.272658 0.634154 0.000000
0.304789 0.633640 0.000000
0.336921 0.633126 0.000000
0.369052 0.632612 0.000000
0.401184 0.632098 0.000000
0.433315 0.631584 0.000000
0.465447 0.631070 0.000000
0.497578 0.630556 0.000000
0.529709 0.630042 0.000000
0.561841 0.629527 0.000000
0.593972 0.629013 0.000000
0.626104 0.628499 0.000000
0.658235 0.627985 0.000000
0.690367 0.627471 0.000000
0.722498 0.626957 0.000000
0.754630 0.626443 0.000000
0.786761 0.625929 0.000000
0.818892 0.625415 0.000000
0.851024 0.624901 0.000000
0.883155 0.624386 0.000000
0.915287 0.623872 0.000000
0.947418 0.623358 0.000000
0.979550 0.622844 0.000000
1.000000 0.622330 0.000000
1.000000 0.621816 0.000000
1.000000 0.621302 0.000000
1.000000 0.620788 0.000000
0.078140 0.668155 0.000000
0.110271 0.667641 0.000000
0.142403 0.667127 0.000000
0.174534 0.666613 0.000000
0.206665 0.666099 0.000000
0.238797 0.665585 0.000000
0.270928 0.665071 0.000000
0.303060 0.664556 0.000000
0.335191 0.664042 0.000000
0.367323 0.663528 0.000000
0.399454 0.663014 0.000000
0.431586 0.662500 0.000000
0.463717 0.661986 0.000000
0.495848 0.661472 0.000000
0.527980 0.660958 0.000000
0.560111 0.660444 0.000000
0.592243 0.659929 0.000000
0.624374 0.659415 0.000000
0.656506 0.658901 0.000000
0.688637 0.658387 0.000000
0.720769 0.657873 0.000000
0.752900 0.657359 0.000000
0.785031 0.656845 0.000000
0.817163 0.656331 0.000000
0.849294 0.655817 0.000000
0.881426 0.655302 0.000000
0.913557 0.654788 0.000000
0.945689 0.654274 0.000000
0.977820 0.653760 0.000000
1.000000 0.653246 0.000000
1.000000 0.652732 0.000000
1.000000 0.652218 0.000000
1.000000 0.651704 0.000000
0.076410 0.699071 0.000000
0.108542 0.698557 0.000000
0.140673 0.698043 0.000000
0.172805 0.697529 0.000000
0.204936 0.697015 0.000000
0.237067 0.696501 0.000000
0.269199 0.695987 0.000000
0.301330 0.695472 0.000000
0.333462 0.694958 0.000000
0.365593 0.694444 0.000000
0.397725 0.693930 0.000000
0.429856 0.693416 0.000000
0.461988 0.692902 0.000000
0.494119 0.692388 0.000000
0.526250 0.691874 0.000000
0.558382 0.691360 0.000000
0.590513 0.690846 0.000000
0.622645 0.690331 0.000000
0.654776 0.689817 0.000000
0.686908 0.689303 0.000000
0.719039 0.688789 0.000000
0.751171 0.688275 0.000000
0.783302 0.687761 0.000000
0.815433 0.687247 0.000000
0.847565 0.686733 0.000000
0.879696 0.686219 0.000000
0.911828 0.685704 0.000000
0.943959 0.685190 0.000000
0.976091 0.684676 0.000000
1.000000 0.684162 0.000000
1.000000 0.683648 0.000000
1.000000 0.683134 0.000000
1.000000 0.682620 0.000000
0.074681 0.729987 0.000000
0.106812 0.729473 0.000000
0.138944 0.728959 0.000000
0.171075 0.728445 0.000000
0.203207 0.727931 0.000000
0.235338 0.727417 0.000000
0.267469 0.726903 0.000000
0.299601 0.726389 0.000000
0.331732 0.725874 0.000000
0.363864 0.725360 0.000000
0.395995 0.724846 0.000000
0.428127 0.724332 0.000000
0.460258 0.723818 0.000000
0.492389 0.723304 0.000000
0.524521 0.722790 0.000000
0.556652 0.722276 0.000000
0.588784 0.721762 0.000000
0.620915 0.721247 0.000000
0.653047 0.720733 0.000000
0.685178 0.720219 0.000000
0.717310 0.719705 0.000000
0.749441 0.719191 0.000000
0.781572 0.718677 0.000000
0.813704 0.718163 0.000000
0.845835 0.717649 0.000000
0.877967 0.717135 0.000000
0.910098 0.716621 0.000000
0.942230 0.716106 0.000000
0.974361 0.715592 0.000000
1.000000 0.715078 0.000000
1.000000 0.714564 0.000000
1.000000 0.714050 0.000000
1.000000 0.713536 0.000000
0.072951 0.760903 0.000000
0.105083 0.760389 0.000000
0.137214 0.759875 0.000000
0.169346 0.759361 0.000000
0.201477 0.758847 0.000000
0.233608 0.758333 0.000000
0.265740 0.757819 0.000000
0.297871 0.757305 0.000000
0.330003 0.756790 0.000000
0.362134 0.756276 0.000000
0.394266 0.755762 0.000000
0.426397 0.755248 0.000000
0.458529 0.754734 0.000000
0.490660 0.754220 0.000000
0.522791 0.753706 0.000000
0.554923 0.753192 0.000000
0.587054 0.752678 0.000000
0.619186 0.752164 0.000000
0.651317 0.751649 0.000000
0.683449 0.751135 0.000000
0.715580 0.750621 0.000000
0.747712 0.750107 0.000000
0.779843 0.749593 0.000000
0.811974 0.749079 0.000000
0.844106 0.748565 0.000000
0.876237 0.748051 0.000000
0.908369 0.747537 0.000000
0.940500 0.747022 0.000000
0.972632 0.746508 0.000000
1.000000 0.745994 0.000000
1.000000 0.745480 0.000000
1.000000 0.744966 0.000000
1.000000 0.744452 0.000000
0.071222 0.791819 0.000000
0.103353 0.791305 0.000000
0.135485 0.790791 0.000000
0.167616 0.790277 0.000000
0.199748 0.789763 0.000000
0.231879 0.789249 0.000000
0.264010 0.788735 0.000000
0.296142 0.788221 0.000000
0.328273 0.787707 0.000000
0.360405 0.787192 0.000000
0.392536 0.786678 0.000000
0.424668 0.786164 0.000000
0.456799 0.785650 0.000000
0.488931 0.785136 0.000000
0.521062 0.784622 0.000000
0.553193 0.784108 0.000000
0.585325 0.783594 0.000000
0.617456 0.783080 0.000000
0.649588 0.782565 0.000000
0.681719 0.782051 0.000000
0.713851 0.781537 0.000000
0.745982 0.781023 0.000000
0.778114 0.780509 0.000000
0.810245 0.779995 0.000000
0.842376 0.779481 0.000000
0.874508 0.778967 0.000000
0.906639 0.778453 0.000000
0.939071 0.777939 0.000000
0.971716 0.777424 0.000000
1.000000 0.776910 0.000000
1.000000 0.776396 0.000000
1.000000 0.775882 0.000000
1.000000 0.775368 0.000000
0.069492 0.822735 0.000000
0.101624 0.822221 0.000000
0.133755 0.821707 0.000000
0.165887 0.821193 0.000000
0.198018 0.820679 0.000000
0.230149 0.820165 0.000000
0.262281 0.819651 0.000000
0.294412 0.819137 0.000000
0.326544 0.818623 0.000000
0.358675 0.818109 0.000000
0.390807 0.817594 0.000000
0.422938 0.817080 0.000000
0.455070 0.816566 0.000000
0.487201 0.816052 0.000000
0.519332 0.815538 0.000000
0.551464 0.815024 0.000000
0.583595 0.814510 0.000000
0.615727 0.813996 0.000000
0.647858 0.813482 0.000000
0.679990 0.812967 0.000000
0.712121 0.812453 0.000000
0.744253 0.811939 0.000000
0.776384 0.811425 0.000000
0.808515 0.810911 0.000000
0.841134 0.810397 0.000000
0.873780 0.809883 0.000000
0.906425 0.809369 0.000000
0.939071 0.808855 0.000000
0.971716 0.808340 0.000000
1.000000 0.807826 0.000000
1.000000 0.807312 0.000000
1.000000 0.806798 0.000000
1.000000 0.806284 0.000000
0.067763 0.853652 0.000000
0.099894 0.853137 0.000000
0.132026 0.852623 0.000000
0.164157 0.852109 0.000000
0.196289 0.851595 0.000000
0.228420 0.851081 0.000000
0.260551 0.850567 0.000000
0.292683 0.850053 0.000000
0.324814 0.849539 0.000000
0.356946 0.849025 0.000000
0.389077 0.848510 0.000000
0.421209 0.847996 0.000000
0.453340 0.847482 0.000000
0.485472 0.846968 0.000000
0.517603 0.846454 0.000000
0.549734 0.845940 0.000000
0.581866 0.845426 0.000000
0.613997 0.844912 0.000000
0.646129 0.844398 0.000000
0.678260 0.843883 0.000000
0.710552 0.843369 0.000000
0.743197 0.842855 0.000000
0.775843 0.842341 0.000000
0.808489 0.841827 0.000000
0.841134 0.841313 0.000000
0.873780 0.840799 0.000000
0.906425 0.840285 0.000000
0.939071 0.839771 0.000000
0.971716 0.839257 0.000000
1.000000 0.838742 0.000000
1.000000 0.838228 0.000000
1.000000 0.837714 0.000000
1.000000 0.837200 0.000000
0.066033 0.884568 0.000000
0.098165 0.884053 0.000000
0.130296 0.883539 0.000000
0.162428 0.883025 0.000000
0.194559 0.882511 0.000000
0.226691 0.881997 0.000000
0.258822 0.881483 0.000000
0.290953 0.880969 0.000000
0.323085 0.880455 0.000000
0.355216 0.879941 0.000000
0.387348 0.879427 0.000000
0.419479 0.878912 0.000000
0.451611 0.878398 0.000000
0.483742 0.877884 0.000000
0.515873 0.877370 0.000000
0.548005 0.876856 0.000000
0.580136 0.876342 0.000000
0.612615 0.875828 0.000000
0.645261 0.875314 0.000000
0.677906 0.874800 0.000000
0.710552 0.874285 0.000000
0.743197 0.873771 0.000000
0.775843 0.873257 0.000000
0.808489 0.872743 0.000000
0.841134 0.872229 0.000000
0.873780 0.871715 0.000000
0.906425 0.871201 0.000000
0.939071 0.870687 0.000000
