fexer/Resources/LUTs/landscape_vivid.cube
TITLE "Landscape"
LUT_3D_SIZE 33
DOMAIN_MIN 0.0 0.0 0.0
DOMAIN_MAX 1.0 1.0 1.0
0.000000 0.000000 0.000000
0.002821 0.000000 0.000000
0.040042 0.000000 0.000000
0.077263 0.000000 0.000000
0.114483 0.000000 0.000000
0.151704 0.000000 0.000000
0.188925 0.000000 0.000000
0.226146 0.000000 0.000000
0.263367 0.000000 0.000000
0.300588 0.000000 0.000000
0.337809 0.000000 0.000000
0.375030 0.000000 0.000000
0.412250 0.000000 0.000000
0.449471 0.000000 0.000000
0.486692 0.000000 0.000000
0.523913 0.000000 0.000000
0.561134 0.000000 0.000000
0.598355 0.000000 0.000000
0.635576 0.000000 0.000000
0.672796 0.000000 0.000000
0.710017 0.000000 0.000000
0.747238 0.000000 0.000000
0.784459 0.000000 0.000000
0.821680 0.000000 0.000000
0.858901 0.000000 0.000000
0.896122 0.000000 0.000000
0.933342 0.000000 0.000000
0.970563 0.000000 0.000000
1.000000 0.000000 0.000000
1.000000 0.000000 0.000000
1.000000 0.000000 0.000000
1.000000 0.000000 0.000000
1.000000 0.000000 0.000000
0.000000 0.000000 0.000000
0.000000 0.000000 0.000000
0.035845 0.000000 0.000000
0.073066 0.000000 0.000000
0.110287 0.000000 0.000000
0.147507 0.000000 0.000000
0.184728 0.000000 0.000000
0.221949 0.000000 0.000000
0.259170 0.000000 0.000000
0.296391 0.000000 0.000000
0.333612 0.000000 0.000000
0.370833 0.000000 0.000000
0.408054 0.000000 0.000000
0.445274 0.000000 0.000000
0.482495 0.000000 0.000000
0.519716 0.000000 0.000000
0.556937 0.000000 0.000000
0.594158 0.000000 0.000000
0.631379 0.000000 0.000000
0.668600 0.000000 0.000000
0.705820 0.000000 0.000000
0.743041 0.000000 0.000000
0.780262 0.000000 0.000000
0.817483 0.000000 0.000000
0.854704 0.000000 0.000000
0.891925 0.000000 0.000000
0.929146 0.000000 0.000000
0.966366 0.000000 0.000000
1.000000 0.000000 0.000000
1.000000 0.000000 0.000000
1.000000 0.000000 0.000000
1.000000 0.000000 0.000000
1.000000 0.000000 0.000000
0.000000 0.029743 0.000000
0.000000 0.028496 0.000000
0.031648 0.027248 0.000000
0.068869 0.026001 0.000000
0.106090 0.024753 0.000000
0.143311 0.023505 0.000000
0.180532 0.022258 0.000000
0.217752 0.021010 0.000000
0.254973 0.019763 0.000000
0.292194 0.018515 0.000000
0.329415 0.017268 0.000000
0.366636 0.016020 0.000000
0.403857 0.014773 0.000000
0.441078 0.013525 0.000000
0.478298 0.012277 0.000000
0.515519 0.011030 0.000000
0.552740 0.009782 0.000000
0.589961 0.008535 0.000000
0.627182 0.007287 0.000000
0.664403 0.006040 0.000000
0.701624 0.004792 0.000000
0.738844 0.003545 0.000000
0.776065 0.002297 0.000000
0.813286 0.001049 0.000000
0.850507 0.000000 0.000000
0.887728 0.000000 0.000000
0.924949 0.000000 0.000000
0.962170 0.000000 0.000000
0.999391 0.000000 0.000000
1.000000 0.000000 0.000000
1.000000 0.000000 0.000000
1.000000 0.000000 0.000000
1.000000 0.000000 0.000000
0.000000 0.064015 0.000000
0.000000 0.062767 0.000000
0.027451 0.061520 0.000000
0.064672 0.060272 0.000000
0.101893 0.059025 0.000000
0.139114 0.057777 0.000000
0.176335 0.056529 0.000000
0.213556 0.055282 0.000000
0.250776 0.054034 0.000000
0.287997 0.052787 0.000000
0.325218 0.051539 0.000000
0.362439 0.050292 0.000000
0.399660 0.049044 0.000000
0.436881 0.047797 0.000000
0.474102 0.046549 0.000000
0.511322 0.045301 0.000000
0.548543 0.044054 0.000000
0.585764 0.042806 0.000000
0.622985 0.041559 0.000000
0.660206 0.040311 0.000000
0.697427 0.039064 0.000000
0.734648 0.037816 0.000000
0.771868 0.036569 0.000000
0.809089 0.035321 0.000000
0.846310 0.034074 0.000000
0.883531 0.032826 0.000000
0.920752 0.031578 0.000000
0.957973 0.030331 0.000000
0.995194 0.029083 0.000000
1.000000 0.027836 0.000000
1.000000 0.026588 0.000000
1.000000 0.025341 0.000000
1.000000 0.024093 0.000000
0.000000 0.098286 0.000000
0.000000 0.097039 0.000000
0.023254 0.095791 0.000000
0.060475 0.094544 0.000000
0.097696 0.093296 0.000000
0.134917 0.092049 0.000000
0.172138 0.090801 0.000000
0.209359 0.089553 0.000000
0.246580 0.088306 0.000000
0.283800 0.087058 0.000000
0.321021 0.085811 0.000000
0.358242 0.084563 0.000000
0.395463 0.083316 0.000000
0.432684 0.082068 0.000000
0.469905 0.080821 0.000000
0.507126 0.079573 0.000000
0.544346 0.078325 0.000000
0.581567 0.077078 0.000000
0.618788 0.075830 0.000000
0.656009 0.074583 0.000000
0.693230 0.073335 0.000000
0.730451 0.072088 0.000000
0.767672 0.070840 0.000000
0.804893 0.069593 0.000000
0.842113 0.068345 0.000000
0.879334 0.067098 0.000000
0.916555 0.065850 0.000000
0.953776 0.064602 0.000000
0.990997 0.063355 0.000000
1.000000 0.062107 0.000000
1.000000 0.060860 0.000000
1.000000 0.059612 0.000000
1.000000 0.058365 0.000000
0.000000 0.132558 0.000000
0.000000 0.131310 0.000000
0.019058 0.130063 0.000000
0.056278 0.128815 0.000000
0.093499 0.127568 0.000000
0.130720 0.126320 0.000000
0.167941 0.125073 0.000000
0.205162 0.123825 0.000000
0.242383 0.122577 0.000000
0.279604 0.121330 0.000000
0.316824 0.120082 0.000000
0.354045 0.118835 0.000000
0.391266 0.117587 0.000000
0.428487 0.116340 0.000000
0.465708 0.115092 0.000000
0.502929 0.113845 0.000000
0.540150 0.112597 0.000000
0.577370 0.111350 0.000000
0.614591 0.110102 0.000000
0.651812 0.108854 0.000000
0.689033 0.107607 0.000000
0.726254 0.106359 0.000000
0.763475 0.105112 0.000000
0.800696 0.103864 0.000000
0.837917 0.102617 0.000000
0.875137 0.101369 0.000000
0.912358 0.100122 0.000000
0.949579 0.098874 0.000000
0.986800 0.097626 0.000000
1.000000 0.096379 0.000000
1.000000 0.095131 0.000000
1.000000 0.093884 0.000000
1.000000 0.092636 0.000000
0.000000 0.166829 0.000000
0.000000 0.165582 0.000000
0.014861 0.164334 0.000000
0.052082 0.163087 0.000000
0.089302 0.161839 0.000000
0.126523 0.160592 0.000000
0.163744 0.159344 0.000000
0.200965 0.158097 0.000000
0.238186 0.156849 0.000000
0.275407 0.155602 0.000000
0.312628 0.154354 0.000000
0.349848 0.153106 0.000000
0.387069 0.151859 0.000000
0.424290 0.150611 0.000000
0.461511 0.149364 0.000000
0.498732 0.148116 0.000000
0.535953 0.146869 0.000000
0.573174 0.145621 0.000000
0.610395 0.144374 0.000000
0.647615 0.143126 0.000000
0.684836 0.141878 0.000000
0.722057 0.140631 0.000000
0.759278 0.139383 0.000000
0.796499 0.138136 0.000000
0.833720 0.136888 0.000000
0.870941 0.135641 0.000000
0.908161 0.134393 0.000000
0.945382 0.133146 0.000000
0.982603 0.131898 0.000000
1.000000 0.130650 0.000000
1.000000 0.129403 0.000000
1.000000 0.128155 0.000000
1.000000 0.126908 0.000000
0.000000 0.201101 0.000000
0.000000 0.199853 0.000000
0.010664 0.198606 0.000000
0.047885 0.197358 0.000000
0.085106 0.196111 0.000000
0.122326 0.194863 0.000000
0.159547 0.193616 0.000000
0.196768 0.192368 0.000000
0.233989 0.191121 0.000000
0.271210 0.189873 0.000000
0.308431 0.188626 0.000000
0.345652 0.187378 0.000000
0.382872 0.186130 0.000000
0.420093 0.184883 0.000000
0.457314 0.183635 0.000000
0.494535 0.182388 0.000000
0.531756 0.181140 0.000000
0.568977 0.179893 0.000000
0.606198 0.178645 0.000000
0.643419 0.177398 0.000000
0.680639 0.176150 0.000000
0.717860 0.174902 0.000000
0.755081 0.173655 0.000000
0.792302 0.172407 0.000000
0.829523 0.171160 0.000000
0.866744 0.169912 0.000000
0.903965 0.168665 0.000000
0.941185 0.167417 0.000000
0.978406 0.166170 0.000000
1.000000 0.164922 0.000000
1.000000 0.163675 0.000000
1.000000 0.162427 0.000000
1.000000 0.161179 0.000000
0.000000 0.235373 0.000000
0.000000 0.234125 0.000000
0.006467 0.232878 0.000000
0.043688 0.231630 0.000000
0.080909 0.230382 0.000000
0.118130 0.229135 0.000000
0.155350 0.227887 0.000000
0.192571 0.226640 0.000000
0.229792 0.225392 0.000000
0.267013 0.224145 0.000000
0.304234 0.222897 0.000000
0.341455 0.221650 0.000000
0.378676 0.220402 0.000000
0.415897 0.219154 0.000000
0.453117 0.217907 0.000000
0.490338 0.216659 0.000000
0.527559 0.215412 0.000000
0.564780 0.214164 0.000000
0.602001 0.212917 0.000000
0.639222 0.211669 0.000000
0.676443 0.210422 0.000000
0.713663 0.209174 0.000000
0.750884 0.207926 0.000000
0.788105 0.206679 0.000000
0.825326 0.205431 0.000000
0.862547 0.204184 0.000000
0.899768 0.202936 0.000000
0.936989 0.201689 0.000000
0.974209 0.200441 0.000000
1.000000 0.199194 0.000000
1.000000 0.197946 0.000000
1.000000 0.196699 0.000000
1.000000 0.195451 0.000000
0.000000 0.269644 0.000000
0.000000 0.268397 0.000000
0.002270 0.267149 0.000000
0.039491 0.265902 0.000000
0.076712 0.264654 0.000000
0.113933 0.263406 0.000000
0.151154 0.262159 0.000000
0.188374 0.260911 0.000000
0.225595 0.259664 0.000000
0.262816 0.258416 0.000000
0.300037 0.257169 0.000000
0.337258 0.255921 0.000000
0.374479 0.254674 0.000000
0.411700 0.253426 0.000000
0.448921 0.252178 0.000000
0.486141 0.250931 0.000000
0.523362 0.249683 0.000000
0.560583 0.248436 0.000000
0.597804 0.247188 0.000000
0.635025 0.245941 0.000000
0.672246 0.244693 0.000000
0.709467 0.243446 0.000000
0.746687 0.242198 0.000000
0.783908 0.240951 0.000000
0.821129 0.239703 0.000000
0.858350 0.238455 0.000000
0.895571 0.237208 0.000000
0.932792 0.235960 0.000000
0.970013 0.234713 0.000000
1.000000 0.233465 0.000000
1.000000 0.232218 0.000000
1.000000 0.230970 0.000000
1.000000 0.229723 0.000000
0.000000 0.303916 0.000000
0.000000 0.302668 0.000000
0.000000 0.301421 0.000000
0.035294 0.300173 0.000000
0.072515 0.298926 0.000000
0.109736 0.297678 0.000000
0.146957 0.296430 0.000000
0.184178 0.295183 0.000000
0.221399 0.293935 0.000000
0.258619 0.292688 0.000000
0.295840 0.291440 0.000000
0.333061 0.290193 0.000000
0.370282 0.288945 0.000000
0.407503 0.287698 0.000000
0.444724 0.286450 0.000000
0.481945 0.285203 0.000000
0.519165 0.283955 0.000000
0.556386 0.282707 0.000000
0.593607 0.281460 0.000000
0.630828 0.280212 0.000000
0.668049 0.278965 0.000000
0.705270 0.277717 0.000000
0.742491 0.276470 0.000000
0.779711 0.275222 0.000000
0.816932 0.273975 0.000000
0.854153 0.272727 0.000000
0.891374 0.271479 0.000000
0.928595 0.270232 0.000000
0.965816 0.268984 0.000000
1.000000 0.267737 0.000000
1.000000 0.266489 0.000000
1.000000 0.265242 0.000000
1.000000 0.263994 0.000000
0.000000 0.338187 0.000000
0.000000 0.336940 0.000000
0.000000 0.335692 0.000000
0.031097 0.334445 0.000000
0.068318 0.333197 0.000000
0.105539 0.331950 0.000000
0.142760 0.330702 0.000000
0.179981 0.329454 0.000000
0.217202 0.328207 0.000000
0.254423 0.326959 0.000000
0.291643 0.325712 0.000000
0.328864 0.324464 0.000000
0.366085 0.323217 0.000000
0.403306 0.321969 0.000000
0.440527 0.320722 0.000000
0.477748 0.319474 0.000000
0.514969 0.318227 0.000000
0.552189 0.316979 0.000000
0.589410 0.315731 0.000000
0.626631 0.314484 0.000000
0.663852 0.313236 0.000000
0.701073 0.311989 0.000000
0.738294 0.310741 0.000000
0.775515 0.309494 0.000000
0.812736 0.308246 0.000000
0.849956 0.306999 0.000000
0.887177 0.305751 0.000000
0.924398 0.304503 0.000000
0.961619 0.303256 0.000000
0.998840 0.302008 0.000000
1.000000 0.300761 0.000000
1.000000 0.299513 0.000000
1.000000 0.298266 0.000000
0.000000 0.372459 0.000000
0.000000 0.371211 0.000000
0.000000 0.369964 0.000000
0.026901 0.368716 0.000000
0.064121 0.367469 0.000000
0.101342 0.366221 0.000000
0.138563 0.364974 0.000000
0.175784 0.363726 0.000000
0.213005 0.362479 0.000000
0.250226 0.361231 0.000000
0.287447 0.359983 0.000000
0.324667 0.358736 0.000000
0.361888 0.357488 0.000000
0.399109 0.356241 0.000000
0.436330 0.354993 0.000000
0.473551 0.353746 0.000000
0.510772 0.352498 0.000000
0.547993 0.351251 0.000000
0.585213 0.350003 0.000000
0.622434 0.348755 0.000000
0.659655 0.347508 0.000000
0.696876 0.346260 0.000000
0.734097 0.345013 0.000000
0.771318 0.343765 0.000000
0.808539 0.342518 0.000000
0.845760 0.341270 0.000000
0.882980 0.340023 0.000000
0.920201 0.338775 0.000000
0.957422 0.337527 0.000000
0.994643 0.336280 0.000000
1.000000 0.335032 0.000000
1.000000 0.333785 0.000000
1.000000 0.332537 0.000000
0.000000 0.406730 0.000000
0.000000 0.405483 0.000000
0.000000 0.404235 0.000000
0.022704 0.402988 0.000000
0.059925 0.401740 0.000000
0.097145 0.400493 0.000000
0.134366 0.399245 0.000000
0.171587 0.397998 0.000000
0.208808 0.396750 0.000000
0.246029 0.395503 0.000000
0.283250 0.394255 0.000000
0.320471 0.393007 0.000000
0.357691 0.391760 0.000000
0.394912 0.390512 0.000000
0.432133 0.389265 0.000000
0.469354 0.388017 0.000000
0.506575 0.386770 0.000000
0.543796 0.385522 0.000000
0.581017 0.384275 0.000000
0.618238 0.383027 0.000000
0.655458 0.381779 0.000000
0.692679 0.380532 0.000000
0.729900 0.379284 0.000000
0.767121 0.378037 0.000000
0.804342 0.376789 0.000000
0.841563 0.375542 0.000000
0.878784 0.374294 0.000000
0.916004 0.373047 0.000000
0.953225 0.371799 0.000000
0.990446 0.370552 0.000000
1.000000 0.369304 0.000000
1.000000 0.368056 0.000000
1.000000 0.366809 0.000000
0.000000 0.441002 0.000000
0.000000 0.439755 0.000000
0.000000 0.438507 0.000000
0.018507 0.437259 0.000000
0.055728 0.436012 0.000000
0.092949 0.434764 0.000000
0.130169 0.433517 0.000000
0.167390 0.432269 0.000000
0.204611 0.431022 0.000000
0.241832 0.429774 0.000000
0.279053 0.428527 0.000000
0.316274 0.427279 0.000000
0.353495 0.426031 0.000000
0.390715 0.424784 0.000000
0.427936 0.423536 0.000000
0.465157 0.422289 0.000000
0.502378 0.421041 0.000000
0.539599 0.419794 0.000000
0.576820 0.418546 0.000000
0.614041 0.417299 0.000000
0.651262 0.416051 0.000000
0.688482 0.414804 0.000000
0.725703 0.413556 0.000000
0.762924 0.412308 0.000000
0.800145 0.411061 0.000000
0.837366 0.409813 0.000000
0.874587 0.408566 0.000000
0.911808 0.407318 0.000000
0.949028 0.406071 0.000000
0.986249 0.404823 0.000000
1.000000 0.403576 0.000000
1.000000 0.402328 0.000000
1.000000 0.401080 0.000000
0.000000 0.475274 0.000000
0.000000 0.474026 0.000000
0.000000 0.472779 0.000000
0.014310 0.471531 0.000000
0.051531 0.470283 0.000000
0.088752 0.469036 0.000000
0.125973 0.467788 0.000000
0.163193 0.466541 0.000000
0.200414 0.465293 0.000000
0.237635 0.464046 0.000000
0.274856 0.462798 0.000000
0.312077 0.461551 0.000000
0.349298 0.460303 0.000000
0.386519 0.459055 0.000000
0.423740 0.457808 0.000000
0.460960 0.456560 0.000000
0.498181 0.455313 0.000000
0.535402 0.454065 0.000000
0.572623 0.452818 0.000000
0.609844 0.451570 0.000000
0.647065 0.450323 0.000000
0.684286 0.449075 0.000000
0.721506 0.447828 0.000000
0.758727 0.446580 0.000000
0.795948 0.445332 0.000000
0.833169 0.444085 0.000000
0.870390 0.442837 0.000000
0.907611 0.441590 0.000000
0.944832 0.440342 0.000000
0.982052 0.439095 0.000000
1.000000 0.437847 0.000000
1.000000 0.436600 0.000000
1.000000 0.435352 0.000000
0.000000 0.509545 0.000000
0.000000 0.508298 0.000000
0.000000 0.507050 0.000000
0.010113 0.505803 0.000000
0.047334 0.504555 0.000000
0.084555 0.503307 0.000000
0.121776 0.502060 0.000000
0.158997 0.500812 0.000000
0.196217 0.499565 0.000000
0.233438 0.498317 0.000000
0.270659 0.497070 0.000000
0.307880 0.495822 0.000000
0.345101 0.494575 0.000000
0.382322 0.493327 0.000000
0.419543 0.492080 0.000000
0.456764 0.490832 0.000000
0.493984 0.489584 0.000000
0.531205 0.488337 0.000000
0.568426 0.487089 0.000000
0.605647 0.485842 0.000000
0.642868 0.484594 0.000000
0.680089 0.483347 0.000000
0.717310 0.482099 0.000000
0.754530 0.480852 0.000000
0.791751 0.479604 0.000000
0.828972 0.478356 0.000000
0.866193 0.477109 0.000000
0.903414 0.475861 0.000000
0.940635 0.474614 0.000000
0.977856 0.473366 0.000000
1.000000 0.472119 0.000000
1.000000 0.470871 0.000000
1.000000 0.469624 0.000000
0.000000 0.543817 0.000000
0.000000 0.542569 0.000000
0.000000 0.541322 0.000000
0.005916 0.540074 0.000000
0.043137 0.538827 0.000000
0.080358 0.537579 0.000000
0.117579 0.536331 0.000000
0.154800 0.535084 0.000000
0.192021 0.533836 0.000000
0.229242 0.532589 0.000000
0.266462 0.531341 0.000000
0.303683 0.530094 0.000000
0.340904 0.528846 0.000000
0.378125 0.527599 0.000000
0.415346 0.526351 0.000000
0.452567 0.525104 0.000000
0.489788 0.523856 0.000000
0.527008 0.522608 0.000000
0.564229 0.521361 0.000000
0.601450 0.520113 0.000000
0.638671 0.518866 0.000000
0.675892 0.517618 0.000000
0.713113 0.516371 0.000000
0.750334 0.515123 0.000000
0.787554 0.513876 0.000000
0.824775 0.512628 0.000000
0.861996 0.511380 0.000000
0.899217 0.510133 0.000000
0.936438 0.508885 0.000000
0.973659 0.507638 0.000000
1.000000 0.506390 0.000000
1.000000 0.505143 0.000000
1.000000 0.503895 0.000000
0.000000 0.578088 0.000000
0.000000 0.576841 0.000000
0.000000 0.575593 0.000000
0.001719 0.574346 0.000000
0.038940 0.573098 0.000000
0.076161 0.571851 0.000000
0.113382 0.570603 0.000000
0.150603 0.569356 0.000000
0.187824 0.568108 0.000000
0.225045 0.566860 0.000000
0.262266 0.565613 0.000000
0.299486 0.564365 0.000000
0.336707 0.563118 0.000000
0.373928 0.561870 0.000000
0.411149 0.560623 0.000000
0.448370 0.559375 0.000000
0.485591 0.558128 0.000000
0.522812 0.556880 0.000000
0.560032 0.555632 0.000000
0.597253 0.554385 0.000000
0.634474 0.553137 0.000000
0.671695 0.551890 0.000000
0.708916 0.550642 0.000000
0.746137 0.549395 0.000000
0.783358 0.548147 0.000000
0.820579 0.546900 0.000000
0.857799 0.545652 0.000000
0.895020 0.544405 0.000000
0.932241 0.543157 0.000000
0.969462 0.541909 0.000000
1.000000 0.540662 0.000000
1.000000 0.539414 0.000000
1.000000 0.538167 0.000000
0.000000 0.612360 0.000000
0.000000 0.611112 0.000000
0.000000 0.609865 0.000000
0.000000 0.608617 0.000000
0.034744 0.607370 0.000000
0.071964 0.606122 0.000000
0.109185 0.604875 0.000000
0.146406 0.603627 0.000000
0.183627 0.602380 0.000000
0.220848 0.601132 0.000000
0.258069 0.599884 0.000000
0.295290 0.598637 0.000000
0.332510 0.597389 0.000000
0.369731 0.596142 0.000000
0.406952 0.594894 0.000000
0.444173 0.593647 0.000000
0.481394 0.592399 0.000000
0.518615 0.591152 0.000000
0.555836 0.589904 0.000000
0.593056 0.588656 0.000000
0.630277 0.587409 0.000000
0.667498 0.586161 0.000000
0.704719 0.584914 0.000000
0.741940 0.583666 0.000000
0.779161 0.582419 0.000000
0.816382 0.581171 0.000000
0.853603 0.579924 0.000000
0.890823 0.578676 0.000000
0.928044 0.577429 0.000000
0.965265 0.576181 0.000000
1.000000 0.574933 0.000000
1.000000 0.573686 0.000000
1.000000 0.572438 0.000000
0.000000 0.646632 0.000000
0.000000 0.645384 0.000000
0.000000 0.644136 0.000000
0.000000 0.642889 0.000000
0.030547 0.641641 0.000000
0.067768 0.640394 0.000000
0.104988 0.639146 0.000000
0.142209 0.637899 0.000000
0.179430 0.636651 0.000000
0.216651 0.635404 0.000000
0.253872 0.634156 0.000000
0.291093 0.632908 0.000000
0.328314 0.631661 0.000000
0.365534 0.630413 0.000000
0.402755 0.629166 0.000000
0.439976 0.627918 0.000000
0.477197 0.626671 0.000000
0.514418 0.625423 0.000000
0.551639 0.624176 0.000000
0.588860 0.622928 0.000000
0.626081 0.621681 0.000000
0.663301 0.620433 0.000000
0.700522 0.619185 0.000000
0.737743 0.617938 0.000000
0.774964 0.616690 0.000000
0.812185 0.615443 0.000000
0.849406 0.614195 0.000000
0.886627 0.612948 0.000000
0.923847 0.611700 0.000000
0.961068 0.610453 0.000000
0.998289 0.609205 0.000000
1.000000 0.607957 0.000000
1.000000 0.606710 0.000000
0.000000 0.680903 0.000000
0.000000 0.679656 0.000000
0.000000 0.678408 0.000000
0.000000 0.677160 0.000000
0.026350 0.675913 0.000000
0.063571 0.674665 0.000000
0.100792 0.673418 0.000000
0.138012 0.672170 0.000000
0.175233 0.670923 0.000000
0.212454 0.669675 0.000000
0.249675 0.668428 0.000000
0.286896 0.667180 0.000000
0.324117 0.665932 0.000000
0.361338 0.664685 0.000000
0.398558 0.663437 0.000000
0.435779 0.662190 0.000000
0.473000 0.660942 0.000000
0.510221 0.659695 0.000000
0.547442 0.658447 0.000000
0.584663 0.657200 0.000000
0.621884 0.655952 0.000000
0.659105 0.654705 0.000000
0.696325 0.653457 0.000000
0.733546 0.652209 0.000000
0.770767 0.650962 0.000000
0.807988 0.649714 0.000000
0.845209 0.648467 0.000000
0.882430 0.647219 0.000000
0.919651 0.645972 0.000000
0.956871 0.644724 0.000000
0.994092 0.643477 0.000000
1.000000 0.642229 0.000000
1.000000 0.640981 0.000000
0.000000 0.715175 0.000000
0.000000 0.713927 0.000000
0.000000 0.712680 0.000000
0.000000 0.711432 0.000000
0.022153 0.710184 0.000000
0.059374 0.708937 0.000000
0.096595 0.707689 0.000000
0.133816 0.706442 0.000000
0.171036 0.705194 0.000000
0.208257 0.703947 0.000000
0.245478 0.702699 0.000000
0.282699 0.701452 0.000000
0.319920 0.700204 0.000000
0.357141 0.698957 0.000000
0.394362 0.697709 0.000000
0.431583 0.696461 0.000000
0.468803 0.695214 0.000000
0.506024 0.693966 0.000000
0.543245 0.692719 0.000000
0.580466 0.691471 0.000000
0.617687 0.690224 0.000000
0.654908 0.688976 0.000000
0.692129 0.687729 0.000000
0.729349 0.686481 0.000000
0.766570 0.685233 0.000000
0.803791 0.683986 0.000000
0.841012 0.682738 0.000000
0.878233 0.681491 0.000000
0.915454 0.680243 0.000000
0.952675 0.678996 0.000000
0.989895 0.677748 0.000000
1.000000 0.676501 0.000000
1.000000 0.675253 0.000000
0.000000 0.749446 0.000000
0.000000 0.748199 0.000000
0.000000 0.746951 0.000000
0.000000 0.745704 0.000000
0.017956 0.744456 0.000000
0.055177 0.743208 0.000000
0.092398 0.741961 0.000000
0.129619 0.740713 0.000000
0.166840 0.739466 0.000000
0.204060 0.738218 0.000000
0.241281 0.736971 0.000000
0.278502 0.735723 0.000000
0.315723 0.734476 0.000000
0.352944 0.733228 0.000000
0.390165 0.731981 0.000000
0.427386 0.730733 0.000000
0.464607 0.729485 0.000000
0.501827 0.728238 0.000000
0.539048 0.726990 0.000000
0.576269 0.725743 0.000000
0.613490 0.724495 0.000000
0.650711 0.723248 0.000000
0.687932 0.722000 0.000000
0.725153 0.720753 0.000000
0.762373 0.719505 0.000000
0.799594 0.718257 0.000000
0.836815 0.717010 0.000000
0.874036 0.715762 0.000000
0.911257 0.714515 0.000000
0.948478 0.713267 0.000000
0.985699 0.712020 0.000000
1.000000 0.710772 0.000000
1.000000 0.709525 0.000000
0.000000 0.783718 0.000000
0.000000 0.782470 0.000000
0.000000 0.781223 0.000000
0.000000 0.779975 0.000000
0.013759 0.778728 0.000000
0.050980 0.777480 0.000000
0.088201 0.776233 0.000000
0.125422 0.774985 0.000000
0.162643 0.773737 0.000000
0.199864 0.772490 0.000000
0.237085 0.771242 0.000000
0.274305 0.769995 0.000000
0.311526 0.768747 0.000000
0.348747 0.767500 0.000000
0.385968 0.766252 0.000000
0.423189 0.765005 0.000000
0.460410 0.763757 0.000000
0.497631 0.762509 0.000000
0.534851 0.761262 0.000000
0.572072 0.760014 0.000000
0.609293 0.758767 0.000000
0.646514 0.757519 0.000000
0.683735 0.756272 0.000000
0.720956 0.755024 0.000000
0.758177 0.753777 0.000000
0.795397 0.752529 0.000000
0.832618 0.751282 0.000000
0.869839 0.750034 0.000000
0.907060 0.748786 0.000000
0.944281 0.747539 0.000000
0.981502 0.746291 0.000000
1.000000 0.745044 0.000000
1.000000 0.743796 0.000000
0.000000 0.817989 0.000000
0.000000 0.816742 0.000000
0.000000 0.815494 0.000000
0.000000 0.814247 0.000000
0.009562 0.812999 0.000000
0.046783 0.811752 0.000000
0.084004 0.810504 0.000000
0.121225 0.809257 0.000000
0.158446 0.808009 0.000000
0.195667 0.806761 0.000000
0.232888 0.805514 0.000000
0.270109 0.804266 0.000000
0.307329 0.803019 0.000000
0.344550 0.801771 0.000000
0.381771 0.800524 0.000000
0.418992 0.799276 0.000000
0.456213 0.798029 0.000000
0.493434 0.796781 0.000000
0.530655 0.795533 0.000000
0.567875 0.794286 0.000000
0.605096 0.793038 0.000000
0.642317 0.791791 0.000000
0.679538 0.790543 0.000000
0.716759 0.789296 0.000000
0.753980 0.788048 0.000000
0.791201 0.786801 0.000000
0.828421 0.785553 0.000000
0.865642 0.784306 0.000000
0.902863 0.783058 0.000000
0.940084 0.781810 0.000000
0.977305 0.780657 0.000000
1.000000 0.779686 0.000000
1.000000 0.778716 0.000000
0.000000 0.852261 0.000000
0.000000 0.851013 0.000000
0.000000 0.849766 0.000000
0.000000 0.848518 0.000000
0.005366 0.847271 0.000000
0.042587 0.846023 0.000000
0.079807 0.844776 0.000000
0.117028 0.843528 0.000000
0.154249 0.842281 0.000000
0.191470 0.841033 0.000000
0.228691 0.839785 0.000000
0.265912 0.838538 0.000000
0.303133 0.837290 0.000000
0.340353 0.836043 0.000000
0.377574 0.834795 0.000000
0.414795 0.833548 0.000000
0.452016 0.832300 0.000000
0.489237 0.831053 0.000000
0.526458 0.829805 0.000000
0.563679 0.828558 0.000000
0.600899 0.827310 0.000000
0.638120 0.826062 0.000000
0.675341 0.824815 0.000000
0.712562 0.823567 0.000000
0.749783 0.822320 0.000000
0.787004 0.821072 0.000000
0.824225 0.819825 0.000000
