fexer/Resources/LUTs/landscape_vivid.cube
TITLE "Landscape"
LUT_3D_SIZE 5
DOMAIN_MIN 0.0 0.0 0.0
DOMAIN_MAX 1.0 1.0 1.0
0.000000 0.000000 0.000000
0.263367 0.000000 0.000000
0.561134 0.000000 0.000000
0.858901 0.000000 0.000000
1.000000 0.000000 0.000000
0.000000 0.235373 0.000000
0.229792 0.225392 0.000000
0.527559 0.215412 0.000000
0.825326 0.205431 0.000000
1.000000 0.195451 0.000000
0.000000 0.509545 0.000000
0.196217 0.499565 0.000000
0.493984 0.489584 0.000000
0.791751 0.479604 0.000000
1.000000 0.469624 0.000000
0.000000 0.783718 0.000000
0.162643 0.773737 0.000000
0.460410 0.763757 0.000000
0.758177 0.753777 0.000000
1.000000 0.743796 0.000000
0.000000 1.000000 0.000000
0.129068 1.000000 0.000000
0.426835 1.000000 0.000000
0.724602 1.000000 0.000000
1.000000 1.000000 0.000000
0.000000 0.000000 0.276572
0.259978 0.000000 0.262600
0.557744 0.000000 0.248627
0.855511 0.000000 0.234654
1.000000 0.000000 0.220682
0.000000 0.231983 0.229567
0.226403 0.222003 0.215595
0.524170 0.212022 0.203622
0.821937 0.202042 0.193642
1.000000 0.192062 0.183662
0.000000 0.506156 0.190009
0.192828 0.496175 0.180028
0.490595 0.486195 0.170048
0.788362 0.476215 0.160067
1.000000 0.466234 0.150087
0.000000 0.780328 0.156434
0.159253 0.770348 0.146453
0.457020 0.760368 0.136473
0.754787 0.750387 0.126493
1.000000 0.740876 0.116512
0.000000 1.000000 0.122859
0.125679 1.000000 0.112879
0.423446 1.000000 0.102898
0.721213 1.000000 0.092918
1.000000 1.000000 0.082937
0.000000 0.000000 0.579574
0.256588 0.000000 0.565602
0.554355 0.000000 0.551629
0.852122 0.000000 0.537657
1.000000 0.000000 0.523684
0.000000 0.228594 0.532570
0.223013 0.218613 0.518597
0.520780 0.208633 0.507980
0.818547 0.198653 0.498000
1.000000 0.188672 0.488020
0.000000 0.502766 0.494366
0.189439 0.492786 0.484386
0.487206 0.482806 0.474406
0.784973 0.472825 0.464425
1.000000 0.462845 0.454445
0.000000 0.776939 0.460792
0.155864 0.766959 0.450811
0.453631 0.756978 0.440831
0.751398 0.746998 0.430851
1.000000 0.738240 0.420870
0.000000 1.000000 0.427217
0.122289 1.000000 0.417237
0.420056 1.000000 0.407256
0.717823 1.000000 0.397276
1.000000 1.000000 0.387295
0.000000 0.000000 0.882576
0.253199 0.000000 0.868604
0.550966 0.000000 0.854631
0.848733 0.000000 0.840659
1.000000 0.000000 0.826686
0.000000 0.225204 0.835572
0.219624 0.215224 0.822319
0.517391 0.205244 0.812338
0.815158 0.195263 0.802358
1.000000 0.185283 0.792377
0.000000 0.499377 0.798724
0.186049 0.489397 0.788744
0.483816 0.479416 0.778764
0.781583 0.469436 0.768783
1.000000 0.459455 0.758803
0.000000 0.773550 0.765150
0.152475 0.763569 0.755169
0.450242 0.753589 0.745189
0.748008 0.743608 0.735208
1.000000 0.735603 0.725228
0.000000 1.000000 0.731575
0.118900 1.000000 0.721595
0.416667 1.000000 0.711614
0.714434 1.000000 0.701634
1.000000 1.000000 0.691653
0.000000 0.000000 1.000000
0.249809 0.000000 1.000000
0.547576 0.000000 1.000000
0.845343 0.000000 1.000000
1.000000 0.000000 1.000000
0.000000 0.221815 1.000000
0.216235 0.211835 1.000000
0.514002 0.201854 1.000000
0.811768 0.191874 1.000000
1.000000 0.181893 1.000000
0.000000 0.495988 1.000000
0.182660 0.486007 1.000000
0.480427 0.476027 1.000000
0.778194 0.466046 1.000000
1.000000 0.456066 1.000000
0.000000 0.770160 1.000000
0.149085 0.760180 1.000000
0.446852 0.750199 1.000000
0.744619 0.740730 1.000000
1.000000 0.732967 1.000000
0.000000 1.000000 1.000000
0.115510 1.000000 1.000000
0.413277 1.000000 1.000000
0.711044 1.000000 1.000000
1.000000 1.000000 0.996011
