fexer/Resources/LUTs/landscape_vivid.cube
TITLE "Landscape"
LUT_3D_SIZE 9
DOMAIN_MIN 0.0 0.0 0.0
DOMAIN_MAX 1.0 1.0 1.0
0.000000 0.000000 0.000000
0.114483 0.000000 0.000000
0.263367 0.000000 0.000000
0.412250 0.000000 0.000000
0.561134 0.000000 0.000000
0.710017 0.000000 0.000000
0.858901 0.000000 0.000000
1.000000 0.000000 0.000000
1.000000 0.000000 0.000000
0.000000 0.098286 0.000000
0.097696 0.093296 0.000000
0.246580 0.088306 0.000000
0.395463 0.083316 0.000000
0.544346 0.078325 0.000000
0.693230 0.073335 0.000000
0.842113 0.068345 0.000000
0.990997 0.063355 0.000000
1.000000 0.058365 0.000000
0.000000 0.235373 0.000000
0.080909 0.230382 0.000000
0.229792 0.225392 0.000000
0.378676 0.220402 0.000000
0.527559 0.215412 0.000000
0.676443 0.210422 0.000000
0.825326 0.205431 0.000000
0.974209 0.200441 0.000000
1.000000 0.195451 0.000000
0.000000 0.372459 0.000000
0.064121 0.367469 0.000000
0.213005 0.362479 0.000000
0.361888 0.357488 0.000000
0.510772 0.352498 0.000000
0.659655 0.347508 0.000000
0.808539 0.342518 0.000000
0.957422 0.337527 0.000000
1.000000 0.332537 0.000000
0.000000 0.509545 0.000000
0.047334 0.504555 0.000000
0.196217 0.499565 0.000000
0.345101 0.494575 0.000000
0.493984 0.489584 0.000000
0.642868 0.484594 0.000000
0.791751 0.479604 0.000000
0.940635 0.474614 0.000000
1.000000 0.469624 0.000000
0.000000 0.646632 0.000000
0.030547 0.641641 0.000000
0.179430 0.636651 0.000000
0.328314 0.631661 0.000000
0.477197 0.626671 0.000000
0.626081 0.621681 0.000000
0.774964 0.616690 0.000000
0.923847 0.611700 0.000000
1.000000 0.606710 0.000000
0.000000 0.783718 0.000000
0.013759 0.778728 0.000000
0.162643 0.773737 0.000000
0.311526 0.768747 0.000000
0.460410 0.763757 0.000000
0.609293 0.758767 0.000000
0.758177 0.753777 0.000000
0.907060 0.748786 0.000000
1.000000 0.743796 0.000000
0.000000 0.920804 0.000000
0.000000 0.915814 0.000000
0.145855 0.910824 0.000000
0.294739 0.905834 0.000000
0.443622 0.900843 0.000000
0.592506 0.895973 0.000000
0.741389 0.892091 0.000000
0.890273 0.888210 0.000000
1.000000 0.884329 0.000000
0.000000 1.000000 0.000000
0.000000 1.000000 0.000000
0.129068 1.000000 0.000000
0.277952 1.000000 0.000000
0.426835 1.000000 0.000000
0.575718 1.000000 0.000000
0.724602 1.000000 0.000000
0.873485 1.000000 0.000000
1.000000 1.000000 0.000000
0.000000 0.000000 0.125071
0.112789 0.000000 0.118085
0.261672 0.000000 0.111098
0.410556 0.000000 0.104112
0.559439 0.000000 0.097126
0.708323 0.000000 0.090140
0.857206 0.000000 0.083153
1.000000 0.000000 0.076167
1.000000 0.000000 0.069181
0.000000 0.096592 0.101569
0.096001 0.091601 0.094582
0.244885 0.086611 0.087596
0.393768 0.081621 0.080610
0.542652 0.076631 0.073624
0.691535 0.071641 0.066637
0.840419 0.066650 0.059651
0.989302 0.061660 0.053260
1.000000 0.056670 0.048270
0.000000 0.233678 0.078066
0.079214 0.228688 0.071080
0.228098 0.223698 0.064094
0.376981 0.218707 0.057108
0.525864 0.213717 0.051443
0.674748 0.208727 0.046453
0.823631 0.203737 0.041463
0.972515 0.198747 0.036473
1.000000 0.193756 0.031483
0.000000 0.370764 0.054617
0.062427 0.365774 0.049627
0.211310 0.360784 0.044636
0.360194 0.355794 0.039646
0.509077 0.350803 0.034656
0.657961 0.345813 0.029666
0.806844 0.340823 0.024676
0.955727 0.335833 0.019685
1.000000 0.330843 0.014695
0.000000 0.507851 0.037830
0.045639 0.502860 0.032839
0.194523 0.497870 0.027849
0.343406 0.492880 0.022859
0.492290 0.487890 0.017869
0.641173 0.482900 0.012879
0.790057 0.477909 0.007888
0.938940 0.472919 0.002898
1.000000 0.467929 0.000000
0.000000 0.644937 0.021042
0.028852 0.639947 0.016052
0.177735 0.634956 0.011062
0.326619 0.629966 0.006072
0.475502 0.624976 0.001081
0.624386 0.619986 0.000000
0.773269 0.614996 0.000000
0.922153 0.610005 0.000000
1.000000 0.605015 0.000000
0.000000 0.782023 0.004255
0.012065 0.777033 0.000000
0.160948 0.772043 0.000000
0.309832 0.767053 0.000000
0.458715 0.762062 0.000000
0.607598 0.757072 0.000000
0.756482 0.752082 0.000000
0.905365 0.747092 0.000000
1.000000 0.742194 0.000000
0.000000 0.919109 0.000000
0.000000 0.914119 0.000000
0.144161 0.909129 0.000000
0.293044 0.904139 0.000000
0.441928 0.899149 0.000000
0.590811 0.894655 0.000000
0.739695 0.890773 0.000000
0.888578 0.886892 0.000000
1.000000 0.883011 0.000000
0.000000 1.000000 0.000000
0.000000 1.000000 0.000000
0.127373 1.000000 0.000000
0.276257 1.000000 0.000000
0.425140 1.000000 0.000000
0.574024 1.000000 0.000000
0.722907 1.000000 0.000000
0.871791 1.000000 0.000000
1.000000 1.000000 0.000000
0.000000 0.000000 0.276572
0.111094 0.000000 0.269586
0.259978 0.000000 0.262600
0.408861 0.000000 0.255613
0.557744 0.000000 0.248627
0.706628 0.000000 0.241641
0.855511 0.000000 0.234654
1.000000 0.000000 0.227668
1.000000 0.000000 0.220682
0.000000 0.094897 0.253070
0.094307 0.089907 0.246084
0.243190 0.084917 0.239097
0.392074 0.079926 0.232111
0.540957 0.074936 0.225125
0.689841 0.069946 0.218138
0.838724 0.064956 0.211152
0.987607 0.059966 0.205439
1.000000 0.054975 0.200449
0.000000 0.231983 0.229567
0.077519 0.226993 0.222581
0.226403 0.222003 0.215595
0.375286 0.217013 0.208613
0.524170 0.212022 0.203622
0.673053 0.207032 0.198632
0.821937 0.202042 0.193642
0.970820 0.197052 0.188652
1.000000 0.192062 0.183662
0.000000 0.369070 0.206796
0.060732 0.364079 0.201806
0.209615 0.359089 0.196815
0.358499 0.354099 0.191825
0.507382 0.349109 0.186835
0.656266 0.344119 0.181845
0.805149 0.339128 0.176855
0.954033 0.334138 0.171864
1.000000 0.329148 0.166874
0.000000 0.506156 0.190009
0.043945 0.501166 0.185018
0.192828 0.496175 0.180028
0.341712 0.491185 0.175038
0.490595 0.486195 0.170048
0.639478 0.481205 0.165057
0.788362 0.476215 0.160067
0.937245 0.471224 0.155077
1.000000 0.466234 0.150087
0.000000 0.643242 0.173221
0.027157 0.638252 0.168231
0.176041 0.633262 0.163241
0.324924 0.628272 0.158251
0.473808 0.623281 0.153260
0.622691 0.618291 0.148270
0.771575 0.613301 0.143280
0.920458 0.608311 0.138290
1.000000 0.603321 0.133300
0.000000 0.780328 0.156434
0.010370 0.775338 0.151444
0.159253 0.770348 0.146453
0.308137 0.765358 0.141463
0.457020 0.760368 0.136473
0.605904 0.755377 0.131483
0.754787 0.750387 0.126493
0.903671 0.745397 0.121502
1.000000 0.740876 0.116512
0.000000 0.917415 0.139646
0.000000 0.912425 0.134656
0.142466 0.907434 0.129666
0.291349 0.902444 0.124676
0.440233 0.897454 0.119686
0.589116 0.893336 0.114695
0.738000 0.889455 0.109705
0.886883 0.885574 0.104715
1.000000 0.881693 0.099725
0.000000 1.000000 0.122859
0.000000 1.000000 0.117869
0.125679 1.000000 0.112879
0.274562 1.000000 0.107888
0.423446 1.000000 0.102898
0.572329 1.000000 0.097908
0.721213 1.000000 0.092918
0.870096 1.000000 0.087928
1.000000 1.000000 0.082937
0.000000 0.000000 0.428073
0.109399 0.000000 0.421087
0.258283 0.000000 0.414101
0.407166 0.000000 0.407114
0.556050 0.000000 0.400128
0.704933 0.000000 0.393142
0.853817 0.000000 0.386155
1.000000 0.000000 0.379169
1.000000 0.000000 0.372183
0.000000 0.093202 0.404571
0.092612 0.088212 0.397585
0.241495 0.083222 0.390598
0.390379 0.078232 0.383612
0.539262 0.073241 0.376626
0.688146 0.068251 0.369639
0.837029 0.063261 0.362653
0.985913 0.058271 0.357618
1.000000 0.053281 0.352628
0.000000 0.230289 0.381069
0.075825 0.225298 0.374082
0.224708 0.220308 0.367096
0.373592 0.215318 0.360792
0.522475 0.210328 0.355801
0.671358 0.205338 0.350811
0.820242 0.200347 0.345821
0.969125 0.195357 0.340831
1.000000 0.190367 0.335841
0.000000 0.367375 0.358975
0.059037 0.362385 0.353985
0.207921 0.357394 0.348994
0.356804 0.352404 0.344004
0.505688 0.347414 0.339014
0.654571 0.342424 0.334024
0.803455 0.337434 0.329034
0.952338 0.332443 0.324043
1.000000 0.327453 0.319053
0.000000 0.504461 0.342187
0.042250 0.499471 0.337197
0.191133 0.494481 0.332207
0.340017 0.489491 0.327217
0.488900 0.484500 0.322227
0.637784 0.479510 0.317236
0.786667 0.474520 0.312246
0.935551 0.469530 0.307256
1.000000 0.464540 0.302266
0.000000 0.641547 0.325400
0.025463 0.636557 0.320410
0.174346 0.631567 0.315420
0.323230 0.626577 0.310430
0.472113 0.621587 0.305439
0.620996 0.616596 0.300449
0.769880 0.611606 0.295459
0.918763 0.606616 0.290469
1.000000 0.601626 0.285478
0.000000 0.778634 0.308613
0.008675 0.773644 0.303623
0.157559 0.768653 0.298632
0.306442 0.763663 0.293642
0.455326 0.758673 0.288652
0.604209 0.753683 0.283662
0.753093 0.748693 0.278672
0.901976 0.743702 0.273681
1.000000 0.739558 0.268691
0.000000 0.915720 0.291825
0.000000 0.910730 0.286835
0.140771 0.905740 0.281845
0.289655 0.900749 0.276855
0.438538 0.895900 0.271865
0.587422 0.892018 0.266874
0.736305 0.888137 0.261884
0.885189 0.884256 0.256894
1.000000 0.880375 0.251904
0.000000 1.000000 0.275038
0.000000 1.000000 0.270048
0.123984 1.000000 0.265058
0.272867 1.000000 0.260067
0.421751 1.000000 0.255077
0.570634 1.000000 0.250087
0.719518 1.000000 0.245097
0.868401 1.000000 0.240107
1.000000 1.000000 0.235116
0.000000 0.000000 0.579574
0.107705 0.000000 0.572588
0.256588 0.000000 0.565602
0.405472 0.000000 0.558615
0.554355 0.000000 0.551629
0.703238 0.000000 0.544643
0.852122 0.000000 0.537657
1.000000 0.000000 0.530670
1.000000 0.000000 0.523684
0.000000 0.091508 0.556072
0.090917 0.086517 0.549086
0.239801 0.081527 0.542099
0.388684 0.076537 0.535113
0.537568 0.071547 0.528127
0.686451 0.066557 0.521141
0.835335 0.061566 0.514787
0.984218 0.056576 0.509797
1.000000 0.051586 0.504807
0.000000 0.228594 0.532570
0.074130 0.223604 0.525583
0.223013 0.218613 0.518597
0.371897 0.213623 0.512971
0.520780 0.208633 0.507980
0.669664 0.203643 0.502990
0.818547 0.198653 0.498000
0.967431 0.193662 0.493010
1.000000 0.188672 0.488020
0.000000 0.365680 0.511154
0.057343 0.360690 0.506164
0.206226 0.355700 0.501173
0.355110 0.350710 0.496183
0.503993 0.345719 0.491193
0.652876 0.340729 0.486203
0.801760 0.335739 0.481213
0.950643 0.330749 0.476222
1.000000 0.325759 0.471232
0.000000 0.502766 0.494366
0.040555 0.497776 0.489376
0.189439 0.492786 0.484386
0.338322 0.487796 0.479396
0.487206 0.482806 0.474406
0.636089 0.477815 0.469415
0.784973 0.472825 0.464425
0.933856 0.467835 0.459435
1.000000 0.462845 0.454445
0.000000 0.639853 0.477579
0.023768 0.634863 0.472589
0.172651 0.629872 0.467599
0.321535 0.624882 0.462608
0.470418 0.619892 0.457618
0.619302 0.614902 0.452628
0.768185 0.609912 0.447638
0.917069 0.604921 0.442648
1.000000 0.599931 0.437657
0.000000 0.776939 0.460792
0.006981 0.771949 0.455802
0.155864 0.766959 0.450811
0.304747 0.761968 0.445821
0.453631 0.756978 0.440831
0.602514 0.751988 0.435841
0.751398 0.746998 0.430851
0.900281 0.742121 0.425860
1.000000 0.738240 0.420870
0.000000 0.914025 0.444004
0.000000 0.909035 0.439014
0.139077 0.904045 0.434024
0.287960 0.899055 0.429034
0.436844 0.894581 0.424044
0.585727 0.890700 0.419053
0.734610 0.886819 0.414063
0.883494 0.882938 0.409073
1.000000 0.879056 0.404083
0.000000 1.000000 0.427217
0.000000 1.000000 0.422227
0.122289 1.000000 0.417237
0.271173 1.000000 0.412246
0.420056 1.000000 0.407256
0.568940 1.000000 0.402266
0.717823 1.000000 0.397276
0.866707 1.000000 0.392286
1.000000 1.000000 0.387295
0.000000 0.000000 0.731075
0.106010 0.000000 0.724089
0.254893 0.000000 0.717103
0.403777 0.000000 0.710116
0.552660 0.000000 0.703130
0.701544 0.000000 0.696144
0.850427 0.000000 0.689158
0.999311 0.000000 0.682171
1.000000 0.000000 0.675185
0.000000 0.089813 0.707573
0.089223 0.084823 0.700587
0.238106 0.079832 0.693600
0.386990 0.074842 0.686614
0.535873 0.069852 0.679628
0.684756 0.064862 0.672642
0.833640 0.059872 0.666966
0.982523 0.054881 0.661976
1.000000 0.049891 0.656986
0.000000 0.226899 0.684071
0.072435 0.221909 0.677084
0.221319 0.216919 0.670140
0.370202 0.211929 0.665149
0.519086 0.206938 0.660159
0.667969 0.201948 0.655169
0.816853 0.196958 0.650179
0.965736 0.191968 0.645189
1.000000 0.186978 0.640198
0.000000 0.363985 0.663333
0.055648 0.358995 0.658343
0.204531 0.354005 0.653352
0.353415 0.349015 0.648362
0.502298 0.344025 0.643372
0.651182 0.339034 0.638382
0.800065 0.334044 0.633392
0.948949 0.329054 0.628401
1.000000 0.324064 0.623411
0.000000 0.501072 0.646545
0.038861 0.496082 0.641555
0.187744 0.491091 0.636565
0.336627 0.486101 0.631575
0.485511 0.481111 0.626585
0.634394 0.476121 0.621594
0.783278 0.471131 0.616604
0.932161 0.466140 0.611614
1.000000 0.461150 0.606624
0.000000 0.638158 0.629758
0.022073 0.633168 0.624768
0.170957 0.628178 0.619778
0.319840 0.623187 0.614787
0.468724 0.618197 0.609797
0.617607 0.613207 0.604807
0.766490 0.608217 0.599817
0.915374 0.603227 0.594827
1.000000 0.598236 0.589836
0.000000 0.775244 0.612971
0.005286 0.770254 0.607980
0.154169 0.765264 0.602990
0.303053 0.760274 0.598000
0.451936 0.755284 0.593010
0.600820 0.750293 0.588020
0.749703 0.745303 0.583029
0.898587 0.740803 0.578039
1.000000 0.736921 0.573049
0.000000 0.912331 0.596183
0.000000 0.907340 0.591193
0.137382 0.902350 0.586203
0.286265 0.897360 0.581213
0.435149 0.893263 0.576223
0.584032 0.889382 0.571232
0.732916 0.885501 0.566242
0.881799 0.881620 0.561252
1.000000 0.877738 0.556262
0.000000 1.000000 0.579396
0.000000 1.000000 0.574406
0.120595 1.000000 0.569416
0.269478 1.000000 0.564425
0.418362 1.000000 0.559435
0.567245 1.000000 0.554445
0.716128 1.000000 0.549455
0.865012 1.000000 0.544465
1.000000 1.000000 0.539474
0.000000 0.000000 0.882576
0.104315 0.000000 0.875590
0.253199 0.000000 0.868604
0.402082 0.000000 0.861618
0.550966 0.000000 0.854631
0.699849 0.000000 0.847645
0.848733 0.000000 0.840659
0.997616 0.000000 0.833672
1.000000 0.000000 0.826686
0.000000 0.088118 0.859074
0.087528 0.083128 0.852088
0.236411 0.078138 0.845102
0.385295 0.073148 0.838115
0.534178 0.068157 0.831129
0.683062 0.063167 0.824143
0.831945 0.058177 0.819145
0.980829 0.053187 0.814155
1.000000 0.048197 0.809165
0.000000 0.225204 0.835572
0.070741 0.220214 0.828586
0.219624 0.215224 0.822319
0.368507 0.210234 0.817328
0.517391 0.205244 0.812338
0.666274 0.200253 0.807348
0.815158 0.195263 0.802358
0.964041 0.190273 0.797368
1.000000 0.185283 0.792377
0.000000 0.362291 0.815512
0.053953 0.357301 0.810521
0.202837 0.352310 0.805531
0.351720 0.347320 0.800541
0.500604 0.342330 0.795551
0.649487 0.337340 0.790561
0.798370 0.332350 0.785570
0.947254 0.327359 0.780580
1.000000 0.322369 0.775590
0.000000 0.499377 0.798724
0.037166 0.494387 0.793734
0.186049 0.489397 0.788744
0.334933 0.484406 0.783754
0.483816 0.479416 0.778764
0.632700 0.474426 0.773773
0.781583 0.469436 0.768783
0.930467 0.464446 0.763793
1.000000 0.459455 0.758803
0.000000 0.636463 0.781937
0.020379 0.631473 0.776947
0.169262 0.626483 0.771957
0.318145 0.621493 0.766966
0.467029 0.616503 0.761976
0.615912 0.611512 0.756986
0.764796 0.606522 0.751996
0.913679 0.601532 0.747006
1.000000 0.596542 0.742015
0.000000 0.773550 0.765150
0.003591 0.768559 0.760159
0.152475 0.763569 0.755169
0.301358 0.758579 0.750179
0.450242 0.753589 0.745189
0.599125 0.748599 0.740199
0.748008 0.743608 0.735208
0.896892 0.739485 0.730218
1.000000 0.735603 0.725228
0.000000 0.910636 0.748362
0.000000 0.905646 0.743372
0.135687 0.900656 0.738382
0.284571 0.895827 0.733392
0.433454 0.891945 0.728401
0.582338 0.888064 0.723411
0.731221 0.884183 0.718421
0.880105 0.880301 0.713431
1.000000 0.876420 0.708441
0.000000 1.000000 0.731575
0.000000 1.000000 0.726585
0.118900 1.000000 0.721595
0.267783 1.000000 0.716604
0.416667 1.000000 0.711614
0.565550 1.000000 0.706624
0.714434 1.000000 0.701634
0.863317 1.000000 0.696644
1.000000 1.000000 0.691653
0.000000 0.000000 1.000000
0.102621 0.000000 1.000000
0.251504 0.000000 1.000000
0.400387 0.000000 1.000000
0.549271 0.000000 1.000000
0.698154 0.000000 0.999146
0.847038 0.000000 0.992160
0.995921 0.000000 0.985174
1.000000 0.000000 0.978187
0.000000 0.086423 1.000000
0.085833 0.081433 1.000000
0.234717 0.076443 0.996603
0.383600 0.071453 0.989616
0.532484 0.066463 0.982630
0.681367 0.061472 0.976314
0.830251 0.056482 0.971324
0.979134 0.051492 0.966334
1.000000 0.046502 0.961344
0.000000 0.223510 0.987073
0.069046 0.218520 0.980087
0.217929 0.213529 0.974498
0.366813 0.208539 0.969507
0.515696 0.203549 0.964517
0.664580 0.198559 0.959527
0.813463 0.193569 0.954537
0.962347 0.188578 0.949547
1.000000 0.183588 0.944556
0.000000 0.360596 0.967691
0.052259 0.355606 0.962700
0.201142 0.350616 0.957710
0.350025 0.345625 0.952720
0.498909 0.340635 0.947730
0.647792 0.335645 0.942740
0.796676 0.330655 0.937749
0.945559 0.325665 0.932759
1.000000 0.320674 0.927769
0.000000 0.497682 0.950903
0.035471 0.492692 0.945913
0.184355 0.487702 0.940923
0.333238 0.482712 0.935933
0.482122 0.477722 0.930942
0.631005 0.472731 0.925952
0.779888 0.467741 0.920962
0.928772 0.462751 0.915972
1.000000 0.457761 0.910982
0.000000 0.634769 0.934116
0.018684 0.629778 0.929126
0.167567 0.624788 0.924136
0.316451 0.619798 0.919145
0.465334 0.614808 0.914155
0.614218 0.609818 0.909165
0.763101 0.604827 0.904175
0.911985 0.599837 0.899185
1.000000 0.594847 0.894194
0.000000 0.771855 0.917329
0.001896 0.766865 0.912338
0.150780 0.761875 0.907348
0.299663 0.756884 0.902358
0.448547 0.751894 0.897368
0.597430 0.746904 0.892378
0.746314 0.742048 0.887387
0.895197 0.738167 0.882397
1.000000 0.734285 0.877407
0.000000 0.908941 0.900541
0.000000 0.903951 0.895551
0.133993 0.898961 0.890561
0.282876 0.894508 0.885571
0.431759 0.890627 0.880580
0.580643 0.886746 0.875590
0.729526 0.882865 0.870600
0.878410 0.878983 0.865610
1.000000 0.875102 0.860620
0.000000 1.000000 0.883754
0.000000 1.000000 0.878764
0.117205 1.000000 0.873773
0.266089 1.000000 0.868783
0.414972 1.000000 0.863793
0.563856 1.000000 0.858803
0.712739 1.000000 0.853813
0.861622 1.000000 0.848822
1.000000 1.000000 0.843832
0.000000 0.000000 1.000000
0.100926 0.000000 1.000000
0.249809 0.000000 1.000000
0.398693 0.000000 1.000000
0.547576 0.000000 1.000000
0.696460 0.000000 1.000000
0.845343 0.000000 1.000000
0.994227 0.000000 1.000000
1.000000 0.000000 1.000000
0.000000 0.084729 1.000000
0.084139 0.079739 1.000000
0.233022 0.074748 1.000000
0.381905 0.069758 1.000000
0.530789 0.064768 1.000000
0.679672 0.059778 1.000000
0.828556 0.054788 1.000000
0.977439 0.049797 1.000000
1.000000 0.044807 1.000000
0.000000 0.221815 1.000000
0.067351 0.216825 1.000000
0.216235 0.211835 1.000000
0.365118 0.206844 1.000000
0.514002 0.201854 1.000000
0.662885 0.196864 1.000000
0.811768 0.191874 1.000000
0.960652 0.186884 1.000000
1.000000 0.181893 1.000000
0.000000 0.358901 1.000000
0.050564 0.353911 1.000000
0.199447 0.348921 1.000000
0.348331 0.343931 1.000000
0.497214 0.338941 1.000000
0.646098 0.333950 1.000000
0.794981 0.328960 1.000000
0.943865 0.323970 1.000000
1.000000 0.318980 1.000000
0.000000 0.495988 1.000000
0.033776 0.490997 1.000000
0.182660 0.486007 1.000000
0.331543 0.481017 1.000000
0.480427 0.476027 1.000000
0.629310 0.471037 1.000000
0.778194 0.466046 1.000000
0.927077 0.461056 1.000000
1.000000 0.456066 1.000000
0.000000 0.633074 1.000000
0.016989 0.628084 1.000000
0.165873 0.623094 1.000000
0.314756 0.618103 1.000000
0.463639 0.613113 1.000000
0.612523 0.608123 1.000000
0.761406 0.603133 1.000000
0.910290 0.598143 1.000000
1.000000 0.593152 1.000000
0.000000 0.770160 1.000000
0.000202 0.765170 1.000000
0.149085 0.760180 1.000000
0.297969 0.755190 1.000000
0.446852 0.750199 1.000000
0.595736 0.745209 1.000000
0.744619 0.740730 1.000000
0.893502 0.736848 1.000000
1.000000 0.732967 1.000000
0.000000 0.907247 1.000000
0.000000 0.902256 1.000000
0.132298 0.897266 1.000000
0.281181 0.893190 1.000000
0.430065 0.889309 1.000000
0.578948 0.885428 1.000000
0.727832 0.881547 1.000000
0.876715 0.877665 1.000000
1.000000 0.873784 1.000000
0.000000 1.000000 1.000000
0.000000 1.000000 1.000000
0.115510 1.000000 1.000000
0.264394 1.000000 1.000000
0.413277 1.000000 1.000000
0.562161 1.000000 1.000000
0.711044 1.000000 1.000000
0.859928 1.000000 1.000000
1.000000 1.000000 0.996011
