fexer/Resources/LUTs/macro_soft.cube
TITLE "Macro"
LUT_3D_SIZE 5
DOMAIN_MIN 0.0 0.0 0.0
DOMAIN_MAX 1.0 1.0 1.0
0.105000 0.097300 0.082600
0.313318 0.100089 0.085389
0.521636 0.102878 0.088178
0.729954 0.105667 0.090967
0.938273 0.108456 0.093756
0.114383 0.312212 0.091983
0.322701 0.315001 0.094772
0.531019 0.317790 0.097561
0.739337 0.320579 0.100350
0.947655 0.323368 0.103139
0.123765 0.527123 0.101365
0.332083 0.529912 0.104154
0.540402 0.532702 0.106943
0.748720 0.535491 0.109732
0.957038 0.538280 0.112522
0.133148 0.742035 0.110748
0.341466 0.744824 0.113537
0.549784 0.747613 0.116326
0.758102 0.750402 0.119115
0.966420 0.753191 0.121904
0.142530 0.956947 0.120130
0.350849 0.959736 0.122920
0.559167 0.962525 0.125709
0.767485 0.965314 0.128498
0.975803 0.968103 0.131287
0.105947 0.098247 0.289076
0.314265 0.101036 0.291865
0.522583 0.103825 0.294654
0.730902 0.106614 0.297443
0.939220 0.109403 0.300233
0.115330 0.313159 0.298459
0.323648 0.315948 0.301248
0.531966 0.318737 0.304037
0.740284 0.321526 0.306826
0.948602 0.324315 0.309615
0.124712 0.528071 0.307841
0.333031 0.530860 0.310631
0.541349 0.533649 0.313420
0.749667 0.536438 0.316209
0.957985 0.539227 0.318998
0.134095 0.742982 0.317224
0.342413 0.745771 0.320013
0.550731 0.748560 0.322802
0.759049 0.751349 0.325591
0.967368 0.754139 0.328380
0.143478 0.957894 0.326607
0.351796 0.960683 0.329396
0.560114 0.963472 0.332185
0.768432 0.966261 0.334974
0.976750 0.969050 0.337763
0.106894 0.099194 0.495553
0.315213 0.101983 0.498342
0.523531 0.104773 0.501131
0.731849 0.107562 0.503920
0.940167 0.110351 0.506709
0.116277 0.314106 0.504935
0.324595 0.316895 0.507724
0.532913 0.319684 0.510513
0.741231 0.322473 0.513302
0.949550 0.325262 0.516091
0.125660 0.529018 0.514318
0.333978 0.531807 0.517107
0.542296 0.534596 0.519896
0.750614 0.537385 0.522685
0.958932 0.540174 0.525474
0.135042 0.743929 0.523700
0.343360 0.746719 0.526489
0.551679 0.749508 0.529279
0.759997 0.752297 0.532068
0.968315 0.755086 0.534857
0.144425 0.958841 0.533083
0.352743 0.961630 0.535872
0.561061 0.964419 0.538661
0.769379 0.967208 0.541450
0.977697 0.969997 0.544239
0.107842 0.100142 0.702029
0.316160 0.102931 0.704818
0.524478 0.105720 0.707607
0.732796 0.108509 0.710396
0.941114 0.111298 0.713185
0.117224 0.315053 0.711411
0.325542 0.317842 0.714200
0.533860 0.320631 0.716990
0.742179 0.323420 0.719779
0.950497 0.326210 0.722568
0.126607 0.529965 0.720794
0.334925 0.532754 0.723583
0.543243 0.535543 0.726372
0.751561 0.538332 0.729161
0.959879 0.541121 0.731950
0.135989 0.744877 0.730177
0.344308 0.747666 0.732966
0.552626 0.750455 0.735755
0.760944 0.753244 0.738544
0.969262 0.756033 0.741333
0.145372 0.959788 0.739559
0.353690 0.962577 0.742348
0.562008 0.965366 0.745137
0.770326 0.968156 0.747926
0.978645 0.970945 0.750716
0.108789 0.101089 0.908505
0.317107 0.103878 0.911294
0.525425 0.106667 0.914083
0.733743 0.109456 0.916872
0.942061 0.112245 0.919661
0.118171 0.316000 0.917888
0.326490 0.318790 0.920677
0.534808 0.321579 0.923466
0.743126 0.324368 0.926255
0.951444 0.327157 0.929044
0.127554 0.530912 0.927270
0.335872 0.533701 0.930059
0.544190 0.536490 0.932848
0.752508 0.539279 0.935637
0.960827 0.542068 0.938427
0.136937 0.745824 0.936653
0.345255 0.748613 0.939442
0.553573 0.751402 0.942231
0.761891 0.754191 0.945020
0.970209 0.756980 0.947809
0.146319 0.960736 0.946036
0.354637 0.963525 0.948825
0.562956 0.966314 0.951614
0.771274 0.969103 0.954403
0.979592 0.971892 0.957192
