fexer/Resources/LUTs/macro_soft.cube
TITLE "Macro"
LUT_3D_SIZE 33
DOMAIN_MIN 0.0 0.0 0.0
DOMAIN_MAX 1.0 1.0 1.0
0.105000 0.097300 0.082600
0.131040 0.097649 0.082949
0.157080 0.097997 0.083297
0.183119 0.098346 0.083646
0.209159 0.098695 0.083995
0.235199 0.099043 0.084343
0.261239 0.099392 0.084692
0.287278 0.099740 0.085040
0.313318 0.100089 0.085389
0.339358 0.100438 0.085738
0.365398 0.100786 0.086086
0.391437 0.101135 0.086435
0.417477 0.101484 0.086784
0.443517 0.101832 0.087132
0.469557 0.102181 0.087481
0.495597 0.102530 0.087830
0.521636 0.102878 0.088178
0.547676 0.103227 0.088527
0.573716 0.103575 0.088875
0.599756 0.103924 0.089224
0.625795 0.104273 0.089573
0.651835 0.104621 0.089921
0.677875 0.104970 0.090270
0.703915 0.105319 0.090619
0.729954 0.105667 0.090967
0.755994 0.106016 0.091316
0.782034 0.106364 0.091664
0.808074 0.106713 0.092013
0.834114 0.107062 0.092362
0.860153 0.107410 0.092710
0.886193 0.107759 0.093059
0.912233 0.108108 0.093408
0.938273 0.108456 0.093756
0.106173 0.124164 0.083773
0.132213 0.124513 0.084121
0.158252 0.124861 0.084470
0.184292 0.125210 0.084819
0.210332 0.125558 0.085167
0.236372 0.125907 0.085516
0.262411 0.126256 0.085865
0.288451 0.126604 0.086213
0.314491 0.126953 0.086562
0.340531 0.127302 0.086911
0.366571 0.127650 0.087259
0.392610 0.127999 0.087608
0.418650 0.128348 0.087956
0.444690 0.128696 0.088305
0.470730 0.129045 0.088654
0.496769 0.129393 0.089002
0.522809 0.129742 0.089351
0.548849 0.130091 0.089700
0.574889 0.130439 0.090048
0.600928 0.130788 0.090397
0.626968 0.131137 0.090746
0.653008 0.131485 0.091094
0.679048 0.131834 0.091443
0.705088 0.132183 0.091791
0.731127 0.132531 0.092140
0.757167 0.132880 0.092489
0.783207 0.133228 0.092837
0.809247 0.133577 0.093186
0.835286 0.133926 0.093535
0.861326 0.134274 0.093883
0.887366 0.134623 0.094232
0.913406 0.134972 0.094580
0.939445 0.135320 0.094929
0.107346 0.151028 0.084946
0.133385 0.151377 0.085294
0.159425 0.151725 0.085643
0.185465 0.152074 0.085992
0.211505 0.152422 0.086340
0.237544 0.152771 0.086689
0.263584 0.153120 0.087037
0.289624 0.153468 0.087386
0.315664 0.153817 0.087735
0.341704 0.154166 0.088083
0.367743 0.154514 0.088432
0.393783 0.154863 0.088781
0.419823 0.155212 0.089129
0.445863 0.155560 0.089478
0.471902 0.155909 0.089827
0.497942 0.156257 0.090175
0.523982 0.156606 0.090524
0.550022 0.156955 0.090872
0.576061 0.157303 0.091221
0.602101 0.157652 0.091570
0.628141 0.158001 0.091918
0.654181 0.158349 0.092267
0.680221 0.158698 0.092616
0.706260 0.159047 0.092964
0.732300 0.159395 0.093313
0.758340 0.159744 0.093662
0.784380 0.160092 0.094010
0.810419 0.160441 0.094359
0.836459 0.160790 0.094707
0.862499 0.161138 0.095056
0.888539 0.161487 0.095405
0.914578 0.161836 0.095753
0.940618 0.162184 0.096102
0.108518 0.177892 0.086118
0.134558 0.178241 0.086467
0.160598 0.178589 0.086816
0.186638 0.178938 0.087164
0.212678 0.179286 0.087513
0.238717 0.179635 0.087862
0.264757 0.179984 0.088210
0.290797 0.180332 0.088559
0.316837 0.180681 0.088908
0.342876 0.181030 0.089256
0.368916 0.181378 0.089605
0.394956 0.181727 0.089953
0.420996 0.182075 0.090302
0.447035 0.182424 0.090651
0.473075 0.182773 0.090999
0.499115 0.183121 0.091348
0.525155 0.183470 0.091697
0.551195 0.183819 0.092045
0.577234 0.184167 0.092394
0.603274 0.184516 0.092743
0.629314 0.184865 0.093091
0.655354 0.185213 0.093440
0.681393 0.185562 0.093788
0.707433 0.185910 0.094137
0.733473 0.186259 0.094486
0.759513 0.186608 0.094834
0.785552 0.186956 0.095183
0.811592 0.187305 0.095532
0.837632 0.187654 0.095880
0.863672 0.188002 0.096229
0.889712 0.188351 0.096578
0.915751 0.188700 0.096926
0.941791 0.189048 0.097275
0.109691 0.204756 0.087291
0.135731 0.205104 0.087640
0.161771 0.205453 0.087989
0.187811 0.205802 0.088337
0.213850 0.206150 0.088686
0.239890 0.206499 0.089034
0.265930 0.206848 0.089383
0.291970 0.207196 0.089732
0.318009 0.207545 0.090080
0.344049 0.207894 0.090429
0.370089 0.208242 0.090778
0.396129 0.208591 0.091126
0.422169 0.208939 0.091475
0.448208 0.209288 0.091824
0.474248 0.209637 0.092172
0.500288 0.209985 0.092521
0.526328 0.210334 0.092869
0.552367 0.210683 0.093218
0.578407 0.211031 0.093567
0.604447 0.211380 0.093915
0.630487 0.211729 0.094264
0.656526 0.212077 0.094613
0.682566 0.212426 0.094961
0.708606 0.212774 0.095310
0.734646 0.213123 0.095659
0.760686 0.213472 0.096007
0.786725 0.213820 0.096356
0.812765 0.214169 0.096704
0.838805 0.214518 0.097053
0.864845 0.214866 0.097402
0.890884 0.215215 0.097750
0.916924 0.215564 0.098099
0.942964 0.215912 0.098448
0.110864 0.231620 0.088464
0.136904 0.231968 0.088813
0.162944 0.232317 0.089161
0.188983 0.232666 0.089510
0.215023 0.233014 0.089859
0.241063 0.233363 0.090207
0.267103 0.233712 0.090556
0.293143 0.234060 0.090905
0.319182 0.234409 0.091253
0.345222 0.234758 0.091602
0.371262 0.235106 0.091950
0.397302 0.235455 0.092299
0.423341 0.235803 0.092648
0.449381 0.236152 0.092996
0.475421 0.236501 0.093345
0.501461 0.236849 0.093694
0.527500 0.237198 0.094042
0.553540 0.237547 0.094391
0.579580 0.237895 0.094740
0.605620 0.238244 0.095088
0.631660 0.238592 0.095437
0.657699 0.238941 0.095785
0.683739 0.239290 0.096134
0.709779 0.239638 0.096483
0.735819 0.239987 0.096831
0.761858 0.240336 0.097180
0.787898 0.240684 0.097529
0.813938 0.241033 0.097877
0.839978 0.241382 0.098226
0.866017 0.241730 0.098575
0.892057 0.242079 0.098923
0.918097 0.242427 0.099272
0.944137 0.242776 0.099620
0.112037 0.258484 0.089637
0.138077 0.258832 0.089986
0.164117 0.259181 0.090334
0.190156 0.259530 0.090683
0.216196 0.259878 0.091032
0.242236 0.260227 0.091380
0.268276 0.260576 0.091729
0.294315 0.260924 0.092077
0.320355 0.261273 0.092426
0.346395 0.261621 0.092775
0.372435 0.261970 0.093123
0.398474 0.262319 0.093472
0.424514 0.262667 0.093821
0.450554 0.263016 0.094169
0.476594 0.263365 0.094518
0.502633 0.263713 0.094866
0.528673 0.264062 0.095215
0.554713 0.264411 0.095564
0.580753 0.264759 0.095912
0.606793 0.265108 0.096261
0.632832 0.265456 0.096610
0.658872 0.265805 0.096958
0.684912 0.266154 0.097307
0.710952 0.266502 0.097656
0.736991 0.266851 0.098004
0.763031 0.267200 0.098353
0.789071 0.267548 0.098701
0.815111 0.267897 0.099050
0.841150 0.268246 0.099399
0.867190 0.268594 0.099747
0.893230 0.268943 0.100096
0.919270 0.269291 0.100445
0.945310 0.269640 0.100793
0.113210 0.285348 0.090810
0.139250 0.285696 0.091158
0.165289 0.286045 0.091507
0.191329 0.286394 0.091856
0.217369 0.286742 0.092204
0.243409 0.287091 0.092553
0.269448 0.287440 0.092902
0.295488 0.287788 0.093250
0.321528 0.288137 0.093599
0.347568 0.288485 0.093948
0.373607 0.288834 0.094296
0.399647 0.289183 0.094645
0.425687 0.289531 0.094993
0.451727 0.289880 0.095342
0.477767 0.290229 0.095691
0.503806 0.290577 0.096039
0.529846 0.290926 0.096388
0.555886 0.291275 0.096737
0.581926 0.291623 0.097085
0.607965 0.291972 0.097434
0.634005 0.292320 0.097782
0.660045 0.292669 0.098131
0.686085 0.293018 0.098480
0.712124 0.293366 0.098828
0.738164 0.293715 0.099177
0.764204 0.294064 0.099526
0.790244 0.294412 0.099874
0.816284 0.294761 0.100223
0.842323 0.295109 0.100572
0.868363 0.295458 0.100920
0.894403 0.295807 0.101269
0.920443 0.296155 0.101617
0.946482 0.296504 0.101966
0.114383 0.312212 0.091983
0.140422 0.312560 0.092331
0.166462 0.312909 0.092680
0.192502 0.313258 0.093029
0.218542 0.313606 0.093377
0.244581 0.313955 0.093726
0.270621 0.314304 0.094074
0.296661 0.314652 0.094423
0.322701 0.315001 0.094772
0.348741 0.315349 0.095120
0.374780 0.315698 0.095469
0.400820 0.316047 0.095818
0.426860 0.316395 0.096166
0.452900 0.316744 0.096515
0.478939 0.317093 0.096863
0.504979 0.317441 0.097212
0.531019 0.317790 0.097561
0.557059 0.318138 0.097909
0.583098 0.318487 0.098258
0.609138 0.318836 0.098607
0.635178 0.319184 0.098955
0.661218 0.319533 0.099304
0.687258 0.319882 0.099653
0.713297 0.320230 0.100001
0.739337 0.320579 0.100350
0.765377 0.320928 0.100698
0.791417 0.321276 0.101047
0.817456 0.321625 0.101396
0.843496 0.321973 0.101744
0.869536 0.322322 0.102093
0.895576 0.322671 0.102442
0.921615 0.323019 0.102790
0.947655 0.323368 0.103139
0.115555 0.339076 0.093155
0.141595 0.339424 0.093504
0.167635 0.339773 0.093853
0.193675 0.340122 0.094201
0.219715 0.340470 0.094550
0.245754 0.340819 0.094899
0.271794 0.341167 0.095247
0.297834 0.341516 0.095596
0.323874 0.341865 0.095945
0.349913 0.342213 0.096293
0.375953 0.342562 0.096642
0.401993 0.342911 0.096990
0.428033 0.343259 0.097339
0.454072 0.343608 0.097688
0.480112 0.343957 0.098036
0.506152 0.344305 0.098385
0.532192 0.344654 0.098734
0.558232 0.345002 0.099082
0.584271 0.345351 0.099431
0.610311 0.345700 0.099779
0.636351 0.346048 0.100128
0.662391 0.346397 0.100477
0.688430 0.346746 0.100825
0.714470 0.347094 0.101174
0.740510 0.347443 0.101523
0.766550 0.347792 0.101871
0.792589 0.348140 0.102220
0.818629 0.348489 0.102569
0.844669 0.348837 0.102917
0.870709 0.349186 0.103266
0.896749 0.349535 0.103614
0.922788 0.349883 0.103963
0.948828 0.350232 0.104312
0.116728 0.365940 0.094328
0.142768 0.366288 0.094677
0.168808 0.366637 0.095026
0.194848 0.366986 0.095374
0.220887 0.367334 0.095723
0.246927 0.367683 0.096071
0.272967 0.368031 0.096420
0.299007 0.368380 0.096769
0.325046 0.368729 0.097117
0.351086 0.369077 0.097466
0.377126 0.369426 0.097815
0.403166 0.369775 0.098163
0.429205 0.370123 0.098512
0.455245 0.370472 0.098861
0.481285 0.370820 0.099209
0.507325 0.371169 0.099558
0.533365 0.371518 0.099906
0.559404 0.371866 0.100255
0.585444 0.372215 0.100604
0.611484 0.372564 0.100952
0.637524 0.372912 0.101301
0.663563 0.373261 0.101650
0.689603 0.373610 0.101998
0.715643 0.373958 0.102347
0.741683 0.374307 0.102695
0.767722 0.374655 0.103044
0.793762 0.375004 0.103393
0.819802 0.375353 0.103741
0.845842 0.375701 0.104090
0.871882 0.376050 0.104439
0.897921 0.376399 0.104787
0.923961 0.376747 0.105136
0.950001 0.377096 0.105485
0.117901 0.392804 0.095501
0.143941 0.393152 0.095850
0.169981 0.393501 0.096198
0.196020 0.393849 0.096547
0.222060 0.394198 0.096896
0.248100 0.394547 0.097244
0.274140 0.394895 0.097593
0.300179 0.395244 0.097942
0.326219 0.395593 0.098290
0.352259 0.395941 0.098639
0.378299 0.396290 0.098987
0.404339 0.396639 0.099336
0.430378 0.396987 0.099685
0.456418 0.397336 0.100033
0.482458 0.397684 0.100382
0.508498 0.398033 0.100731
0.534537 0.398382 0.101079
0.560577 0.398730 0.101428
0.586617 0.399079 0.101777
0.612657 0.399428 0.102125
0.638696 0.399776 0.102474
0.664736 0.400125 0.102822
0.690776 0.400474 0.103171
0.716816 0.400822 0.103520
0.742856 0.401171 0.103868
0.768895 0.401519 0.104217
0.794935 0.401868 0.104566
0.820975 0.402217 0.104914
0.847015 0.402565 0.105263
0.873054 0.402914 0.105611
0.899094 0.403263 0.105960
0.925134 0.403611 0.106309
0.951174 0.403960 0.106657
0.119074 0.419668 0.096674
0.145114 0.420016 0.097023
0.171153 0.420365 0.097371
0.197193 0.420713 0.097720
0.223233 0.421062 0.098068
0.249273 0.421411 0.098417
0.275313 0.421759 0.098766
0.301352 0.422108 0.099114
0.327392 0.422457 0.099463
0.353432 0.422805 0.099812
0.379472 0.423154 0.100160
0.405511 0.423503 0.100509
0.431551 0.423851 0.100858
0.457591 0.424200 0.101206
0.483631 0.424548 0.101555
0.509670 0.424897 0.101903
0.535710 0.425246 0.102252
0.561750 0.425594 0.102601
0.587790 0.425943 0.102949
0.613830 0.426292 0.103298
0.639869 0.426640 0.103647
0.665909 0.426989 0.103995
0.691949 0.427337 0.104344
0.717989 0.427686 0.104693
0.744028 0.428035 0.105041
0.770068 0.428383 0.105390
0.796108 0.428732 0.105738
0.822148 0.429081 0.106087
0.848187 0.429429 0.106436
0.874227 0.429778 0.106784
0.900267 0.430127 0.107133
0.926307 0.430475 0.107482
0.952347 0.430824 0.107830
0.120247 0.446532 0.097847
0.146287 0.446880 0.098195
0.172326 0.447229 0.098544
0.198366 0.447577 0.098893
0.224406 0.447926 0.099241
0.250446 0.448275 0.099590
0.276485 0.448623 0.099939
0.302525 0.448972 0.100287
0.328565 0.449321 0.100636
0.354605 0.449669 0.100984
0.380644 0.450018 0.101333
0.406684 0.450366 0.101682
0.432724 0.450715 0.102030
0.458764 0.451064 0.102379
0.484804 0.451412 0.102728
0.510843 0.451761 0.103076
0.536883 0.452110 0.103425
0.562923 0.452458 0.103774
0.588963 0.452807 0.104122
0.615002 0.453156 0.104471
0.641042 0.453504 0.104819
0.667082 0.453853 0.105168
0.693122 0.454201 0.105517
0.719161 0.454550 0.105865
0.745201 0.454899 0.106214
0.771241 0.455247 0.106563
0.797281 0.455596 0.106911
0.823321 0.455945 0.107260
0.849360 0.456293 0.107609
0.875400 0.456642 0.107957
0.901440 0.456991 0.108306
0.927480 0.457339 0.108654
0.953519 0.457688 0.109003
0.121420 0.473395 0.099020
0.147459 0.473744 0.099368
0.173499 0.474093 0.099717
0.199539 0.474441 0.100065
0.225579 0.474790 0.100414
0.251618 0.475139 0.100763
0.277658 0.475487 0.101111
0.303698 0.475836 0.101460
0.329738 0.476185 0.101809
0.355778 0.476533 0.102157
0.381817 0.476882 0.102506
0.407857 0.477230 0.102855
0.433897 0.477579 0.103203
0.459937 0.477928 0.103552
0.485976 0.478276 0.103900
0.512016 0.478625 0.104249
0.538056 0.478974 0.104598
0.564096 0.479322 0.104946
0.590135 0.479671 0.105295
0.616175 0.480020 0.105644
0.642215 0.480368 0.105992
0.668255 0.480717 0.106341
0.694294 0.481065 0.106690
0.720334 0.481414 0.107038
0.746374 0.481763 0.107387
0.772414 0.482111 0.107735
0.798454 0.482460 0.108084
0.824493 0.482809 0.108433
0.850533 0.483157 0.108781
0.876573 0.483506 0.109130
0.902613 0.483854 0.109479
0.928652 0.484203 0.109827
0.954692 0.484552 0.110176
0.122592 0.500259 0.100192
0.148632 0.500608 0.100541
0.174672 0.500957 0.100890
0.200712 0.501305 0.101238
0.226751 0.501654 0.101587
0.252791 0.502003 0.101936
0.278831 0.502351 0.102284
0.304871 0.502700 0.102633
0.330911 0.503049 0.102981
0.356950 0.503397 0.103330
0.382990 0.503746 0.103679
0.409030 0.504094 0.104027
0.435070 0.504443 0.104376
0.461109 0.504792 0.104725
0.487149 0.505140 0.105073
0.513189 0.505489 0.105422
0.539229 0.505838 0.105771
0.565268 0.506186 0.106119
0.591308 0.506535 0.106468
0.617348 0.506883 0.106816
0.643388 0.507232 0.107165
0.669428 0.507581 0.107514
0.695467 0.507929 0.107862
0.721507 0.508278 0.108211
0.747547 0.508627 0.108560
0.773587 0.508975 0.108908
0.799626 0.509324 0.109257
0.825666 0.509673 0.109606
0.851706 0.510021 0.109954
0.877746 0.510370 0.110303
0.903785 0.510718 0.110651
0.929825 0.511067 0.111000
0.955865 0.511416 0.111349
0.123765 0.527123 0.101365
0.149805 0.527472 0.101714
0.175845 0.527821 0.102063
0.201885 0.528169 0.102411
0.227924 0.528518 0.102760
0.253964 0.528867 0.103108
0.280004 0.529215 0.103457
0.306044 0.529564 0.103806
0.332083 0.529912 0.104154
0.358123 0.530261 0.104503
0.384163 0.530610 0.104852
0.410203 0.530958 0.105200
0.436242 0.531307 0.105549
0.462282 0.531656 0.105897
0.488322 0.532004 0.106246
0.514362 0.532353 0.106595
0.540402 0.532702 0.106943
0.566441 0.533050 0.107292
0.592481 0.533399 0.107641
0.618521 0.533747 0.107989
0.644561 0.534096 0.108338
0.670600 0.534445 0.108687
0.696640 0.534793 0.109035
0.722680 0.535142 0.109384
0.748720 0.535491 0.109732
0.774759 0.535839 0.110081
0.800799 0.536188 0.110430
0.826839 0.536537 0.110778
0.852879 0.536885 0.111127
0.878919 0.537234 0.111476
0.904958 0.537582 0.111824
0.930998 0.537931 0.112173
0.957038 0.538280 0.112522
0.124938 0.553987 0.102538
0.150978 0.554336 0.102887
0.177018 0.554685 0.103235
0.203057 0.555033 0.103584
0.229097 0.555382 0.103933
0.255137 0.555731 0.104281
0.281177 0.556079 0.104630
0.307216 0.556428 0.104979
0.333256 0.556776 0.105327
0.359296 0.557125 0.105676
0.385336 0.557474 0.106024
0.411376 0.557822 0.106373
0.437415 0.558171 0.106722
0.463455 0.558520 0.107070
0.489495 0.558868 0.107419
0.515535 0.559217 0.107768
0.541574 0.559565 0.108116
0.567614 0.559914 0.108465
0.593654 0.560263 0.108813
0.619694 0.560611 0.109162
0.645733 0.560960 0.109511
0.671773 0.561309 0.109859
0.697813 0.561657 0.110208
0.723853 0.562006 0.110557
0.749893 0.562355 0.110905
0.775932 0.562703 0.111254
0.801972 0.563052 0.111603
0.828012 0.563400 0.111951
0.854052 0.563749 0.112300
0.880091 0.564098 0.112648
0.906131 0.564446 0.112997
0.932171 0.564795 0.113346
0.958211 0.565144 0.113694
0.126111 0.580851 0.103711
0.152151 0.581200 0.104060
0.178190 0.581549 0.104408
0.204230 0.581897 0.104757
0.230270 0.582246 0.105105
0.256310 0.582594 0.105454
0.282350 0.582943 0.105803
0.308389 0.583292 0.106151
0.334429 0.583640 0.106500
0.360469 0.583989 0.106849
0.386509 0.584338 0.107197
0.412548 0.584686 0.107546
0.438588 0.585035 0.107895
0.464628 0.585384 0.108243
0.490668 0.585732 0.108592
0.516707 0.586081 0.108940
0.542747 0.586429 0.109289
0.568787 0.586778 0.109638
0.594827 0.587127 0.109986
0.620866 0.587475 0.110335
0.646906 0.587824 0.110684
0.672946 0.588173 0.111032
0.698986 0.588521 0.111381
0.725026 0.588870 0.111729
0.751065 0.589219 0.112078
0.777105 0.589567 0.112427
0.803145 0.589916 0.112775
0.829185 0.590264 0.113124
0.855224 0.590613 0.113473
0.881264 0.590962 0.113821
0.907304 0.591310 0.114170
0.933344 0.591659 0.114519
0.959383 0.592008 0.114867
0.127284 0.607715 0.104884
0.153323 0.608064 0.105232
0.179363 0.608413 0.105581
0.205403 0.608761 0.105930
0.231443 0.609110 0.106278
0.257483 0.609458 0.106627
0.283522 0.609807 0.106976
0.309562 0.610156 0.107324
0.335602 0.610504 0.107673
0.361642 0.610853 0.108021
0.387681 0.611202 0.108370
0.413721 0.611550 0.108719
0.439761 0.611899 0.109067
0.465801 0.612248 0.109416
0.491840 0.612596 0.109765
0.517880 0.612945 0.110113
0.543920 0.613293 0.110462
0.569960 0.613642 0.110811
0.596000 0.613991 0.111159
0.622039 0.614339 0.111508
0.648079 0.614688 0.111856
0.674119 0.615037 0.112205
0.700159 0.615385 0.112554
0.726198 0.615734 0.112902
0.752238 0.616082 0.113251
0.778278 0.616431 0.113600
0.804318 0.616780 0.113948
0.830357 0.617128 0.114297
0.856397 0.617477 0.114645
0.882437 0.617826 0.114994
0.908477 0.618174 0.115343
0.934517 0.618523 0.115691
0.960556 0.618872 0.116040
0.128457 0.634579 0.106057
0.154496 0.634928 0.106405
0.180536 0.635277 0.106754
0.206576 0.635625 0.107102
0.232616 0.635974 0.107451
0.258655 0.636322 0.107800
0.284695 0.636671 0.108148
0.310735 0.637020 0.108497
0.336775 0.637368 0.108846
0.362814 0.637717 0.109194
0.388854 0.638066 0.109543
0.414894 0.638414 0.109892
0.440934 0.638763 0.110240
0.466974 0.639111 0.110589
0.493013 0.639460 0.110937
0.519053 0.639809 0.111286
0.545093 0.640157 0.111635
0.571133 0.640506 0.111983
0.597172 0.640855 0.112332
0.623212 0.641203 0.112681
0.649252 0.641552 0.113029
0.675292 0.641901 0.113378
0.701331 0.642249 0.113727
0.727371 0.642598 0.114075
0.753411 0.642946 0.114424
0.779451 0.643295 0.114772
0.805491 0.643644 0.115121
0.831530 0.643992 0.115470
0.857570 0.644341 0.115818
0.883610 0.644690 0.116167
0.909650 0.645038 0.116516
0.935689 0.645387 0.116864
0.961729 0.645736 0.117213
0.129629 0.661443 0.107229
0.155669 0.661792 0.107578
0.181709 0.662140 0.107927
0.207749 0.662489 0.108275
0.233788 0.662838 0.108624
0.259828 0.663186 0.108973
0.285868 0.663535 0.109321
0.311908 0.663884 0.109670
0.337948 0.664232 0.110018
0.363987 0.664581 0.110367
0.390027 0.664930 0.110716
0.416067 0.665278 0.111064
0.442107 0.665627 0.111413
0.468146 0.665975 0.111762
0.494186 0.666324 0.112110
0.520226 0.666673 0.112459
0.546266 0.667021 0.112808
0.572305 0.667370 0.113156
0.598345 0.667719 0.113505
0.624385 0.668067 0.113853
0.650425 0.668416 0.114202
0.676465 0.668765 0.114551
0.702504 0.669113 0.114899
0.728544 0.669462 0.115248
0.754584 0.669810 0.115597
0.780624 0.670159 0.115945
0.806663 0.670508 0.116294
0.832703 0.670856 0.116643
0.858743 0.671205 0.116991
0.884783 0.671554 0.117340
0.910822 0.671902 0.117688
0.936862 0.672251 0.118037
0.962902 0.672599 0.118386
0.130802 0.688307 0.108402
0.156842 0.688656 0.108751
0.182882 0.689004 0.109099
0.208922 0.689353 0.109448
0.234961 0.689702 0.109797
0.261001 0.690050 0.110145
0.287041 0.690399 0.110494
0.313081 0.690748 0.110843
0.339120 0.691096 0.111191
0.365160 0.691445 0.111540
0.391200 0.691794 0.111889
0.417240 0.692142 0.112237
0.443279 0.692491 0.112586
0.469319 0.692839 0.112934
0.495359 0.693188 0.113283
0.521399 0.693537 0.113632
0.547439 0.693885 0.113980
0.573478 0.694234 0.114329
0.599518 0.694583 0.114678
0.625558 0.694931 0.115026
0.651598 0.695280 0.115375
0.677637 0.695628 0.115724
0.703677 0.695977 0.116072
0.729717 0.696326 0.116421
0.755757 0.696674 0.116769
0.781796 0.697023 0.117118
0.807836 0.697372 0.117467
0.833876 0.697720 0.117815
0.859916 0.698069 0.118164
0.885955 0.698418 0.118513
0.911995 0.698766 0.118861
0.938035 0.699115 0.119210
0.964075 0.699463 0.119559
0.131975 0.715171 0.109575
0.158015 0.715520 0.109924
0.184055 0.715868 0.110272
0.210094 0.716217 0.110621
0.236134 0.716566 0.110970
0.262174 0.716914 0.111318
0.288214 0.717263 0.111667
0.314253 0.717612 0.112015
0.340293 0.717960 0.112364
0.366333 0.718309 0.112713
0.392373 0.718657 0.113061
0.418412 0.719006 0.113410
0.444452 0.719355 0.113759
0.470492 0.719703 0.114107
0.496532 0.720052 0.114456
0.522572 0.720401 0.114805
0.548611 0.720749 0.115153
0.574651 0.721098 0.115502
0.600691 0.721447 0.115850
0.626731 0.721795 0.116199
0.652770 0.722144 0.116548
0.678810 0.722492 0.116896
0.704850 0.722841 0.117245
0.730890 0.723190 0.117594
0.756929 0.723538 0.117942
0.782969 0.723887 0.118291
0.809009 0.724236 0.118640
0.835049 0.724584 0.118988
0.861089 0.724933 0.119337
0.887128 0.725282 0.119685
0.913168 0.725630 0.120034
0.939208 0.725979 0.120383
0.965248 0.726327 0.120731
0.133148 0.742035 0.110748
0.159188 0.742384 0.111096
0.185227 0.742732 0.111445
0.211267 0.743081 0.111794
0.237307 0.743430 0.112142
0.263347 0.743778 0.112491
0.289386 0.744127 0.112840
0.315426 0.744476 0.113188
0.341466 0.744824 0.113537
0.367506 0.745173 0.113886
0.393546 0.745521 0.114234
0.419585 0.745870 0.114583
0.445625 0.746219 0.114931
0.471665 0.746567 0.115280
0.497705 0.746916 0.115629
0.523744 0.747265 0.115977
0.549784 0.747613 0.116326
0.575824 0.747962 0.116675
0.601864 0.748311 0.117023
0.627903 0.748659 0.117372
0.653943 0.749008 0.117721
0.679983 0.749356 0.118069
0.706023 0.749705 0.118418
0.732063 0.750054 0.118766
0.758102 0.750402 0.119115
0.784142 0.750751 0.119464
0.810182 0.751100 0.119812
0.836222 0.751448 0.120161
0.862261 0.751797 0.120510
0.888301 0.752145 0.120858
0.914341 0.752494 0.121207
0.940381 0.752843 0.121556
0.966420 0.753191 0.121904
0.134321 0.768899 0.111921
0.160360 0.769248 0.112269
0.186400 0.769596 0.112618
0.212440 0.769945 0.112967
0.238480 0.770294 0.113315
0.264520 0.770642 0.113664
0.290559 0.770991 0.114012
0.316599 0.771339 0.114361
0.342639 0.771688 0.114710
0.368679 0.772037 0.115058
0.394718 0.772385 0.115407
0.420758 0.772734 0.115756
0.446798 0.773083 0.116104
0.472838 0.773431 0.116453
0.498877 0.773780 0.116802
0.524917 0.774129 0.117150
0.550957 0.774477 0.117499
0.576997 0.774826 0.117847
0.603037 0.775174 0.118196
0.629076 0.775523 0.118545
0.655116 0.775872 0.118893
0.681156 0.776220 0.119242
0.707196 0.776569 0.119591
0.733235 0.776918 0.119939
0.759275 0.777266 0.120288
0.785315 0.777615 0.120637
0.811355 0.777964 0.120985
0.837394 0.778312 0.121334
0.863434 0.778661 0.121682
0.889474 0.779009 0.122031
0.915514 0.779358 0.122380
0.941554 0.779707 0.122728
0.967593 0.780055 0.123077
0.135494 0.795763 0.113094
0.161533 0.796112 0.113442
0.187573 0.796460 0.113791
0.213613 0.796809 0.114139
0.239653 0.797158 0.114488
0.265692 0.797506 0.114837
0.291732 0.797855 0.115185
0.317772 0.798203 0.115534
0.343812 0.798552 0.115883
0.369851 0.798901 0.116231
0.395891 0.799249 0.116580
0.421931 0.799598 0.116928
0.447971 0.799947 0.117277
0.474011 0.800295 0.117626
0.500050 0.800644 0.117974
0.526090 0.800993 0.118323
0.552130 0.801341 0.118672
0.578170 0.801690 0.119020
0.604209 0.802038 0.119369
0.630249 0.802387 0.119718
0.656289 0.802736 0.120066
0.682329 0.803084 0.120415
0.708368 0.803433 0.120763
0.734408 0.803782 0.121112
0.760448 0.804130 0.121461
0.786488 0.804479 0.121809
0.812527 0.804827 0.122158
0.838567 0.805176 0.122507
