fexer/Resources/LUTs/macro_soft.cube
TITLE "Macro"
LUT_3D_SIZE 9
DOMAIN_MIN 0.0 0.0 0.0
DOMAIN_MAX 1.0 1.0 1.0
0.105000 0.097300 0.082600
0.209159 0.098695 0.083995
0.313318 0.100089 0.085389
0.417477 0.101484 0.086784
0.521636 0.102878 0.088178
0.625795 0.104273 0.089573
0.729954 0.105667 0.090967
0.834114 0.107062 0.092362
0.938273 0.108456 0.093756
0.109691 0.204756 0.087291
0.213850 0.206150 0.088686
0.318009 0.207545 0.090080
0.422169 0.208939 0.091475
0.526328 0.210334 0.092869
0.630487 0.211729 0.094264
0.734646 0.213123 0.095659
0.838805 0.214518 0.097053
0.942964 0.215912 0.098448
0.114383 0.312212 0.091983
0.218542 0.313606 0.093377
0.322701 0.315001 0.094772
0.426860 0.316395 0.096166
0.531019 0.317790 0.097561
0.635178 0.319184 0.098955
0.739337 0.320579 0.100350
0.843496 0.321973 0.101744
0.947655 0.323368 0.103139
0.119074 0.419668 0.096674
0.223233 0.421062 0.098068
0.327392 0.422457 0.099463
0.431551 0.423851 0.100858
0.535710 0.425246 0.102252
0.639869 0.426640 0.103647
0.744028 0.428035 0.105041
0.848187 0.429429 0.106436
0.952347 0.430824 0.107830
0.123765 0.527123 0.101365
0.227924 0.528518 0.102760
0.332083 0.529912 0.104154
0.436242 0.531307 0.105549
0.540402 0.532702 0.106943
0.644561 0.534096 0.108338
0.748720 0.535491 0.109732
0.852879 0.536885 0.111127
0.957038 0.538280 0.112522
0.128457 0.634579 0.106057
0.232616 0.635974 0.107451
0.336775 0.637368 0.108846
0.440934 0.638763 0.110240
0.545093 0.640157 0.111635
0.649252 0.641552 0.113029
0.753411 0.642946 0.114424
0.857570 0.644341 0.115818
0.961729 0.645736 0.117213
0.133148 0.742035 0.110748
0.237307 0.743430 0.112142
0.341466 0.744824 0.113537
0.445625 0.746219 0.114931
0.549784 0.747613 0.116326
0.653943 0.749008 0.117721
0.758102 0.750402 0.119115
0.862261 0.751797 0.120510
0.966420 0.753191 0.121904
0.137839 0.849491 0.115439
0.241998 0.850885 0.116834
0.346157 0.852280 0.118228
0.450316 0.853675 0.119623
0.554475 0.855069 0.121017
0.658635 0.856464 0.122412
0.762794 0.857858 0.123806
0.866953 0.859253 0.125201
0.971112 0.860647 0.126595
0.142530 0.956947 0.120130
0.246690 0.958341 0.121525
0.350849 0.959736 0.122920
0.455008 0.961130 0.124314
0.559167 0.962525 0.125709
0.663326 0.963919 0.127103
0.767485 0.965314 0.128498
0.871644 0.966709 0.129892
0.975803 0.968103 0.131287
0.105474 0.097774 0.185838
0.209633 0.099168 0.187233
0.313792 0.100563 0.188627
0.417951 0.101957 0.190022
0.522110 0.103352 0.191416
0.626269 0.104746 0.192811
0.730428 0.106141 0.194205
0.834587 0.107535 0.195600
0.938746 0.108930 0.196994
0.110165 0.205229 0.190529
0.214324 0.206624 0.191924
0.318483 0.208019 0.193319
0.422642 0.209413 0.194713
0.526801 0.210808 0.196108
0.630960 0.212202 0.197502
0.735119 0.213597 0.198897
0.839278 0.214991 0.200291
0.943437 0.216386 0.201686
0.114856 0.312685 0.195221
0.219015 0.314080 0.196615
0.323174 0.315474 0.198010
0.427333 0.316869 0.199404
0.531493 0.318263 0.200799
0.635652 0.319658 0.202193
0.739811 0.321053 0.203588
0.843970 0.322447 0.204983
0.948129 0.323842 0.206377
0.119548 0.420141 0.199912
0.223707 0.421536 0.201307
0.327866 0.422930 0.202701
0.432025 0.424325 0.204096
0.536184 0.425719 0.205490
0.640343 0.427114 0.206885
0.744502 0.428508 0.208279
0.848661 0.429903 0.209674
0.952820 0.431297 0.211068
0.124239 0.527597 0.204603
0.228398 0.528992 0.205998
0.332557 0.530386 0.207392
0.436716 0.531781 0.208787
0.540875 0.533175 0.210182
0.645034 0.534570 0.211576
0.749193 0.535964 0.212971
0.853352 0.537359 0.214365
0.957511 0.538753 0.215760
0.128930 0.635053 0.209295
0.233089 0.636447 0.210689
0.337248 0.637842 0.212084
0.441407 0.639236 0.213478
0.545566 0.640631 0.214873
0.649726 0.642026 0.216267
0.753885 0.643420 0.217662
0.858044 0.644815 0.219056
0.962203 0.646209 0.220451
0.133621 0.742509 0.213986
0.237781 0.743903 0.215381
0.341940 0.745298 0.216775
0.446099 0.746692 0.218170
0.550258 0.748087 0.219564
0.654417 0.749481 0.220959
0.758576 0.750876 0.222353
0.862735 0.752270 0.223748
0.966894 0.753665 0.225142
0.138313 0.849965 0.218677
0.242472 0.851359 0.220072
0.346631 0.852754 0.221466
0.450790 0.854148 0.222861
0.554949 0.855543 0.224255
0.659108 0.856937 0.225650
0.763267 0.858332 0.227045
0.867426 0.859726 0.228439
0.971585 0.861121 0.229834
0.143004 0.957420 0.223369
0.247163 0.958815 0.224763
0.351322 0.960209 0.226158
0.455481 0.961604 0.227552
0.559640 0.962999 0.228947
0.663799 0.964393 0.230341
0.767959 0.965788 0.231736
0.872118 0.967182 0.233130
0.976277 0.968577 0.234525
0.105947 0.098247 0.289076
0.210106 0.099642 0.290471
0.314265 0.101036 0.291865
0.418424 0.102431 0.293260
0.522583 0.103825 0.294654
0.626743 0.105220 0.296049
0.730902 0.106614 0.297443
0.835061 0.108009 0.298838
0.939220 0.109403 0.300233
0.110638 0.205703 0.293768
0.214798 0.207098 0.295162
0.318957 0.208492 0.296557
0.423116 0.209887 0.297951
0.527275 0.211281 0.299346
0.631434 0.212676 0.300740
0.735593 0.214070 0.302135
0.839752 0.215465 0.303529
0.943911 0.216859 0.304924
0.115330 0.313159 0.298459
0.219489 0.314553 0.299853
0.323648 0.315948 0.301248
0.427807 0.317342 0.302642
0.531966 0.318737 0.304037
0.636125 0.320132 0.305432
0.740284 0.321526 0.306826
0.844443 0.322921 0.308221
0.948602 0.324315 0.309615
0.120021 0.420615 0.303150
0.224180 0.422009 0.304545
0.328339 0.423404 0.305939
0.432498 0.424798 0.307334
0.536657 0.426193 0.308728
0.640816 0.427587 0.310123
0.744976 0.428982 0.311517
0.849135 0.430376 0.312912
0.953294 0.431771 0.314306
0.124712 0.528071 0.307841
0.228871 0.529465 0.309236
0.333031 0.530860 0.310631
0.437190 0.532254 0.312025
0.541349 0.533649 0.313420
0.645508 0.535043 0.314814
0.749667 0.536438 0.316209
0.853826 0.537832 0.317603
0.957985 0.539227 0.318998
0.129404 0.635526 0.312533
0.233563 0.636921 0.313927
0.337722 0.638315 0.315322
0.441881 0.639710 0.316716
0.546040 0.641105 0.318111
0.650199 0.642499 0.319505
0.754358 0.643894 0.320900
0.858517 0.645288 0.322295
0.962676 0.646683 0.323689
0.134095 0.742982 0.317224
0.238254 0.744377 0.318619
0.342413 0.745771 0.320013
0.446572 0.747166 0.321408
0.550731 0.748560 0.322802
0.654890 0.749955 0.324197
0.759049 0.751349 0.325591
0.863209 0.752744 0.326986
0.967368 0.754139 0.328380
0.138786 0.850438 0.321915
0.242945 0.851833 0.323310
0.347105 0.853227 0.324705
0.451264 0.854622 0.326099
0.555423 0.856016 0.327494
0.659582 0.857411 0.328888
0.763741 0.858805 0.330283
0.867900 0.860200 0.331677
0.972059 0.861594 0.333072
0.143478 0.957894 0.326607
0.247637 0.959289 0.328001
0.351796 0.960683 0.329396
0.455955 0.962078 0.330790
0.560114 0.963472 0.332185
0.664273 0.964867 0.333579
0.768432 0.966261 0.334974
0.872591 0.967656 0.336368
0.976750 0.969050 0.337763
0.106421 0.098721 0.392314
0.210580 0.100115 0.393709
0.314739 0.101510 0.395103
0.418898 0.102904 0.396498
0.523057 0.104299 0.397893
0.627216 0.105693 0.399287
0.731375 0.107088 0.400682
0.835534 0.108483 0.402076
0.939693 0.109877 0.403471
0.111112 0.206177 0.397006
0.215271 0.207571 0.398400
0.319430 0.208966 0.399795
0.423589 0.210360 0.401189
0.527748 0.211755 0.402584
0.631907 0.213149 0.403978
0.736067 0.214544 0.405373
0.840226 0.215938 0.406767
0.944385 0.217333 0.408162
0.115803 0.313632 0.401697
0.219962 0.315027 0.403092
0.324122 0.316422 0.404486
0.428281 0.317816 0.405881
0.532440 0.319211 0.407275
0.636599 0.320605 0.408670
0.740758 0.322000 0.410064
0.844917 0.323394 0.411459
0.949076 0.324789 0.412853
0.120495 0.421088 0.406388
0.224654 0.422483 0.407783
0.328813 0.423877 0.409177
0.432972 0.425272 0.410572
0.537131 0.426666 0.411966
0.641290 0.428061 0.413361
0.745449 0.429456 0.414756
0.849608 0.430850 0.416150
0.953767 0.432245 0.417545
0.125186 0.528544 0.411080
0.229345 0.529939 0.412474
0.333504 0.531333 0.413869
0.437663 0.532728 0.415263
0.541822 0.534122 0.416658
0.645981 0.535517 0.418052
0.750140 0.536911 0.419447
0.854300 0.538306 0.420841
0.958459 0.539700 0.422236
0.129877 0.636000 0.415771
0.234036 0.637395 0.417165
0.338195 0.638789 0.418560
0.442355 0.640184 0.419955
0.546514 0.641578 0.421349
0.650673 0.642973 0.422744
0.754832 0.644367 0.424138
0.858991 0.645762 0.425533
0.963150 0.647156 0.426927
0.134569 0.743456 0.420462
0.238728 0.744850 0.421857
0.342887 0.746245 0.423251
0.447046 0.747639 0.424646
0.551205 0.749034 0.426040
0.655364 0.750429 0.427435
0.759523 0.751823 0.428829
0.863682 0.753218 0.430224
0.967841 0.754612 0.431619
0.139260 0.850912 0.425154
0.243419 0.852306 0.426548
0.347578 0.853701 0.427943
0.451737 0.855095 0.429337
0.555896 0.856490 0.430732
0.660055 0.857884 0.432126
0.764214 0.859279 0.433521
0.868373 0.860673 0.434915
0.972533 0.862068 0.436310
0.143951 0.958368 0.429845
0.248110 0.959762 0.431239
0.352269 0.961157 0.432634
0.456428 0.962551 0.434028
0.560588 0.963946 0.435423
0.664747 0.965340 0.436818
0.768906 0.966735 0.438212
0.873065 0.968129 0.439607
0.977224 0.969524 0.441001
0.106894 0.099194 0.495553
0.211053 0.100589 0.496947
0.315213 0.101983 0.498342
0.419372 0.103378 0.499736
0.523531 0.104773 0.501131
0.627690 0.106167 0.502525
0.731849 0.107562 0.503920
0.836008 0.108956 0.505314
0.940167 0.110351 0.506709
0.111586 0.206650 0.500244
0.215745 0.208045 0.501638
0.319904 0.209439 0.503033
0.424063 0.210834 0.504427
0.528222 0.212228 0.505822
0.632381 0.213623 0.507217
0.736540 0.215017 0.508611
0.840699 0.216412 0.510006
0.944858 0.217807 0.511400
0.116277 0.314106 0.504935
0.220436 0.315501 0.506330
0.324595 0.316895 0.507724
0.428754 0.318290 0.509119
0.532913 0.319684 0.510513
0.637072 0.321079 0.511908
0.741231 0.322473 0.513302
0.845391 0.323868 0.514697
0.949550 0.325262 0.516091
0.120968 0.421562 0.509626
0.225127 0.422956 0.511021
0.329286 0.424351 0.512416
0.433446 0.425746 0.513810
0.537605 0.427140 0.515205
0.641764 0.428535 0.516599
0.745923 0.429929 0.517994
0.850082 0.431324 0.519388
0.954241 0.432718 0.520783
0.125660 0.529018 0.514318
0.229819 0.530412 0.515712
0.333978 0.531807 0.517107
0.438137 0.533201 0.518501
0.542296 0.534596 0.519896
0.646455 0.535990 0.521290
0.750614 0.537385 0.522685
0.854773 0.538780 0.524080
0.958932 0.540174 0.525474
0.130351 0.636474 0.519009
0.234510 0.637868 0.520404
0.338669 0.639263 0.521798
0.442828 0.640657 0.523193
0.546987 0.642052 0.524587
0.651146 0.643446 0.525982
0.755305 0.644841 0.527376
0.859464 0.646235 0.528771
0.963624 0.647630 0.530165
0.135042 0.743929 0.523700
0.239201 0.745324 0.525095
0.343360 0.746719 0.526489
0.447519 0.748113 0.527884
0.551679 0.749508 0.529279
0.655838 0.750902 0.530673
0.759997 0.752297 0.532068
0.864156 0.753691 0.533462
0.968315 0.755086 0.534857
0.139734 0.851385 0.528392
0.243893 0.852780 0.529786
0.348052 0.854174 0.531181
0.452211 0.855569 0.532575
0.556370 0.856963 0.533970
0.660529 0.858358 0.535364
0.764688 0.859753 0.536759
0.868847 0.861147 0.538153
0.973006 0.862542 0.539548
0.144425 0.958841 0.533083
0.248584 0.960236 0.534478
0.352743 0.961630 0.535872
0.456902 0.963025 0.537267
0.561061 0.964419 0.538661
0.665220 0.965814 0.540056
0.769379 0.967208 0.541450
0.873538 0.968603 0.542845
0.977697 0.969997 0.544239
0.107368 0.099668 0.598791
0.211527 0.101062 0.600185
0.315686 0.102457 0.601580
0.419845 0.103852 0.602974
0.524004 0.105246 0.604369
0.628163 0.106641 0.605763
0.732322 0.108035 0.607158
0.836481 0.109430 0.608552
0.940641 0.110824 0.609947
0.112059 0.207124 0.603482
0.216218 0.208518 0.604876
0.320377 0.209913 0.606271
0.424536 0.211307 0.607666
0.528696 0.212702 0.609060
0.632855 0.214096 0.610455
0.737014 0.215491 0.611849
0.841173 0.216886 0.613244
0.945332 0.218280 0.614638
0.116751 0.314580 0.608173
0.220910 0.315974 0.609568
0.325069 0.317369 0.610962
0.429228 0.318763 0.612357
0.533387 0.320158 0.613751
0.637546 0.321552 0.615146
0.741705 0.322947 0.616540
0.845864 0.324341 0.617935
0.950023 0.325736 0.619330
0.121442 0.422036 0.612865
0.225601 0.423430 0.614259
0.329760 0.424825 0.615654
0.433919 0.426219 0.617048
0.538078 0.427614 0.618443
0.642237 0.429008 0.619837
0.746396 0.430403 0.621232
0.850555 0.431797 0.622626
0.954714 0.433192 0.624021
0.126133 0.529491 0.617556
0.230292 0.530886 0.618950
0.334451 0.532280 0.620345
0.438610 0.533675 0.621739
0.542769 0.535069 0.623134
0.646929 0.536464 0.624529
0.751088 0.537859 0.625923
0.855247 0.539253 0.627318
0.959406 0.540648 0.628712
0.130825 0.636947 0.622247
0.234984 0.638342 0.623642
0.339143 0.639736 0.625036
0.443302 0.641131 0.626431
0.547461 0.642525 0.627825
0.651620 0.643920 0.629220
0.755779 0.645314 0.630614
0.859938 0.646709 0.632009
0.964097 0.648103 0.633403
0.135516 0.744403 0.626939
0.239675 0.745798 0.628333
0.343834 0.747192 0.629728
0.447993 0.748587 0.631122
0.552152 0.749981 0.632517
0.656311 0.751376 0.633911
0.760470 0.752770 0.635306
0.864629 0.754165 0.636700
0.968788 0.755559 0.638095
0.140207 0.851859 0.631630
0.244366 0.853253 0.633024
0.348525 0.854648 0.634419
0.452684 0.856043 0.635813
0.556843 0.857437 0.637208
0.661003 0.858832 0.638603
0.765162 0.860226 0.639997
0.869321 0.861621 0.641392
0.973480 0.863015 0.642786
0.144898 0.959315 0.636321
0.249058 0.960709 0.637716
0.353217 0.962104 0.639110
0.457376 0.963498 0.640505
0.561535 0.964893 0.641899
0.665694 0.966287 0.643294
0.769853 0.967682 0.644688
0.874012 0.969076 0.646083
0.978171 0.970471 0.647477
0.107842 0.100142 0.702029
0.212001 0.101536 0.703423
0.316160 0.102931 0.704818
0.420319 0.104325 0.706212
0.524478 0.105720 0.707607
0.628637 0.107114 0.709001
0.732796 0.108509 0.710396
0.836955 0.109903 0.711791
0.941114 0.111298 0.713185
0.112533 0.207597 0.706720
0.216692 0.208992 0.708115
0.320851 0.210386 0.709509
0.425010 0.211781 0.710904
0.529169 0.213176 0.712298
0.633328 0.214570 0.713693
0.737487 0.215965 0.715087
0.841646 0.217359 0.716482
0.945805 0.218754 0.717876
0.117224 0.315053 0.711411
0.221383 0.316448 0.712806
0.325542 0.317842 0.714200
0.429701 0.319237 0.715595
0.533860 0.320631 0.716990
0.638020 0.322026 0.718384
0.742179 0.323420 0.719779
0.846338 0.324815 0.721173
0.950497 0.326210 0.722568
0.121915 0.422509 0.716103
0.226075 0.423904 0.717497
0.330234 0.425298 0.718892
0.434393 0.426693 0.720286
0.538552 0.428087 0.721681
0.642711 0.429482 0.723075
0.746870 0.430876 0.724470
0.851029 0.432271 0.725864
0.955188 0.433665 0.727259
0.126607 0.529965 0.720794
0.230766 0.531359 0.722189
0.334925 0.532754 0.723583
0.439084 0.534149 0.724978
0.543243 0.535543 0.726372
0.647402 0.536938 0.727767
0.751561 0.538332 0.729161
0.855720 0.539727 0.730556
0.959879 0.541121 0.731950
0.131298 0.637421 0.725485
0.235457 0.638815 0.726880
0.339616 0.640210 0.728274
0.443775 0.641604 0.729669
0.547934 0.642999 0.731063
0.652093 0.644393 0.732458
0.756253 0.645788 0.733853
0.860412 0.647183 0.735247
0.964571 0.648577 0.736642
0.135989 0.744877 0.730177
0.240148 0.746271 0.731571
0.344308 0.747666 0.732966
0.448467 0.749060 0.734360
0.552626 0.750455 0.735755
0.656785 0.751849 0.737149
0.760944 0.753244 0.738544
0.865103 0.754638 0.739938
0.969262 0.756033 0.741333
0.140681 0.852332 0.734868
0.244840 0.853727 0.736262
0.348999 0.855122 0.737657
0.453158 0.856516 0.739052
0.557317 0.857911 0.740446
0.661476 0.859305 0.741841
0.765635 0.860700 0.743235
0.869794 0.862094 0.744630
0.973953 0.863489 0.746024
0.145372 0.959788 0.739559
0.249531 0.961183 0.740954
0.353690 0.962577 0.742348
0.457849 0.963972 0.743743
0.562008 0.965366 0.745137
0.666167 0.966761 0.746532
0.770326 0.968156 0.747926
0.874486 0.969550 0.749321
0.978645 0.970945 0.750716
0.108315 0.100615 0.805267
0.212474 0.102010 0.806661
0.316633 0.103404 0.808056
0.420792 0.104799 0.809451
0.524951 0.106193 0.810845
0.629111 0.107588 0.812240
0.733270 0.108982 0.813634
0.837429 0.110377 0.815029
0.941588 0.111771 0.816423
0.113006 0.208071 0.809958
0.217166 0.209466 0.811353
0.321325 0.210860 0.812747
0.425484 0.212255 0.814142
0.529643 0.213649 0.815536
0.633802 0.215044 0.816931
0.737961 0.216438 0.818325
0.842120 0.217833 0.819720
0.946279 0.219227 0.821115
0.117698 0.315527 0.814650
0.221857 0.316921 0.816044
0.326016 0.318316 0.817439
0.430175 0.319710 0.818833
0.534334 0.321105 0.820228
0.638493 0.322500 0.821622
0.742652 0.323894 0.823017
0.846811 0.325289 0.824411
0.950970 0.326683 0.825806
0.122389 0.422983 0.819341
0.226548 0.424377 0.820735
0.330707 0.425772 0.822130
0.434866 0.427166 0.823524
0.539025 0.428561 0.824919
0.643184 0.429955 0.826314
0.747344 0.431350 0.827708
0.851503 0.432744 0.829103
0.955662 0.434139 0.830497
0.127080 0.530439 0.824032
0.231239 0.531833 0.825427
0.335399 0.533228 0.826821
0.439558 0.534622 0.828216
0.543717 0.536017 0.829610
0.647876 0.537411 0.831005
0.752035 0.538806 0.832399
0.856194 0.540200 0.833794
0.960353 0.541595 0.835188
0.131772 0.637894 0.828723
0.235931 0.639289 0.830118
0.340090 0.640683 0.831513
0.444249 0.642078 0.832907
0.548408 0.643473 0.834302
0.652567 0.644867 0.835696
0.756726 0.646262 0.837091
0.860885 0.647656 0.838485
0.965044 0.649051 0.839880
0.136463 0.745350 0.833415
0.240622 0.746745 0.834809
0.344781 0.748139 0.836204
0.448940 0.749534 0.837598
0.553099 0.750928 0.838993
0.657258 0.752323 0.840387
0.761417 0.753717 0.841782
0.865577 0.755112 0.843177
0.969736 0.756507 0.844571
0.141154 0.852806 0.838106
0.245313 0.854201 0.839501
0.349472 0.855595 0.840895
0.453632 0.856990 0.842290
0.557791 0.858384 0.843684
0.661950 0.859779 0.845079
0.766109 0.861173 0.846473
0.870268 0.862568 0.847868
0.974427 0.863962 0.849262
0.145846 0.960262 0.842797
0.250005 0.961656 0.844192
0.354164 0.963051 0.845586
0.458323 0.964446 0.846981
0.562482 0.965840 0.848376
0.666641 0.967235 0.849770
0.770800 0.968629 0.851165
0.874959 0.970024 0.852559
0.979118 0.971418 0.853954
0.108789 0.101089 0.908505
0.212948 0.102483 0.909900
0.317107 0.103878 0.911294
0.421266 0.105272 0.912689
0.525425 0.106667 0.914083
0.629584 0.108061 0.915478
0.733743 0.109456 0.916872
0.837902 0.110850 0.918267
0.942061 0.112245 0.919661
0.113480 0.208545 0.913196
0.217639 0.209939 0.914591
0.321798 0.211334 0.915985
0.425957 0.212728 0.917380
0.530116 0.214123 0.918774
0.634275 0.215517 0.920169
0.738434 0.216912 0.921564
0.842594 0.218306 0.922958
0.946753 0.219701 0.924353
0.118171 0.316000 0.917888
0.222330 0.317395 0.919282
0.326490 0.318790 0.920677
0.430649 0.320184 0.922071
0.534808 0.321579 0.923466
0.638967 0.322973 0.924860
0.743126 0.324368 0.926255
0.847285 0.325762 0.927649
0.951444 0.327157 0.929044
0.122863 0.423456 0.922579
0.227022 0.424851 0.923973
0.331181 0.426245 0.925368
0.435340 0.427640 0.926763
0.539499 0.429034 0.928157
0.643658 0.430429 0.929552
0.747817 0.431823 0.930946
0.851976 0.433218 0.932341
0.956135 0.434613 0.933735
0.127554 0.530912 0.927270
0.231713 0.532307 0.928665
0.335872 0.533701 0.930059
0.440031 0.535096 0.931454
0.544190 0.536490 0.932848
0.648349 0.537885 0.934243
0.752508 0.539279 0.935637
0.856667 0.540674 0.937032
0.960827 0.542068 0.938427
0.132245 0.638368 0.931962
0.236404 0.639763 0.933356
0.340563 0.641157 0.934751
0.444723 0.642552 0.936145
0.548882 0.643946 0.937540
0.653041 0.645341 0.938934
0.757200 0.646735 0.940329
0.861359 0.648130 0.941723
0.965518 0.649524 0.943118
0.136937 0.745824 0.936653
0.241096 0.747218 0.938047
0.345255 0.748613 0.939442
0.449414 0.750007 0.940837
0.553573 0.751402 0.942231
0.657732 0.752797 0.943626
0.761891 0.754191 0.945020
0.866050 0.755586 0.946415
0.970209 0.756980 0.947809
0.141628 0.853280 0.941344
0.245787 0.854674 0.942739
0.349946 0.856069 0.944133
0.454105 0.857463 0.945528
0.558264 0.858858 0.946922
0.662423 0.860252 0.948317
0.766582 0.861647 0.949711
0.870741 0.863041 0.951106
0.974900 0.864436 0.952500
0.146319 0.960736 0.946036
0.250478 0.962130 0.947430
0.354637 0.963525 0.948825
0.458796 0.964919 0.950219
0.562956 0.966314 0.951614
0.667115 0.967708 0.953008
0.771274 0.969103 0.954403
0.875433 0.970497 0.955797
0.979592 0.971892 0.957192
