fexer/Resources/LUTs/noir_bw.cube
TITLE "Noir BW"
LUT_3D_SIZE 9
DOMAIN_MIN 0.0 0.0 0.0
DOMAIN_MAX 1.0 1.0 1.0
0.000000 0.000000 0.000000
0.000000 0.000000 0.000000
0.000000 0.000000 0.000000
0.000000 0.000000 0.000000
0.000000 0.000000 0.000000
0.029789 0.029789 0.029789
0.067746 0.067746 0.067746
0.105704 0.105704 0.105704
0.143662 0.143662 0.143662
0.000000 0.000000 0.000000
0.000000 0.000000 0.000000
0.014606 0.014606 0.014606
0.052563 0.052563 0.052563
0.090521 0.090521 0.090521
0.128479 0.128479 0.128479
0.166437 0.166437 0.166437
0.204394 0.204394 0.204394
0.242352 0.242352 0.242352
0.037380 0.037380 0.037380
0.075338 0.075338 0.075338
0.113296 0.113296 0.113296
0.151253 0.151253 0.151253
0.189211 0.189211 0.189211
0.227169 0.227169 0.227169
0.265127 0.265127 0.265127
0.303084 0.303084 0.303084
0.341042 0.341042 0.341042
0.136070 0.136070 0.136070
0.174028 0.174028 0.174028
0.211986 0.211986 0.211986
0.249944 0.249944 0.249944
0.287901 0.287901 0.287901
0.325859 0.325859 0.325859
0.363817 0.363817 0.363817
0.401775 0.401775 0.401775
0.439732 0.439732 0.439732
0.234761 0.234761 0.234761
0.272718 0.272718 0.272718
0.310676 0.310676 0.310676
0.348634 0.348634 0.348634
0.386591 0.386591 0.386591
0.424549 0.424549 0.424549
0.462507 0.462507 0.462507
0.500465 0.500465 0.500465
0.538422 0.538422 0.538422
0.333451 0.333451 0.333451
0.371408 0.371408 0.371408
0.409366 0.409366 0.409366
0.447324 0.447324 0.447324
0.485282 0.485282 0.485282
0.523239 0.523239 0.523239
0.561197 0.561197 0.561197
0.599155 0.599155 0.599155
0.637113 0.637113 0.637113
0.432141 0.432141 0.432141
0.470098 0.470098 0.470098
0.508056 0.508056 0.508056
0.546014 0.546014 0.546014
0.583972 0.583972 0.583972
0.621929 0.621929 0.621929
0.659887 0.659887 0.659887
0.697845 0.697845 0.697845
0.735803 0.735803 0.735803
0.530831 0.530831 0.530831
0.568789 0.568789 0.568789
0.606746 0.606746 0.606746
0.644704 0.644704 0.644704
0.682662 0.682662 0.682662
0.720620 0.720620 0.720620
0.758577 0.758577 0.758577
0.796535 0.796535 0.796535
0.834493 0.834493 0.834493
0.629521 0.629521 0.629521
0.667479 0.667479 0.667479
0.705436 0.705436 0.705436
0.743394 0.743394 0.743394
0.781352 0.781352 0.781352
0.819310 0.819310 0.819310
0.857267 0.857267 0.857267
0.895225 0.895225 0.895225
0.933183 0.933183 0.933183
0.000000 0.000000 0.000000
0.000000 0.000000 0.000000
0.000000 0.000000 0.000000
0.000000 0.000000 0.000000
0.007014 0.007014 0.007014
0.044972 0.044972 0.044972
0.082930 0.082930 0.082930
0.120887 0.120887 0.120887
0.158845 0.158845 0.158845
0.000000 0.000000 0.000000
0.000000 0.000000 0.000000
0.029789 0.029789 0.029789
0.067746 0.067746 0.067746
0.105704 0.105704 0.105704
0.143662 0.143662 0.143662
0.181620 0.181620 0.181620
0.219577 0.219577 0.219577
0.257535 0.257535 0.257535
0.052563 0.052563 0.052563
0.090521 0.090521 0.090521
0.128479 0.128479 0.128479
0.166437 0.166437 0.166437
0.204394 0.204394 0.204394
0.242352 0.242352 0.242352
0.280310 0.280310 0.280310
0.318268 0.318268 0.318268
0.356225 0.356225 0.356225
0.151253 0.151253 0.151253
0.189211 0.189211 0.189211
0.227169 0.227169 0.227169
0.265127 0.265127 0.265127
0.303084 0.303084 0.303084
0.341042 0.341042 0.341042
0.379000 0.379000 0.379000
0.416958 0.416958 0.416958
0.454915 0.454915 0.454915
0.249944 0.249944 0.249944
0.287901 0.287901 0.287901
0.325859 0.325859 0.325859
0.363817 0.363817 0.363817
0.401775 0.401775 0.401775
0.439732 0.439732 0.439732
0.477690 0.477690 0.477690
0.515648 0.515648 0.515648
0.553606 0.553606 0.553606
0.348634 0.348634 0.348634
0.386591 0.386591 0.386591
0.424549 0.424549 0.424549
0.462507 0.462507 0.462507
0.500465 0.500465 0.500465
0.538422 0.538422 0.538422
0.576380 0.576380 0.576380
0.614338 0.614338 0.614338
0.652296 0.652296 0.652296
0.447324 0.447324 0.447324
0.485282 0.485282 0.485282
0.523239 0.523239 0.523239
0.561197 0.561197 0.561197
0.599155 0.599155 0.599155
0.637113 0.637113 0.637113
0.675070 0.675070 0.675070
0.713028 0.713028 0.713028
0.750986 0.750986 0.750986
0.546014 0.546014 0.546014
0.583972 0.583972 0.583972
0.621929 0.621929 0.621929
0.659887 0.659887 0.659887
0.697845 0.697845 0.697845
0.735803 0.735803 0.735803
0.773760 0.773760 0.773760
0.811718 0.811718 0.811718
0.849676 0.849676 0.849676
0.644704 0.644704 0.644704
0.682662 0.682662 0.682662
0.720620 0.720620 0.720620
0.758577 0.758577 0.758577
0.796535 0.796535 0.796535
0.834493 0.834493 0.834493
0.872451 0.872451 0.872451
0.910408 0.910408 0.910408
0.948366 0.948366 0.948366
0.000000 0.000000 0.000000
0.000000 0.000000 0.000000
0.000000 0.000000 0.000000
0.000000 0.000000 0.000000
0.022197 0.022197 0.022197
0.060155 0.060155 0.060155
0.098113 0.098113 0.098113
0.136070 0.136070 0.136070
0.174028 0.174028 0.174028
0.000000 0.000000 0.000000
0.007014 0.007014 0.007014
0.044972 0.044972 0.044972
0.082930 0.082930 0.082930
0.120887 0.120887 0.120887
0.158845 0.158845 0.158845
0.196803 0.196803 0.196803
0.234761 0.234761 0.234761
0.272718 0.272718 0.272718
0.067746 0.067746 0.067746
0.105704 0.105704 0.105704
0.143662 0.143662 0.143662
0.181620 0.181620 0.181620
0.219577 0.219577 0.219577
0.257535 0.257535 0.257535
0.295493 0.295493 0.295493
0.333451 0.333451 0.333451
0.371408 0.371408 0.371408
0.166437 0.166437 0.166437
0.204394 0.204394 0.204394
0.242352 0.242352 0.242352
0.280310 0.280310 0.280310
0.318268 0.318268 0.318268
0.356225 0.356225 0.356225
0.394183 0.394183 0.394183
0.432141 0.432141 0.432141
0.470098 0.470098 0.470098
0.265127 0.265127 0.265127
0.303084 0.303084 0.303084
0.341042 0.341042 0.341042
0.379000 0.379000 0.379000
0.416958 0.416958 0.416958
0.454915 0.454915 0.454915
0.492873 0.492873 0.492873
0.530831 0.530831 0.530831
0.568789 0.568789 0.568789
0.363817 0.363817 0.363817
0.401775 0.401775 0.401775
0.439732 0.439732 0.439732
0.477690 0.477690 0.477690
0.515648 0.515648 0.515648
0.553606 0.553606 0.553606
0.591563 0.591563 0.591563
0.629521 0.629521 0.629521
0.667479 0.667479 0.667479
0.462507 0.462507 0.462507
0.500465 0.500465 0.500465
0.538422 0.538422 0.538422
0.576380 0.576380 0.576380
0.614338 0.614338 0.614338
0.652296 0.652296 0.652296
0.690253 0.690253 0.690253
0.728211 0.728211 0.728211
0.766169 0.766169 0.766169
0.561197 0.561197 0.561197
0.599155 0.599155 0.599155
0.637113 0.637113 0.637113
0.675070 0.675070 0.675070
0.713028 0.713028 0.713028
0.750986 0.750986 0.750986
0.788944 0.788944 0.788944
0.826901 0.826901 0.826901
0.864859 0.864859 0.864859
0.659887 0.659887 0.659887
0.697845 0.697845 0.697845
0.735803 0.735803 0.735803
0.773760 0.773760 0.773760
0.811718 0.811718 0.811718
0.849676 0.849676 0.849676
0.887634 0.887634 0.887634
0.925591 0.925591 0.925591
0.963549 0.963549 0.963549
0.000000 0.000000 0.000000
0.000000 0.000000 0.000000
0.000000 0.000000 0.000000
0.000000 0.000000 0.000000
0.037380 0.037380 0.037380
0.075338 0.075338 0.075338
0.113296 0.113296 0.113296
0.151253 0.151253 0.151253
0.189211 0.189211 0.189211
0.000000 0.000000 0.000000
0.022197 0.022197 0.022197
0.060155 0.060155 0.060155
0.098113 0.098113 0.098113
0.136070 0.136070 0.136070
0.174028 0.174028 0.174028
0.211986 0.211986 0.211986
0.249944 0.249944 0.249944
0.287901 0.287901 0.287901
0.082930 0.082930 0.082930
0.120887 0.120887 0.120887
0.158845 0.158845 0.158845
0.196803 0.196803 0.196803
0.234761 0.234761 0.234761
0.272718 0.272718 0.272718
0.310676 0.310676 0.310676
0.348634 0.348634 0.348634
0.386591 0.386591 0.386591
0.181620 0.181620 0.181620
0.219577 0.219577 0.219577
0.257535 0.257535 0.257535
0.295493 0.295493 0.295493
0.333451 0.333451 0.333451
0.371408 0.371408 0.371408
0.409366 0.409366 0.409366
0.447324 0.447324 0.447324
0.485282 0.485282 0.485282
0.280310 0.280310 0.280310
0.318268 0.318268 0.318268
0.356225 0.356225 0.356225
0.394183 0.394183 0.394183
0.432141 0.432141 0.432141
0.470098 0.470098 0.470098
0.508056 0.508056 0.508056
0.546014 0.546014 0.546014
0.583972 0.583972 0.583972
0.379000 0.379000 0.379000
0.416958 0.416958 0.416958
0.454915 0.454915 0.454915
0.492873 0.492873 0.492873
0.530831 0.530831 0.530831
0.568789 0.568789 0.568789
0.606746 0.606746 0.606746
0.644704 0.644704 0.644704
0.682662 0.682662 0.682662
0.477690 0.477690 0.477690
0.515648 0.515648 0.515648
0.553606 0.553606 0.553606
0.591563 0.591563 0.591563
0.629521 0.629521 0.629521
0.667479 0.667479 0.667479
0.705436 0.705436 0.705436
0.743394 0.743394 0.743394
0.781352 0.781352 0.781352
0.576380 0.576380 0.576380
0.614338 0.614338 0.614338
0.652296 0.652296 0.652296
0.690253 0.690253 0.690253
0.728211 0.728211 0.728211
0.766169 0.766169 0.766169
0.804127 0.804127 0.804127
0.842084 0.842084 0.842084
0.880042 0.880042 0.880042
0.675070 0.675070 0.675070
0.713028 0.713028 0.713028
0.750986 0.750986 0.750986
0.788944 0.788944 0.788944
0.826901 0.826901 0.826901
0.864859 0.864859 0.864859
0.902817 0.902817 0.902817
0.940774 0.940774 0.940774
0.978732 0.978732 0.978732
0.000000 0.000000 0.000000
0.000000 0.000000 0.000000
0.000000 0.000000 0.000000
0.014606 0.014606 0.014606
0.052563 0.052563 0.052563
0.090521 0.090521 0.090521
0.128479 0.128479 0.128479
0.166437 0.166437 0.166437
0.204394 0.204394 0.204394
0.000000 0.000000 0.000000
0.037380 0.037380 0.037380
0.075338 0.075338 0.075338
0.113296 0.113296 0.113296
0.151253 0.151253 0.151253
0.189211 0.189211 0.189211
0.227169 0.227169 0.227169
0.265127 0.265127 0.265127
0.303084 0.303084 0.303084
0.098113 0.098113 0.098113
0.136070 0.136070 0.136070
0.174028 0.174028 0.174028
0.211986 0.211986 0.211986
0.249944 0.249944 0.249944
0.287901 0.287901 0.287901
0.325859 0.325859 0.325859
0.363817 0.363817 0.363817
0.401775 0.401775 0.401775
0.196803 0.196803 0.196803
0.234761 0.234761 0.234761
0.272718 0.272718 0.272718
0.310676 0.310676 0.310676
0.348634 0.348634 0.348634
0.386591 0.386591 0.386591
0.424549 0.424549 0.424549
0.462507 0.462507 0.462507
0.500465 0.500465 0.500465
0.295493 0.295493 0.295493
0.333451 0.333451 0.333451
0.371408 0.371408 0.371408
0.409366 0.409366 0.409366
0.447324 0.447324 0.447324
0.485282 0.485282 0.485282
0.523239 0.523239 0.523239
0.561197 0.561197 0.561197
0.599155 0.599155 0.599155
0.394183 0.394183 0.394183
0.432141 0.432141 0.432141
0.470098 0.470098 0.470098
0.508056 0.508056 0.508056
0.546014 0.546014 0.546014
0.583972 0.583972 0.583972
0.621929 0.621929 0.621929
0.659887 0.659887 0.659887
0.697845 0.697845 0.697845
0.492873 0.492873 0.492873
0.530831 0.530831 0.530831
0.568789 0.568789 0.568789
0.606746 0.606746 0.606746
0.644704 0.644704 0.644704
0.682662 0.682662 0.682662
0.720620 0.720620 0.720620
0.758577 0.758577 0.758577
0.796535 0.796535 0.796535
0.591563 0.591563 0.591563
0.629521 0.629521 0.629521
0.667479 0.667479 0.667479
0.705436 0.705436 0.705436
0.743394 0.743394 0.743394
0.781352 0.781352 0.781352
0.819310 0.819310 0.819310
0.857267 0.857267 0.857267
0.895225 0.895225 0.895225
0.690253 0.690253 0.690253
0.728211 0.728211 0.728211
0.766169 0.766169 0.766169
0.804127 0.804127 0.804127
0.842084 0.842084 0.842084
0.880042 0.880042 0.880042
0.918000 0.918000 0.918000
0.955958 0.955958 0.955958
0.993915 0.993915 0.993915
0.000000 0.000000 0.000000
0.000000 0.000000 0.000000
0.000000 0.000000 0.000000
0.029789 0.029789 0.029789
0.067746 0.067746 0.067746
0.105704 0.105704 0.105704
0.143662 0.143662 0.143662
0.181620 0.181620 0.181620
0.219577 0.219577 0.219577
0.014606 0.014606 0.014606
0.052563 0.052563 0.052563
0.090521 0.090521 0.090521
0.128479 0.128479 0.128479
0.166437 0.166437 0.166437
0.204394 0.204394 0.204394
0.242352 0.242352 0.242352
0.280310 0.280310 0.280310
0.318268 0.318268 0.318268
0.113296 0.113296 0.113296
0.151253 0.151253 0.151253
0.189211 0.189211 0.189211
0.227169 0.227169 0.227169
0.265127 0.265127 0.265127
0.303084 0.303084 0.303084
0.341042 0.341042 0.341042
0.379000 0.379000 0.379000
0.416958 0.416958 0.416958
0.211986 0.211986 0.211986
0.249944 0.249944 0.249944
0.287901 0.287901 0.287901
0.325859 0.325859 0.325859
0.363817 0.363817 0.363817
0.401775 0.401775 0.401775
0.439732 0.439732 0.439732
0.477690 0.477690 0.477690
0.515648 0.515648 0.515648
0.310676 0.310676 0.310676
0.348634 0.348634 0.348634
0.386591 0.386591 0.386591
0.424549 0.424549 0.424549
0.462507 0.462507 0.462507
0.500465 0.500465 0.500465
0.538422 0.538422 0.538422
0.576380 0.576380 0.576380
0.614338 0.614338 0.614338
0.409366 0.409366 0.409366
0.447324 0.447324 0.447324
0.485282 0.485282 0.485282
0.523239 0.523239 0.523239
0.561197 0.561197 0.561197
0.599155 0.599155 0.599155
0.637113 0.637113 0.637113
0.675070 0.675070 0.675070
0.713028 0.713028 0.713028
0.508056 0.508056 0.508056
0.546014 0.546014 0.546014
0.583972 0.583972 0.583972
0.621929 0.621929 0.621929
0.659887 0.659887 0.659887
0.697845 0.697845 0.697845
0.735803 0.735803 0.735803
0.773760 0.773760 0.773760
0.811718 0.811718 0.811718
0.606746 0.606746 0.606746
0.644704 0.644704 0.644704
0.682662 0.682662 0.682662
0.720620 0.720620 0.720620
0.758577 0.758577 0.758577
0.796535 0.796535 0.796535
0.834493 0.834493 0.834493
0.872451 0.872451 0.872451
0.910408 0.910408 0.910408
0.705436 0.705436 0.705436
0.743394 0.743394 0.743394
0.781352 0.781352 0.781352
0.819310 0.819310 0.819310
0.857267 0.857267 0.857267
0.895225 0.895225 0.895225
0.933183 0.933183 0.933183
0.971141 0.971141 0.971141
1.000000 1.000000 1.000000
0.000000 0.000000 0.000000
0.000000 0.000000 0.000000
0.007014 0.007014 0.007014
0.044972 0.044972 0.044972
0.082930 0.082930 0.082930
0.120887 0.120887 0.120887
0.158845 0.158845 0.158845
0.196803 0.196803 0.196803
0.234761 0.234761 0.234761
0.029789 0.029789 0.029789
0.067746 0.067746 0.067746
0.105704 0.105704 0.105704
0.143662 0.143662 0.143662
0.181620 0.181620 0.181620
0.219577 0.219577 0.219577
0.257535 0.257535 0.257535
0.295493 0.295493 0.295493
0.333451 0.333451 0.333451
0.128479 0.128479 0.128479
0.166437 0.166437 0.166437
0.204394 0.204394 0.204394
0.242352 0.242352 0.242352
0.280310 0.280310 0.280310
0.318268 0.318268 0.318268
0.356225 0.356225 0.356225
0.394183 0.394183 0.394183
0.432141 0.432141 0.432141
0.227169 0.227169 0.227169
0.265127 0.265127 0.265127
0.303084 0.303084 0.303084
0.341042 0.341042 0.341042
0.379000 0.379000 0.379000
0.416958 0.416958 0.416958
0.454915 0.454915 0.454915
0.492873 0.492873 0.492873
0.530831 0.530831 0.530831
0.325859 0.325859 0.325859
0.363817 0.363817 0.363817
0.401775 0.401775 0.401775
0.439732 0.439732 0.439732
0.477690 0.477690 0.477690
0.515648 0.515648 0.515648
0.553606 0.553606 0.553606
0.591563 0.591563 0.591563
0.629521 0.629521 0.629521
0.424549 0.424549 0.424549
0.462507 0.462507 0.462507
0.500465 0.500465 0.500465
0.538422 0.538422 0.538422
0.576380 0.576380 0.576380
0.614338 0.614338 0.614338
0.652296 0.652296 0.652296
0.690253 0.690253 0.690253
0.728211 0.728211 0.728211
0.523239 0.523239 0.523239
0.561197 0.561197 0.561197
0.599155 0.599155 0.599155
0.637113 0.637113 0.637113
0.675070 0.675070 0.675070
0.713028 0.713028 0.713028
0.750986 0.750986 0.750986
0.788944 0.788944 0.788944
0.826901 0.826901 0.826901
0.621929 0.621929 0.621929
0.659887 0.659887 0.659887
0.697845 0.697845 0.697845
0.735803 0.735803 0.735803
0.773760 0.773760 0.773760
0.811718 0.811718 0.811718
0.849676 0.849676 0.849676
0.887634 0.887634 0.887634
0.925591 0.925591 0.925591
0.720620 0.720620 0.720620
0.758577 0.758577 0.758577
0.796535 0.796535 0.796535
0.834493 0.834493 0.834493
0.872451 0.872451 0.872451
0.910408 0.910408 0.910408
0.948366 0.948366 0.948366
0.986324 0.986324 0.986324
1.000000 1.000000 1.000000
0.000000 0.000000 0.000000
0.000000 0.000000 0.000000
0.022197 0.022197 0.022197
0.060155 0.060155 0.060155
0.098113 0.098113 0.098113
0.136070 0.136070 0.136070
0.174028 0.174028 0.174028
0.211986 0.211986 0.211986
0.249944 0.249944 0.249944
0.044972 0.044972 0.044972
0.082930 0.082930 0.082930
0.120887 0.120887 0.120887
0.158845 0.158845 0.158845
0.196803 0.196803 0.196803
0.234761 0.234761 0.234761
0.272718 0.272718 0.272718
0.310676 0.310676 0.310676
0.348634 0.348634 0.348634
0.143662 0.143662 0.143662
0.181620 0.181620 0.181620
0.219577 0.219577 0.219577
0.257535 0.257535 0.257535
0.295493 0.295493 0.295493
0.333451 0.333451 0.333451
0.371408 0.371408 0.371408
0.409366 0.409366 0.409366
0.447324 0.447324 0.447324
0.242352 0.242352 0.242352
0.280310 0.280310 0.280310
0.318268 0.318268 0.318268
0.356225 0.356225 0.356225
0.394183 0.394183 0.394183
0.432141 0.432141 0.432141
0.470098 0.470098 0.470098
0.508056 0.508056 0.508056
0.546014 0.546014 0.546014
0.341042 0.341042 0.341042
0.379000 0.379000 0.379000
0.416958 0.416958 0.416958
0.454915 0.454915 0.454915
0.492873 0.492873 0.492873
0.530831 0.530831 0.530831
0.568789 0.568789 0.568789
0.606746 0.606746 0.606746
0.644704 0.644704 0.644704
0.439732 0.439732 0.439732
0.477690 0.477690 0.477690
0.515648 0.515648 0.515648
0.553606 0.553606 0.553606
0.591563 0.591563 0.591563
0.629521 0.629521 0.629521
0.667479 0.667479 0.667479
0.705436 0.705436 0.705436
0.743394 0.743394 0.743394
0.538422 0.538422 0.538422
0.576380 0.576380 0.576380
0.614338 0.614338 0.614338
0.652296 0.652296 0.652296
0.690253 0.690253 0.690253
0.728211 0.728211 0.728211
0.766169 0.766169 0.766169
0.804127 0.804127 0.804127
0.842084 0.842084 0.842084
0.637113 0.637113 0.637113
0.675070 0.675070 0.675070
0.713028 0.713028 0.713028
0.750986 0.750986 0.750986
0.788944 0.788944 0.788944
0.826901 0.826901 0.826901
0.864859 0.864859 0.864859
0.902817 0.902817 0.902817
0.940774 0.940774 0.940774
0.735803 0.735803 0.735803
0.773760 0.773760 0.773760
0.811718 0.811718 0.811718
0.849676 0.849676 0.849676
0.887634 0.887634 0.887634
0.925591 0.925591 0.925591
0.963549 0.963549 0.963549
1.000000 1.000000 1.000000
1.000000 1.000000 1.000000
0.000000 0.000000 0.000000
0.000000 0.000000 0.000000
0.037380 0.037380 0.037380
0.075338 0.075338 0.075338
0.113296 0.113296 0.113296
0.151253 0.151253 0.151253
0.189211 0.189211 0.189211
0.227169 0.227169 0.227169
0.265127 0.265127 0.265127
0.060155 0.060155 0.060155
0.098113 0.098113 0.098113
0.136070 0.136070 0.136070
0.174028 0.174028 0.174028
0.211986 0.211986 0.211986
0.249944 0.249944 0.249944
0.287901 0.287901 0.287901
0.325859 0.325859 0.325859
0.363817 0.363817 0.363817
0.158845 0.158845 0.158845
0.196803 0.196803 0.196803
0.234761 0.234761 0.234761
0.272718 0.272718 0.272718
0.310676 0.310676 0.310676
0.348634 0.348634 0.348634
0.386591 0.386591 0.386591
0.424549 0.424549 0.424549
0.462507 0.462507 0.462507
0.257535 0.257535 0.257535
0.295493 0.295493 0.295493
0.333451 0.333451 0.333451
0.371408 0.371408 0.371408
0.409366 0.409366 0.409366
0.447324 0.447324 0.447324
0.485282 0.485282 0.485282
0.523239 0.523239 0.523239
0.561197 0.561197 0.561197
0.356225 0.356225 0.356225
0.394183 0.394183 0.394183
0.432141 0.432141 0.432141
0.470098 0.470098 0.470098
0.508056 0.508056 0.508056
0.546014 0.546014 0.546014
0.583972 0.583972 0.583972
0.621929 0.621929 0.621929
0.659887 0.659887 0.659887
0.454915 0.454915 0.454915
0.492873 0.492873 0.492873
0.530831 0.530831 0.530831
0.568789 0.568789 0.568789
0.606746 0.606746 0.606746
0.644704 0.644704 0.644704
0.682662 0.682662 0.682662
0.720620 0.720620 0.720620
0.758577 0.758577 0.758577
0.553606 0.553606 0.553606
0.591563 0.591563 0.591563
0.629521 0.629521 0.629521
0.667479 0.667479 0.667479
0.705436 0.705436 0.705436
0.743394 0.743394 0.743394
0.781352 0.781352 0.781352
0.819310 0.819310 0.819310
0.857267 0.857267 0.857267
0.652296 0.652296 0.652296
0.690253 0.690253 0.690253
0.728211 0.728211 0.728211
0.766169 0.766169 0.766169
0.804127 0.804127 0.804127
0.842084 0.842084 0.842084
0.880042 0.880042 0.880042
0.918000 0.918000 0.918000
0.955958 0.955958 0.955958
0.750986 0.750986 0.750986
0.788944 0.788944 0.788944
0.826901 0.826901 0.826901
0.864859 0.864859 0.864859
0.902817 0.902817 0.902817
0.940774 0.940774 0.940774
0.978732 0.978732 0.978732
1.000000 1.000000 1.000000
1.000000 1.000000 1.000000
