fexer/Resources/LUTs/noir_bw.cube
TITLE "Noir BW"
LUT_3D_SIZE 33
DOMAIN_MIN 0.0 0.0 0.0
DOMAIN_MAX 1.0 1.0 1.0
0.000000 0.000000 0.000000
0.000000 0.000000 0.000000
0.000000 0.000000 0.000000
0.000000 0.000000 0.000000
0.000000 0.000000 0.000000
0.000000 0.000000 0.000000
0.000000 0.000000 0.000000
0.000000 0.000000 0.000000
0.000000 0.000000 0.000000
0.000000 0.000000 0.000000
0.000000 0.000000 0.000000
0.000000 0.000000 0.000000
0.000000 0.000000 0.000000
0.000000 0.000000 0.000000
0.000000 0.000000 0.000000
0.000000 0.000000 0.000000
0.000000 0.000000 0.000000
0.001320 0.001320 0.001320
0.010810 0.010810 0.010810
0.020299 0.020299 0.020299
0.029789 0.029789 0.029789
0.039278 0.039278 0.039278
0.048768 0.048768 0.048768
0.058257 0.058257 0.058257
0.067746 0.067746 0.067746
0.077236 0.077236 0.077236
0.086725 0.086725 0.086725
0.096215 0.096215 0.096215
0.105704 0.105704 0.105704
0.115194 0.115194 0.115194
0.124683 0.124683 0.124683
0.134172 0.134172 0.134172
0.143662 0.143662 0.143662
0.000000 0.000000 0.000000
0.000000 0.000000 0.000000
0.000000 0.000000 0.000000
0.000000 0.000000 0.000000
0.000000 0.000000 0.000000
0.000000 0.000000 0.000000
0.000000 0.000000 0.000000
0.000000 0.000000 0.000000
0.000000 0.000000 0.000000
0.000000 0.000000 0.000000
0.000000 0.000000 0.000000
0.000000 0.000000 0.000000
0.000000 0.000000 0.000000
0.000000 0.000000 0.000000
0.000000 0.000000 0.000000
0.007014 0.007014 0.007014
0.016503 0.016503 0.016503
0.025993 0.025993 0.025993
0.035482 0.035482 0.035482
0.044972 0.044972 0.044972
0.054461 0.054461 0.054461
0.063951 0.063951 0.063951
0.073440 0.073440 0.073440
0.082930 0.082930 0.082930
0.092419 0.092419 0.092419
0.101908 0.101908 0.101908
0.111398 0.111398 0.111398
0.120887 0.120887 0.120887
0.130377 0.130377 0.130377
0.139866 0.139866 0.139866
0.149356 0.149356 0.149356
0.158845 0.158845 0.158845
0.168334 0.168334 0.168334
0.000000 0.000000 0.000000
0.000000 0.000000 0.000000
0.000000 0.000000 0.000000
0.000000 0.000000 0.000000
0.000000 0.000000 0.000000
0.000000 0.000000 0.000000
0.000000 0.000000 0.000000
0.000000 0.000000 0.000000
0.000000 0.000000 0.000000
0.000000 0.000000 0.000000
0.000000 0.000000 0.000000
0.000000 0.000000 0.000000
0.003218 0.003218 0.003218
0.012708 0.012708 0.012708
0.022197 0.022197 0.022197
0.031687 0.031687 0.031687
0.041176 0.041176 0.041176
0.050665 0.050665 0.050665
0.060155 0.060155 0.060155
0.069644 0.069644 0.069644
0.079134 0.079134 0.079134
0.088623 0.088623 0.088623
0.098113 0.098113 0.098113
0.107602 0.107602 0.107602
0.117092 0.117092 0.117092
0.126581 0.126581 0.126581
0.136070 0.136070 0.136070
0.145560 0.145560 0.145560
0.155049 0.155049 0.155049
0.164539 0.164539 0.164539
0.174028 0.174028 0.174028
0.183518 0.183518 0.183518
0.193007 0.193007 0.193007
0.000000 0.000000 0.000000
0.000000 0.000000 0.000000
0.000000 0.000000 0.000000
0.000000 0.000000 0.000000
0.000000 0.000000 0.000000
0.000000 0.000000 0.000000
0.000000 0.000000 0.000000
0.000000 0.000000 0.000000
0.000000 0.000000 0.000000
0.000000 0.000000 0.000000
0.008912 0.008912 0.008912
0.018401 0.018401 0.018401
0.027891 0.027891 0.027891
0.037380 0.037380 0.037380
0.046870 0.046870 0.046870
0.056359 0.056359 0.056359
0.065849 0.065849 0.065849
0.075338 0.075338 0.075338
0.084827 0.084827 0.084827
0.094317 0.094317 0.094317
0.103806 0.103806 0.103806
0.113296 0.113296 0.113296
0.122785 0.122785 0.122785
0.132275 0.132275 0.132275
0.141764 0.141764 0.141764
0.151253 0.151253 0.151253
0.160743 0.160743 0.160743
0.170232 0.170232 0.170232
0.179722 0.179722 0.179722
0.189211 0.189211 0.189211
0.198701 0.198701 0.198701
0.208190 0.208190 0.208190
0.217680 0.217680 0.217680
0.000000 0.000000 0.000000
0.000000 0.000000 0.000000
0.000000 0.000000 0.000000
0.000000 0.000000 0.000000
0.000000 0.000000 0.000000
0.000000 0.000000 0.000000
0.000000 0.000000 0.000000
0.005116 0.005116 0.005116
0.014606 0.014606 0.014606
0.024095 0.024095 0.024095
0.033584 0.033584 0.033584
0.043074 0.043074 0.043074
0.052563 0.052563 0.052563
0.062053 0.062053 0.062053
0.071542 0.071542 0.071542
0.081032 0.081032 0.081032
0.090521 0.090521 0.090521
0.100011 0.100011 0.100011
0.109500 0.109500 0.109500
0.118989 0.118989 0.118989
0.128479 0.128479 0.128479
0.137968 0.137968 0.137968
0.147458 0.147458 0.147458
0.156947 0.156947 0.156947
0.166437 0.166437 0.166437
0.175926 0.175926 0.175926
0.185415 0.185415 0.185415
0.194905 0.194905 0.194905
0.204394 0.204394 0.204394
0.213884 0.213884 0.213884
0.223373 0.223373 0.223373
0.232863 0.232863 0.232863
0.242352 0.242352 0.242352
0.000000 0.000000 0.000000
0.000000 0.000000 0.000000
0.000000 0.000000 0.000000
0.000000 0.000000 0.000000
0.001320 0.001320 0.001320
0.010810 0.010810 0.010810
0.020299 0.020299 0.020299
0.029789 0.029789 0.029789
0.039278 0.039278 0.039278
0.048768 0.048768 0.048768
0.058257 0.058257 0.058257
0.067746 0.067746 0.067746
0.077236 0.077236 0.077236
0.086725 0.086725 0.086725
0.096215 0.096215 0.096215
0.105704 0.105704 0.105704
0.115194 0.115194 0.115194
0.124683 0.124683 0.124683
0.134172 0.134172 0.134172
0.143662 0.143662 0.143662
0.153151 0.153151 0.153151
0.162641 0.162641 0.162641
0.172130 0.172130 0.172130
0.181620 0.181620 0.181620
0.191109 0.191109 0.191109
0.200599 0.200599 0.200599
0.210088 0.210088 0.210088
0.219577 0.219577 0.219577
0.229067 0.229067 0.229067
0.238556 0.238556 0.238556
0.248046 0.248046 0.248046
0.257535 0.257535 0.257535
0.267025 0.267025 0.267025
0.000000 0.000000 0.000000
0.000000 0.000000 0.000000
0.007014 0.007014 0.007014
0.016503 0.016503 0.016503
0.025993 0.025993 0.025993
0.035482 0.035482 0.035482
0.044972 0.044972 0.044972
0.054461 0.054461 0.054461
0.063951 0.063951 0.063951
0.073440 0.073440 0.073440
0.082930 0.082930 0.082930
0.092419 0.092419 0.092419
0.101908 0.101908 0.101908
0.111398 0.111398 0.111398
0.120887 0.120887 0.120887
0.130377 0.130377 0.130377
0.139866 0.139866 0.139866
0.149356 0.149356 0.149356
0.158845 0.158845 0.158845
0.168334 0.168334 0.168334
0.177824 0.177824 0.177824
0.187313 0.187313 0.187313
0.196803 0.196803 0.196803
0.206292 0.206292 0.206292
0.215782 0.215782 0.215782
0.225271 0.225271 0.225271
0.234761 0.234761 0.234761
0.244250 0.244250 0.244250
0.253739 0.253739 0.253739
0.263229 0.263229 0.263229
0.272718 0.272718 0.272718
0.282208 0.282208 0.282208
0.291697 0.291697 0.291697
0.012708 0.012708 0.012708
0.022197 0.022197 0.022197
0.031687 0.031687 0.031687
0.041176 0.041176 0.041176
0.050665 0.050665 0.050665
0.060155 0.060155 0.060155
0.069644 0.069644 0.069644
0.079134 0.079134 0.079134
0.088623 0.088623 0.088623
0.098113 0.098113 0.098113
0.107602 0.107602 0.107602
0.117092 0.117092 0.117092
0.126581 0.126581 0.126581
0.136070 0.136070 0.136070
0.145560 0.145560 0.145560
0.155049 0.155049 0.155049
0.164539 0.164539 0.164539
0.174028 0.174028 0.174028
0.183518 0.183518 0.183518
0.193007 0.193007 0.193007
0.202496 0.202496 0.202496
0.211986 0.211986 0.211986
0.221475 0.221475 0.221475
0.230965 0.230965 0.230965
0.240454 0.240454 0.240454
0.249944 0.249944 0.249944
0.259433 0.259433 0.259433
0.268922 0.268922 0.268922
0.278412 0.278412 0.278412
0.287901 0.287901 0.287901
0.297391 0.297391 0.297391
0.306880 0.306880 0.306880
0.316370 0.316370 0.316370
0.037380 0.037380 0.037380
0.046870 0.046870 0.046870
0.056359 0.056359 0.056359
0.065849 0.065849 0.065849
0.075338 0.075338 0.075338
0.084827 0.084827 0.084827
0.094317 0.094317 0.094317
0.103806 0.103806 0.103806
0.113296 0.113296 0.113296
0.122785 0.122785 0.122785
0.132275 0.132275 0.132275
0.141764 0.141764 0.141764
0.151253 0.151253 0.151253
0.160743 0.160743 0.160743
0.170232 0.170232 0.170232
0.179722 0.179722 0.179722
0.189211 0.189211 0.189211
0.198701 0.198701 0.198701
0.208190 0.208190 0.208190
0.217680 0.217680 0.217680
0.227169 0.227169 0.227169
0.236658 0.236658 0.236658
0.246148 0.246148 0.246148
0.255637 0.255637 0.255637
0.265127 0.265127 0.265127
0.274616 0.274616 0.274616
0.284106 0.284106 0.284106
0.293595 0.293595 0.293595
0.303084 0.303084 0.303084
0.312574 0.312574 0.312574
0.322063 0.322063 0.322063
0.331553 0.331553 0.331553
0.341042 0.341042 0.341042
0.062053 0.062053 0.062053
0.071542 0.071542 0.071542
0.081032 0.081032 0.081032
0.090521 0.090521 0.090521
0.100011 0.100011 0.100011
0.109500 0.109500 0.109500
0.118989 0.118989 0.118989
0.128479 0.128479 0.128479
0.137968 0.137968 0.137968
0.147458 0.147458 0.147458
0.156947 0.156947 0.156947
0.166437 0.166437 0.166437
0.175926 0.175926 0.175926
0.185415 0.185415 0.185415
0.194905 0.194905 0.194905
0.204394 0.204394 0.204394
0.213884 0.213884 0.213884
0.223373 0.223373 0.223373
0.232863 0.232863 0.232863
0.242352 0.242352 0.242352
0.251841 0.251841 0.251841
0.261331 0.261331 0.261331
0.270820 0.270820 0.270820
0.280310 0.280310 0.280310
0.289799 0.289799 0.289799
0.299289 0.299289 0.299289
0.308778 0.308778 0.308778
0.318268 0.318268 0.318268
0.327757 0.327757 0.327757
0.337246 0.337246 0.337246
0.346736 0.346736 0.346736
0.356225 0.356225 0.356225
0.365715 0.365715 0.365715
0.086725 0.086725 0.086725
0.096215 0.096215 0.096215
0.105704 0.105704 0.105704
0.115194 0.115194 0.115194
0.124683 0.124683 0.124683
0.134172 0.134172 0.134172
0.143662 0.143662 0.143662
0.153151 0.153151 0.153151
0.162641 0.162641 0.162641
0.172130 0.172130 0.172130
0.181620 0.181620 0.181620
0.191109 0.191109 0.191109
0.200599 0.200599 0.200599
0.210088 0.210088 0.210088
0.219577 0.219577 0.219577
0.229067 0.229067 0.229067
0.238556 0.238556 0.238556
0.248046 0.248046 0.248046
0.257535 0.257535 0.257535
0.267025 0.267025 0.267025
0.276514 0.276514 0.276514
0.286003 0.286003 0.286003
0.295493 0.295493 0.295493
0.304982 0.304982 0.304982
0.314472 0.314472 0.314472
0.323961 0.323961 0.323961
0.333451 0.333451 0.333451
0.342940 0.342940 0.342940
0.352429 0.352429 0.352429
0.361919 0.361919 0.361919
0.371408 0.371408 0.371408
0.380898 0.380898 0.380898
0.390387 0.390387 0.390387
0.111398 0.111398 0.111398
0.120887 0.120887 0.120887
0.130377 0.130377 0.130377
0.139866 0.139866 0.139866
0.149356 0.149356 0.149356
0.158845 0.158845 0.158845
0.168334 0.168334 0.168334
0.177824 0.177824 0.177824
0.187313 0.187313 0.187313
0.196803 0.196803 0.196803
0.206292 0.206292 0.206292
0.215782 0.215782 0.215782
0.225271 0.225271 0.225271
0.234761 0.234761 0.234761
0.244250 0.244250 0.244250
0.253739 0.253739 0.253739
0.263229 0.263229 0.263229
0.272718 0.272718 0.272718
0.282208 0.282208 0.282208
0.291697 0.291697 0.291697
0.301187 0.301187 0.301187
0.310676 0.310676 0.310676
0.320165 0.320165 0.320165
0.329655 0.329655 0.329655
0.339144 0.339144 0.339144
0.348634 0.348634 0.348634
0.358123 0.358123 0.358123
0.367613 0.367613 0.367613
0.377102 0.377102 0.377102
0.386591 0.386591 0.386591
0.396081 0.396081 0.396081
0.405570 0.405570 0.405570
0.415060 0.415060 0.415060
0.136070 0.136070 0.136070
0.145560 0.145560 0.145560
0.155049 0.155049 0.155049
0.164539 0.164539 0.164539
0.174028 0.174028 0.174028
0.183518 0.183518 0.183518
0.193007 0.193007 0.193007
0.202496 0.202496 0.202496
0.211986 0.211986 0.211986
0.221475 0.221475 0.221475
0.230965 0.230965 0.230965
0.240454 0.240454 0.240454
0.249944 0.249944 0.249944
0.259433 0.259433 0.259433
0.268922 0.268922 0.268922
0.278412 0.278412 0.278412
0.287901 0.287901 0.287901
0.297391 0.297391 0.297391
0.306880 0.306880 0.306880
0.316370 0.316370 0.316370
0.325859 0.325859 0.325859
0.335349 0.335349 0.335349
0.344838 0.344838 0.344838
0.354327 0.354327 0.354327
0.363817 0.363817 0.363817
0.373306 0.373306 0.373306
0.382796 0.382796 0.382796
0.392285 0.392285 0.392285
0.401775 0.401775 0.401775
0.411264 0.411264 0.411264
0.420753 0.420753 0.420753
0.430243 0.430243 0.430243
0.439732 0.439732 0.439732
0.160743 0.160743 0.160743
0.170232 0.170232 0.170232
0.179722 0.179722 0.179722
0.189211 0.189211 0.189211
0.198701 0.198701 0.198701
0.208190 0.208190 0.208190
0.217680 0.217680 0.217680
0.227169 0.227169 0.227169
0.236658 0.236658 0.236658
0.246148 0.246148 0.246148
0.255637 0.255637 0.255637
0.265127 0.265127 0.265127
0.274616 0.274616 0.274616
0.284106 0.284106 0.284106
0.293595 0.293595 0.293595
0.303084 0.303084 0.303084
0.312574 0.312574 0.312574
0.322063 0.322063 0.322063
0.331553 0.331553 0.331553
0.341042 0.341042 0.341042
0.350532 0.350532 0.350532
0.360021 0.360021 0.360021
0.369510 0.369510 0.369510
0.379000 0.379000 0.379000
0.388489 0.388489 0.388489
0.397979 0.397979 0.397979
0.407468 0.407468 0.407468
0.416958 0.416958 0.416958
0.426447 0.426447 0.426447
0.435937 0.435937 0.435937
0.445426 0.445426 0.445426
0.454915 0.454915 0.454915
0.464405 0.464405 0.464405
0.185415 0.185415 0.185415
0.194905 0.194905 0.194905
0.204394 0.204394 0.204394
0.213884 0.213884 0.213884
0.223373 0.223373 0.223373
0.232863 0.232863 0.232863
0.242352 0.242352 0.242352
0.251841 0.251841 0.251841
0.261331 0.261331 0.261331
0.270820 0.270820 0.270820
0.280310 0.280310 0.280310
0.289799 0.289799 0.289799
0.299289 0.299289 0.299289
0.308778 0.308778 0.308778
0.318268 0.318268 0.318268
0.327757 0.327757 0.327757
0.337246 0.337246 0.337246
0.346736 0.346736 0.346736
0.356225 0.356225 0.356225
0.365715 0.365715 0.365715
0.375204 0.375204 0.375204
0.384694 0.384694 0.384694
0.394183 0.394183 0.394183
0.403672 0.403672 0.403672
0.413162 0.413162 0.413162
0.422651 0.422651 0.422651
0.432141 0.432141 0.432141
0.441630 0.441630 0.441630
0.451120 0.451120 0.451120
0.460609 0.460609 0.460609
0.470098 0.470098 0.470098
0.479588 0.479588 0.479588
0.489077 0.489077 0.489077
0.210088 0.210088 0.210088
0.219577 0.219577 0.219577
0.229067 0.229067 0.229067
0.238556 0.238556 0.238556
0.248046 0.248046 0.248046
0.257535 0.257535 0.257535
0.267025 0.267025 0.267025
0.276514 0.276514 0.276514
0.286003 0.286003 0.286003
0.295493 0.295493 0.295493
0.304982 0.304982 0.304982
0.314472 0.314472 0.314472
0.323961 0.323961 0.323961
0.333451 0.333451 0.333451
0.342940 0.342940 0.342940
0.352429 0.352429 0.352429
0.361919 0.361919 0.361919
0.371408 0.371408 0.371408
0.380898 0.380898 0.380898
0.390387 0.390387 0.390387
0.399877 0.399877 0.399877
0.409366 0.409366 0.409366
0.418856 0.418856 0.418856
0.428345 0.428345 0.428345
0.437834 0.437834 0.437834
0.447324 0.447324 0.447324
0.456813 0.456813 0.456813
0.466303 0.466303 0.466303
0.475792 0.475792 0.475792
0.485282 0.485282 0.485282
0.494771 0.494771 0.494771
0.504260 0.504260 0.504260
0.513750 0.513750 0.513750
0.234761 0.234761 0.234761
0.244250 0.244250 0.244250
0.253739 0.253739 0.253739
0.263229 0.263229 0.263229
0.272718 0.272718 0.272718
0.282208 0.282208 0.282208
0.291697 0.291697 0.291697
0.301187 0.301187 0.301187
0.310676 0.310676 0.310676
0.320165 0.320165 0.320165
0.329655 0.329655 0.329655
0.339144 0.339144 0.339144
0.348634 0.348634 0.348634
0.358123 0.358123 0.358123
0.367613 0.367613 0.367613
0.377102 0.377102 0.377102
0.386591 0.386591 0.386591
0.396081 0.396081 0.396081
0.405570 0.405570 0.405570
0.415060 0.415060 0.415060
0.424549 0.424549 0.424549
0.434039 0.434039 0.434039
0.443528 0.443528 0.443528
0.453018 0.453018 0.453018
0.462507 0.462507 0.462507
0.471996 0.471996 0.471996
0.481486 0.481486 0.481486
0.490975 0.490975 0.490975
0.500465 0.500465 0.500465
0.509954 0.509954 0.509954
0.519444 0.519444 0.519444
0.528933 0.528933 0.528933
0.538422 0.538422 0.538422
0.259433 0.259433 0.259433
0.268922 0.268922 0.268922
0.278412 0.278412 0.278412
0.287901 0.287901 0.287901
0.297391 0.297391 0.297391
0.306880 0.306880 0.306880
0.316370 0.316370 0.316370
0.325859 0.325859 0.325859
0.335349 0.335349 0.335349
0.344838 0.344838 0.344838
0.354327 0.354327 0.354327
0.363817 0.363817 0.363817
0.373306 0.373306 0.373306
0.382796 0.382796 0.382796
0.392285 0.392285 0.392285
0.401775 0.401775 0.401775
0.411264 0.411264 0.411264
0.420753 0.420753 0.420753
0.430243 0.430243 0.430243
0.439732 0.439732 0.439732
0.449222 0.449222 0.449222
0.458711 0.458711 0.458711
0.468201 0.468201 0.468201
0.477690 0.477690 0.477690
0.487179 0.487179 0.487179
0.496669 0.496669 0.496669
0.506158 0.506158 0.506158
0.515648 0.515648 0.515648
0.525137 0.525137 0.525137
0.534627 0.534627 0.534627
0.544116 0.544116 0.544116
0.553606 0.553606 0.553606
0.563095 0.563095 0.563095
0.284106 0.284106 0.284106
0.293595 0.293595 0.293595
0.303084 0.303084 0.303084
0.312574 0.312574 0.312574
0.322063 0.322063 0.322063
0.331553 0.331553 0.331553
0.341042 0.341042 0.341042
0.350532 0.350532 0.350532
0.360021 0.360021 0.360021
0.369510 0.369510 0.369510
0.379000 0.379000 0.379000
0.388489 0.388489 0.388489
0.397979 0.397979 0.397979
0.407468 0.407468 0.407468
0.416958 0.416958 0.416958
0.426447 0.426447 0.426447
0.435937 0.435937 0.435937
0.445426 0.445426 0.445426
0.454915 0.454915 0.454915
0.464405 0.464405 0.464405
0.473894 0.473894 0.473894
0.483384 0.483384 0.483384
0.492873 0.492873 0.492873
0.502363 0.502363 0.502363
0.511852 0.511852 0.511852
0.521341 0.521341 0.521341
0.530831 0.530831 0.530831
0.540320 0.540320 0.540320
0.549810 0.549810 0.549810
0.559299 0.559299 0.559299
0.568789 0.568789 0.568789
0.578278 0.578278 0.578278
0.587767 0.587767 0.587767
0.308778 0.308778 0.308778
0.318268 0.318268 0.318268
0.327757 0.327757 0.327757
0.337246 0.337246 0.337246
0.346736 0.346736 0.346736
0.356225 0.356225 0.356225
0.365715 0.365715 0.365715
0.375204 0.375204 0.375204
0.384694 0.384694 0.384694
0.394183 0.394183 0.394183
0.403672 0.403672 0.403672
0.413162 0.413162 0.413162
0.422651 0.422651 0.422651
0.432141 0.432141 0.432141
0.441630 0.441630 0.441630
0.451120 0.451120 0.451120
0.460609 0.460609 0.460609
0.470098 0.470098 0.470098
0.479588 0.479588 0.479588
0.489077 0.489077 0.489077
0.498567 0.498567 0.498567
0.508056 0.508056 0.508056
0.517546 0.517546 0.517546
0.527035 0.527035 0.527035
0.536525 0.536525 0.536525
0.546014 0.546014 0.546014
0.555503 0.555503 0.555503
0.564993 0.564993 0.564993
0.574482 0.574482 0.574482
0.583972 0.583972 0.583972
0.593461 0.593461 0.593461
0.602951 0.602951 0.602951
0.612440 0.612440 0.612440
0.333451 0.333451 0.333451
0.342940 0.342940 0.342940
0.352429 0.352429 0.352429
0.361919 0.361919 0.361919
0.371408 0.371408 0.371408
0.380898 0.380898 0.380898
0.390387 0.390387 0.390387
0.399877 0.399877 0.399877
0.409366 0.409366 0.409366
0.418856 0.418856 0.418856
0.428345 0.428345 0.428345
0.437834 0.437834 0.437834
0.447324 0.447324 0.447324
0.456813 0.456813 0.456813
0.466303 0.466303 0.466303
0.475792 0.475792 0.475792
0.485282 0.485282 0.485282
0.494771 0.494771 0.494771
0.504260 0.504260 0.504260
0.513750 0.513750 0.513750
0.523239 0.523239 0.523239
0.532729 0.532729 0.532729
0.542218 0.542218 0.542218
0.551708 0.551708 0.551708
0.561197 0.561197 0.561197
0.570687 0.570687 0.570687
0.580176 0.580176 0.580176
0.589665 0.589665 0.589665
0.599155 0.599155 0.599155
0.608644 0.608644 0.608644
0.618134 0.618134 0.618134
0.627623 0.627623 0.627623
0.637113 0.637113 0.637113
0.358123 0.358123 0.358123
0.367613 0.367613 0.367613
0.377102 0.377102 0.377102
0.386591 0.386591 0.386591
0.396081 0.396081 0.396081
0.405570 0.405570 0.405570
0.415060 0.415060 0.415060
0.424549 0.424549 0.424549
0.434039 0.434039 0.434039
0.443528 0.443528 0.443528
0.453018 0.453018 0.453018
0.462507 0.462507 0.462507
0.471996 0.471996 0.471996
0.481486 0.481486 0.481486
0.490975 0.490975 0.490975
0.500465 0.500465 0.500465
0.509954 0.509954 0.509954
0.519444 0.519444 0.519444
0.528933 0.528933 0.528933
0.538422 0.538422 0.538422
0.547912 0.547912 0.547912
0.557401 0.557401 0.557401
0.566891 0.566891 0.566891
0.576380 0.576380 0.576380
0.585870 0.585870 0.585870
0.595359 0.595359 0.595359
0.604848 0.604848 0.604848
0.614338 0.614338 0.614338
0.623827 0.623827 0.623827
0.633317 0.633317 0.633317
0.642806 0.642806 0.642806
0.652296 0.652296 0.652296
0.661785 0.661785 0.661785
0.382796 0.382796 0.382796
0.392285 0.392285 0.392285
0.401775 0.401775 0.401775
0.411264 0.411264 0.411264
0.420753 0.420753 0.420753
0.430243 0.430243 0.430243
0.439732 0.439732 0.439732
0.449222 0.449222 0.449222
0.458711 0.458711 0.458711
0.468201 0.468201 0.468201
0.477690 0.477690 0.477690
0.487179 0.487179 0.487179
0.496669 0.496669 0.496669
0.506158 0.506158 0.506158
0.515648 0.515648 0.515648
0.525137 0.525137 0.525137
0.534627 0.534627 0.534627
0.544116 0.544116 0.544116
0.553606 0.553606 0.553606
0.563095 0.563095 0.563095
0.572584 0.572584 0.572584
0.582074 0.582074 0.582074
0.591563 0.591563 0.591563
0.601053 0.601053 0.601053
0.610542 0.610542 0.610542
0.620032 0.620032 0.620032
0.629521 0.629521 0.629521
0.639010 0.639010 0.639010
0.648500 0.648500 0.648500
0.657989 0.657989 0.657989
0.667479 0.667479 0.667479
0.676968 0.676968 0.676968
0.686458 0.686458 0.686458
0.407468 0.407468 0.407468
0.416958 0.416958 0.416958
0.426447 0.426447 0.426447
0.435937 0.435937 0.435937
0.445426 0.445426 0.445426
0.454915 0.454915 0.454915
0.464405 0.464405 0.464405
0.473894 0.473894 0.473894
0.483384 0.483384 0.483384
0.492873 0.492873 0.492873
0.502363 0.502363 0.502363
0.511852 0.511852 0.511852
0.521341 0.521341 0.521341
0.530831 0.530831 0.530831
0.540320 0.540320 0.540320
0.549810 0.549810 0.549810
0.559299 0.559299 0.559299
0.568789 0.568789 0.568789
0.578278 0.578278 0.578278
0.587767 0.587767 0.587767
0.597257 0.597257 0.597257
0.606746 0.606746 0.606746
0.616236 0.616236 0.616236
0.625725 0.625725 0.625725
0.635215 0.635215 0.635215
0.644704 0.644704 0.644704
0.654194 0.654194 0.654194
0.663683 0.663683 0.663683
0.673172 0.673172 0.673172
0.682662 0.682662 0.682662
0.692151 0.692151 0.692151
0.701641 0.701641 0.701641
0.711130 0.711130 0.711130
0.432141 0.432141 0.432141
0.441630 0.441630 0.441630
0.451120 0.451120 0.451120
0.460609 0.460609 0.460609
0.470098 0.470098 0.470098
0.479588 0.479588 0.479588
0.489077 0.489077 0.489077
0.498567 0.498567 0.498567
0.508056 0.508056 0.508056
0.517546 0.517546 0.517546
0.527035 0.527035 0.527035
0.536525 0.536525 0.536525
0.546014 0.546014 0.546014
0.555503 0.555503 0.555503
0.564993 0.564993 0.564993
0.574482 0.574482 0.574482
0.583972 0.583972 0.583972
0.593461 0.593461 0.593461
0.602951 0.602951 0.602951
0.612440 0.612440 0.612440
0.621929 0.621929 0.621929
0.631419 0.631419 0.631419
0.640908 0.640908 0.640908
0.650398 0.650398 0.650398
0.659887 0.659887 0.659887
0.669377 0.669377 0.669377
0.678866 0.678866 0.678866
0.688356 0.688356 0.688356
0.697845 0.697845 0.697845
0.707334 0.707334 0.707334
0.716824 0.716824 0.716824
0.726313 0.726313 0.726313
0.735803 0.735803 0.735803
0.456813 0.456813 0.456813
0.466303 0.466303 0.466303
0.475792 0.475792 0.475792
0.485282 0.485282 0.485282
0.494771 0.494771 0.494771
0.504260 0.504260 0.504260
0.513750 0.513750 0.513750
0.523239 0.523239 0.523239
0.532729 0.532729 0.532729
0.542218 0.542218 0.542218
0.551708 0.551708 0.551708
0.561197 0.561197 0.561197
0.570687 0.570687 0.570687
0.580176 0.580176 0.580176
0.589665 0.589665 0.589665
0.599155 0.599155 0.599155
0.608644 0.608644 0.608644
0.618134 0.618134 0.618134
0.627623 0.627623 0.627623
0.637113 0.637113 0.637113
0.646602 0.646602 0.646602
0.656091 0.656091 0.656091
0.665581 0.665581 0.665581
0.675070 0.675070 0.675070
0.684560 0.684560 0.684560
0.694049 0.694049 0.694049
0.703539 0.703539 0.703539
0.713028 0.713028 0.713028
0.722517 0.722517 0.722517
0.732007 0.732007 0.732007
0.741496 0.741496 0.741496
0.750986 0.750986 0.750986
0.760475 0.760475 0.760475
0.481486 0.481486 0.481486
0.490975 0.490975 0.490975
0.500465 0.500465 0.500465
0.509954 0.509954 0.509954
0.519444 0.519444 0.519444
0.528933 0.528933 0.528933
0.538422 0.538422 0.538422
0.547912 0.547912 0.547912
0.557401 0.557401 0.557401
0.566891 0.566891 0.566891
0.576380 0.576380 0.576380
0.585870 0.585870 0.585870
0.595359 0.595359 0.595359
0.604848 0.604848 0.604848
0.614338 0.614338 0.614338
0.623827 0.623827 0.623827
0.633317 0.633317 0.633317
0.642806 0.642806 0.642806
0.652296 0.652296 0.652296
0.661785 0.661785 0.661785
0.671275 0.671275 0.671275
0.680764 0.680764 0.680764
0.690253 0.690253 0.690253
0.699743 0.699743 0.699743
0.709232 0.709232 0.709232
0.718722 0.718722 0.718722
0.728211 0.728211 0.728211
0.737701 0.737701 0.737701
