fexer/Resources/LUTs/noir_bw.cube
TITLE "Noir BW"
LUT_3D_SIZE 5
DOMAIN_MIN 0.0 0.0 0.0
DOMAIN_MAX 1.0 1.0 1.0
0.000000 0.000000 0.000000
0.000000 0.000000 0.000000
0.000000 0.000000 0.000000
0.067746 0.067746 0.067746
0.143662 0.143662 0.143662
0.037380 0.037380 0.037380
0.113296 0.113296 0.113296
0.189211 0.189211 0.189211
0.265127 0.265127 0.265127
0.341042 0.341042 0.341042
0.234761 0.234761 0.234761
0.310676 0.310676 0.310676
0.386591 0.386591 0.386591
0.462507 0.462507 0.462507
0.538422 0.538422 0.538422
0.432141 0.432141 0.432141
0.508056 0.508056 0.508056
0.583972 0.583972 0.583972
0.659887 0.659887 0.659887
0.735803 0.735803 0.735803
0.629521 0.629521 0.629521
0.705436 0.705436 0.705436
0.781352 0.781352 0.781352
0.857267 0.857267 0.857267
0.933183 0.933183 0.933183
0.000000 0.000000 0.000000
0.000000 0.000000 0.000000
0.022197 0.022197 0.022197
0.098113 0.098113 0.098113
0.174028 0.174028 0.174028
0.067746 0.067746 0.067746
0.143662 0.143662 0.143662
0.219577 0.219577 0.219577
0.295493 0.295493 0.295493
0.371408 0.371408 0.371408
0.265127 0.265127 0.265127
0.341042 0.341042 0.341042
0.416958 0.416958 0.416958
0.492873 0.492873 0.492873
0.568789 0.568789 0.568789
0.462507 0.462507 0.462507
0.538422 0.538422 0.538422
0.614338 0.614338 0.614338
0.690253 0.690253 0.690253
0.766169 0.766169 0.766169
0.659887 0.659887 0.659887
0.735803 0.735803 0.735803
0.811718 0.811718 0.811718
0.887634 0.887634 0.887634
0.963549 0.963549 0.963549
0.000000 0.000000 0.000000
0.000000 0.000000 0.000000
0.052563 0.052563 0.052563
0.128479 0.128479 0.128479
0.204394 0.204394 0.204394
0.098113 0.098113 0.098113
0.174028 0.174028 0.174028
0.249944 0.249944 0.249944
0.325859 0.325859 0.325859
0.401775 0.401775 0.401775
0.295493 0.295493 0.295493
0.371408 0.371408 0.371408
0.447324 0.447324 0.447324
0.523239 0.523239 0.523239
0.599155 0.599155 0.599155
0.492873 0.492873 0.492873
0.568789 0.568789 0.568789
0.644704 0.644704 0.644704
0.720620 0.720620 0.720620
0.796535 0.796535 0.796535
0.690253 0.690253 0.690253
0.766169 0.766169 0.766169
0.842084 0.842084 0.842084
0.918000 0.918000 0.918000
0.993915 0.993915 0.993915
0.000000 0.000000 0.000000
0.007014 0.007014 0.007014
0.082930 0.082930 0.082930
0.158845 0.158845 0.158845
0.234761 0.234761 0.234761
0.128479 0.128479 0.128479
0.204394 0.204394 0.204394
0.280310 0.280310 0.280310
0.356225 0.356225 0.356225
0.432141 0.432141 0.432141
0.325859 0.325859 0.325859
0.401775 0.401775 0.401775
0.477690 0.477690 0.477690
0.553606 0.553606 0.553606
0.629521 0.629521 0.629521
0.523239 0.523239 0.523239
0.599155 0.599155 0.599155
0.675070 0.675070 0.675070
0.750986 0.750986 0.750986
0.826901 0.826901 0.826901
0.720620 0.720620 0.720620
0.796535 0.796535 0.796535
0.872451 0.872451 0.872451
0.948366 0.948366 0.948366
1.000000 1.000000 1.000000
0.000000 0.000000 0.000000
0.037380 0.037380 0.037380
0.113296 0.113296 0.113296
0.189211 0.189211 0.189211
0.265127 0.265127 0.265127
0.158845 0.158845 0.158845
0.234761 0.234761 0.234761
0.310676 0.310676 0.310676
0.386591 0.386591 0.386591
0.462507 0.462507 0.462507
0.356225 0.356225 0.356225
0.432141 0.432141 0.432141
0.508056 0.508056 0.508056
0.583972 0.583972 0.583972
0.659887 0.659887 0.659887
0.553606 0.553606 0.553606
0.629521 0.629521 0.629521
0.705436 0.705436 0.705436
0.781352 0.781352 0.781352
0.857267 0.857267 0.857267
0.750986 0.750986 0.750986
0.826901 0.826901 0.826901
0.902817 0.902817 0.902817
0.978732 0.978732 0.978732
1.000000 1.000000 1.000000
