fexer/Resources/LUTs/portrait_warm.cube
TITLE "Portrait Warm"
LUT_3D_SIZE 9
DOMAIN_MIN 0.0 0.0 0.0
DOMAIN_MAX 1.0 1.0 1.0
0.135500 0.110750 0.063500
0.237261 0.113098 0.065848
0.339022 0.115447 0.068197
0.440783 0.117795 0.070545
0.542544 0.120143 0.072893
0.644304 0.122492 0.075242
0.746065 0.124840 0.077590
0.847826 0.127188 0.079938
0.949587 0.129537 0.082287
0.143400 0.218063 0.071400
0.245161 0.220411 0.073748
0.346922 0.222759 0.076097
0.448683 0.225108 0.078445
0.550444 0.227456 0.080793
0.652204 0.229804 0.083142
0.753965 0.232153 0.085490
0.855726 0.234501 0.087838
0.957487 0.236849 0.090187
0.151300 0.325375 0.079300
0.253061 0.327723 0.081648
0.354822 0.330072 0.083997
0.456583 0.332420 0.086345
0.558344 0.334768 0.088693
0.660104 0.337117 0.091042
0.761865 0.339465 0.093390
0.863626 0.341813 0.095738
0.965387 0.344162 0.098087
0.159200 0.432688 0.087200
0.260961 0.435036 0.089548
0.362722 0.437384 0.091897
0.464483 0.439733 0.094245
0.566244 0.442081 0.096593
0.668004 0.444429 0.098942
0.769765 0.446778 0.101290
0.871526 0.449126 0.103638
0.973287 0.451474 0.105987
0.167100 0.540000 0.095100
0.268861 0.542348 0.097448
0.370622 0.544697 0.099797
0.472383 0.547045 0.102145
0.574144 0.549394 0.104493
0.675904 0.551742 0.106842
0.777665 0.554090 0.109190
0.879426 0.556439 0.111538
0.981187 0.558787 0.113887
0.175000 0.647313 0.103000
0.276761 0.649661 0.105348
0.378522 0.652009 0.107697
0.480283 0.654358 0.110045
0.582043 0.656706 0.112393
0.683804 0.659054 0.114742
0.785565 0.661403 0.117090
0.887326 0.663751 0.119438
0.989087 0.666099 0.121787
0.182900 0.754625 0.110900
0.284661 0.756974 0.113248
0.386422 0.759322 0.115597
0.488183 0.761670 0.117945
0.589943 0.764019 0.120293
0.691704 0.766367 0.122642
0.793465 0.768715 0.124990
0.895265 0.771064 0.127299
0.997966 0.773412 0.128708
0.190800 0.861938 0.118800
0.292561 0.864286 0.121148
0.394322 0.866634 0.123497
0.496083 0.868983 0.125845
0.598225 0.871331 0.127812
0.700925 0.873679 0.129221
0.803625 0.876028 0.130630
0.906325 0.878376 0.132039
1.000000 0.880724 0.133448
0.198700 0.969250 0.126700
0.301184 0.971599 0.128325
0.403884 0.973947 0.129734
0.506585 0.976295 0.131143
0.609285 0.978644 0.132552
0.711985 0.980992 0.133961
0.814685 0.983340 0.135370
0.917385 0.985689 0.136779
1.000000 0.988037 0.138188
0.136298 0.111548 0.163710
0.238058 0.113896 0.166058
0.339819 0.116244 0.168407
0.441580 0.118593 0.170755
0.543341 0.120941 0.173103
0.645102 0.123289 0.175452
0.746863 0.125638 0.177800
0.848624 0.127986 0.180148
0.950385 0.130334 0.182497
0.144197 0.218860 0.171610
0.245958 0.221208 0.173958
0.347719 0.223557 0.176307
0.449480 0.225905 0.178655
0.551241 0.228253 0.181003
0.653002 0.230602 0.183352
0.754763 0.232950 0.185700
0.856524 0.235298 0.188048
0.958285 0.237647 0.190397
0.152097 0.326173 0.179510
0.253858 0.328521 0.181858
0.355619 0.330869 0.184207
0.457380 0.333218 0.186555
0.559141 0.335566 0.188903
0.660902 0.337914 0.191252
0.762663 0.340263 0.193600
0.864424 0.342611 0.195948
0.966185 0.344959 0.198297
0.159997 0.433485 0.187410
0.261758 0.435833 0.189758
0.363519 0.438182 0.192107
0.465280 0.440530 0.194455
0.567041 0.442878 0.196803
0.668802 0.445227 0.199152
0.770563 0.447575 0.201500
0.872324 0.449924 0.203848
0.974085 0.452272 0.206197
0.167897 0.540798 0.195310
0.269658 0.543146 0.197658
0.371419 0.545494 0.200007
0.473180 0.547843 0.202355
0.574941 0.550191 0.204703
0.676702 0.552539 0.207052
0.778463 0.554888 0.209400
0.880224 0.557236 0.211748
0.981985 0.559584 0.214097
0.175797 0.648110 0.203210
0.277558 0.650459 0.205558
0.379319 0.652807 0.207907
0.481080 0.655155 0.210255
0.582841 0.657504 0.212603
0.684602 0.659852 0.214952
0.786363 0.662200 0.217300
0.888124 0.664549 0.219648
0.989885 0.666897 0.221997
0.183697 0.755423 0.211110
0.285458 0.757771 0.213458
0.387219 0.760119 0.215807
0.488980 0.762468 0.218155
0.590741 0.764816 0.220503
0.692502 0.767164 0.222852
0.794263 0.769513 0.225200
0.896382 0.771861 0.227190
0.999082 0.774209 0.228599
0.191597 0.862735 0.219010
0.293358 0.865084 0.221358
0.395119 0.867432 0.223707
0.496880 0.869780 0.226055
0.599341 0.872129 0.227703
0.702042 0.874477 0.229112
0.804742 0.876825 0.230521
0.907442 0.879174 0.231930
1.000000 0.881522 0.233339
0.199600 0.970048 0.226807
0.302301 0.972396 0.228216
0.405001 0.974744 0.229625
0.507701 0.977093 0.231034
0.610401 0.979441 0.232443
0.713101 0.981789 0.233852
0.815802 0.984138 0.235261
0.918502 0.986486 0.236670
1.000000 0.988835 0.238079
0.137095 0.112345 0.263920
0.238856 0.114693 0.266268
0.340617 0.117042 0.268617
0.442378 0.119390 0.270965
0.544139 0.121738 0.273313
0.645899 0.124087 0.275662
0.747660 0.126435 0.278010
0.849421 0.128783 0.280359
0.951182 0.131132 0.282707
0.144995 0.219658 0.271820
0.246756 0.222006 0.274168
0.348517 0.224354 0.276517
0.450278 0.226703 0.278865
0.552039 0.229051 0.281213
0.653799 0.231399 0.283562
0.755560 0.233748 0.285910
0.857321 0.236096 0.288259
0.959082 0.238444 0.290607
0.152895 0.326970 0.279720
0.254656 0.329318 0.282068
0.356417 0.331667 0.284417
0.458178 0.334015 0.286765
0.559939 0.336363 0.289113
0.661699 0.338712 0.291462
0.763460 0.341060 0.293810
0.865221 0.343408 0.296158
0.966982 0.345757 0.298507
0.160795 0.434283 0.287620
0.262556 0.436631 0.289968
0.364317 0.438979 0.292317
0.466078 0.441328 0.294665
0.567839 0.443676 0.297013
0.669599 0.446024 0.299362
0.771360 0.448373 0.301710
0.873121 0.450721 0.304058
0.974882 0.453069 0.306407
0.168695 0.541595 0.295520
0.270456 0.543943 0.297868
0.372217 0.546292 0.300217
0.473978 0.548640 0.302565
0.575739 0.550989 0.304913
0.677499 0.553337 0.307262
0.779260 0.555685 0.309610
0.881021 0.558034 0.311958
0.982782 0.560382 0.314307
0.176595 0.648908 0.303420
0.278356 0.651256 0.305768
0.380117 0.653604 0.308117
0.481878 0.655953 0.310465
0.583639 0.658301 0.312813
0.685399 0.660649 0.315162
0.787160 0.662998 0.317510
0.888921 0.665346 0.319858
0.990682 0.667694 0.322207
0.184495 0.756220 0.311320
0.286256 0.758569 0.313668
0.388017 0.760917 0.316017
0.489778 0.763265 0.318365
0.591538 0.765614 0.320713
0.693299 0.767962 0.323062
0.795060 0.770310 0.325410
0.897499 0.772659 0.327081
1.000000 0.775007 0.328490
0.192395 0.863533 0.319220
0.294156 0.865881 0.321568
0.395917 0.868229 0.323917
0.497758 0.870578 0.326185
0.600458 0.872926 0.327594
0.703158 0.875274 0.329003
0.805858 0.877623 0.330412
0.908558 0.879971 0.331821
1.000000 0.882319 0.333230
0.200717 0.970845 0.326698
0.303417 0.973194 0.328107
0.406117 0.975542 0.329516
0.508818 0.977890 0.330925
0.611518 0.980239 0.332334
0.714218 0.982587 0.333743
0.816918 0.984935 0.335152
0.919618 0.987284 0.336561
1.000000 0.989632 0.337970
0.137893 0.113143 0.364130
0.239653 0.115491 0.366479
0.341414 0.117839 0.368827
0.443175 0.120188 0.371175
0.544936 0.122536 0.373524
0.646697 0.124884 0.375872
0.748458 0.127233 0.378220
0.850219 0.129581 0.380569
0.951980 0.131929 0.382917
0.145793 0.220455 0.372030
0.247553 0.222803 0.374378
0.349314 0.225152 0.376727
0.451075 0.227500 0.379075
0.552836 0.229848 0.381424
0.654597 0.232197 0.383772
0.756358 0.234545 0.386120
0.858119 0.236893 0.388469
0.959880 0.239242 0.390817
0.153692 0.327768 0.379930
0.255453 0.330116 0.382278
0.357214 0.332464 0.384627
0.458975 0.334813 0.386975
0.560736 0.337161 0.389324
0.662497 0.339509 0.391672
0.764258 0.341858 0.394020
0.866019 0.344206 0.396369
0.967780 0.346554 0.398717
0.161592 0.435080 0.387830
0.263353 0.437428 0.390178
0.365114 0.439777 0.392527
0.466875 0.442125 0.394875
0.568636 0.444474 0.397224
0.670397 0.446822 0.399572
0.772158 0.449170 0.401920
0.873919 0.451519 0.404269
0.975680 0.453867 0.406617
0.169492 0.542393 0.395730
0.271253 0.544741 0.398078
0.373014 0.547089 0.400427
0.474775 0.549438 0.402775
0.576536 0.551786 0.405123
0.678297 0.554134 0.407472
0.780058 0.556483 0.409820
0.881819 0.558831 0.412169
0.983580 0.561179 0.414517
0.177392 0.649705 0.403630
0.279153 0.652054 0.405978
0.380914 0.654402 0.408327
0.482675 0.656750 0.410675
0.584436 0.659099 0.413023
0.686197 0.661447 0.415372
0.787958 0.663795 0.417720
0.889719 0.666144 0.420069
0.991480 0.668492 0.422417
0.185292 0.757018 0.411530
0.287053 0.759366 0.413878
0.388814 0.761714 0.416227
0.490575 0.764063 0.418575
0.592336 0.766411 0.420923
0.694097 0.768759 0.423272
0.795915 0.771108 0.425563
0.898615 0.773456 0.426972
1.000000 0.775804 0.428381
0.193192 0.864330 0.419430
0.294953 0.866679 0.421778
0.396714 0.869027 0.424127
0.498874 0.871375 0.426076
0.601574 0.873724 0.427485
0.704275 0.876072 0.428894
0.806975 0.878420 0.430303
0.909675 0.880769 0.431712
1.000000 0.883117 0.433121
0.201833 0.971643 0.426589
0.304534 0.973991 0.427998
0.407234 0.976339 0.429407
0.509934 0.978688 0.430816
0.612634 0.981036 0.432225
0.715335 0.983384 0.433634
0.818035 0.985733 0.435043
0.920735 0.988081 0.436452
1.000000 0.990430 0.437861
0.138690 0.113940 0.464340
0.240451 0.116288 0.466689
0.342212 0.118637 0.469037
0.443973 0.120985 0.471385
0.545734 0.123333 0.473734
0.647494 0.125682 0.476082
0.749255 0.128030 0.478430
0.851016 0.130378 0.480779
0.952777 0.132727 0.483127
0.146590 0.221253 0.472240
0.248351 0.223601 0.474589
0.350112 0.225949 0.476937
0.451873 0.228298 0.479285
0.553634 0.230646 0.481634
0.655394 0.232994 0.483982
0.757155 0.235343 0.486330
0.858916 0.237691 0.488679
0.960677 0.240039 0.491027
0.154490 0.328565 0.480140
0.256251 0.330913 0.482489
0.358012 0.333262 0.484837
0.459773 0.335610 0.487185
0.561534 0.337958 0.489534
0.663294 0.340307 0.491882
0.765055 0.342655 0.494230
0.866816 0.345004 0.496579
0.968577 0.347352 0.498927
0.162390 0.435878 0.488040
0.264151 0.438226 0.490389
0.365912 0.440574 0.492737
0.467673 0.442923 0.495085
0.569434 0.445271 0.497434
0.671194 0.447619 0.499782
0.772955 0.449968 0.502130
0.874716 0.452316 0.504479
0.976477 0.454664 0.506827
0.170290 0.543190 0.495940
0.272051 0.545539 0.498289
0.373812 0.547887 0.500637
0.475573 0.550235 0.502985
0.577334 0.552584 0.505334
0.679094 0.554932 0.507682
0.780855 0.557280 0.510030
0.882616 0.559629 0.512379
0.984377 0.561977 0.514727
0.178190 0.650503 0.503840
0.279951 0.652851 0.506188
0.381712 0.655199 0.508537
0.483473 0.657548 0.510885
0.585234 0.659896 0.513234
0.686994 0.662244 0.515582
0.788755 0.664593 0.517930
0.890516 0.666941 0.520279
0.992277 0.669289 0.522627
0.186090 0.757815 0.511740
0.287851 0.760164 0.514088
0.389612 0.762512 0.516437
0.491373 0.764860 0.518785
0.593134 0.767209 0.521134
0.694894 0.769557 0.523482
0.797031 0.771905 0.525454
0.899732 0.774254 0.526863
1.000000 0.776602 0.528272
0.193990 0.865128 0.519640
0.295751 0.867476 0.521988
0.397512 0.869824 0.524337
0.499991 0.872173 0.525967
0.602691 0.874521 0.527376
0.705391 0.876869 0.528785
0.808091 0.879218 0.530194
0.910792 0.881566 0.531603
1.000000 0.883915 0.533012
0.202950 0.972440 0.526480
0.305650 0.974789 0.527889
0.408350 0.977137 0.529298
0.511051 0.979485 0.530707
0.613751 0.981834 0.532116
0.716451 0.984182 0.533525
0.819151 0.986530 0.534934
0.921851 0.988879 0.536343
1.000000 0.991227 0.537752
0.139488 0.114738 0.564550
0.241248 0.117086 0.566899
0.343009 0.119434 0.569247
0.444770 0.121783 0.571595
0.546531 0.124131 0.573944
0.648292 0.126479 0.576292
0.750053 0.128828 0.578640
0.851814 0.131176 0.580989
0.953575 0.133524 0.583337
0.147388 0.222050 0.572450
0.249148 0.224398 0.574799
0.350909 0.226747 0.577147
0.452670 0.229095 0.579495
0.554431 0.231443 0.581844
0.656192 0.233792 0.584192
0.757953 0.236140 0.586540
0.859714 0.238488 0.588889
0.961475 0.240837 0.591237
0.155288 0.329363 0.580350
0.257048 0.331711 0.582699
0.358809 0.334059 0.585047
0.460570 0.336408 0.587395
0.562331 0.338756 0.589744
0.664092 0.341104 0.592092
0.765853 0.343453 0.594440
0.867614 0.345801 0.596789
0.969375 0.348149 0.599137
0.163187 0.436675 0.588250
0.264948 0.439023 0.590599
0.366709 0.441372 0.592947
0.468470 0.443720 0.595295
0.570231 0.446069 0.597644
0.671992 0.448417 0.599992
0.773753 0.450765 0.602340
0.875514 0.453114 0.604689
0.977275 0.455462 0.607037
0.171087 0.543988 0.596150
0.272848 0.546336 0.598499
0.374609 0.548684 0.600847
0.476370 0.551033 0.603195
0.578131 0.553381 0.605544
0.679892 0.555729 0.607892
0.781653 0.558078 0.610240
0.883414 0.560426 0.612589
0.985175 0.562774 0.614937
0.178987 0.651300 0.604050
0.280748 0.653649 0.606399
0.382509 0.655997 0.608747
0.484270 0.658345 0.611095
0.586031 0.660694 0.613444
0.687792 0.663042 0.615792
0.789553 0.665390 0.618140
0.891314 0.667739 0.620489
0.993075 0.670087 0.622837
0.186887 0.758613 0.611950
0.288648 0.760961 0.614299
0.390409 0.763309 0.616647
0.492170 0.765658 0.618995
0.593931 0.768006 0.621344
0.695692 0.770354 0.623692
0.798148 0.772703 0.625345
0.900848 0.775051 0.626754
1.000000 0.777399 0.628163
0.194787 0.865925 0.619850
0.296548 0.868274 0.622199
0.398407 0.870622 0.624449
0.501107 0.872970 0.625858
0.603807 0.875319 0.627267
0.706508 0.877667 0.628676
0.809208 0.880015 0.630085
0.911908 0.882364 0.631494
1.000000 0.884712 0.632903
0.204066 0.973238 0.626371
0.306767 0.975586 0.627780
0.409467 0.977934 0.629189
0.512167 0.980283 0.630598
0.614867 0.982631 0.632007
0.717568 0.984980 0.633416
0.820268 0.987328 0.634825
0.922968 0.989676 0.636234
1.000000 0.992025 0.637643
0.140285 0.115535 0.664760
0.242046 0.117883 0.667109
0.343807 0.120232 0.669457
0.445568 0.122580 0.671805
0.547329 0.124928 0.674154
0.649090 0.127277 0.676502
0.750850 0.129625 0.678850
0.852611 0.131973 0.681199
0.954372 0.134322 0.683547
0.148185 0.222848 0.672660
0.249946 0.225196 0.675009
0.351707 0.227544 0.677357
0.453468 0.229893 0.679705
0.555229 0.232241 0.682054
0.656990 0.234589 0.684402
0.758750 0.236938 0.686750
0.860511 0.239286 0.689099
0.962272 0.241634 0.691447
0.156085 0.330160 0.680560
0.257846 0.332508 0.682909
0.359607 0.334857 0.685257
0.461368 0.337205 0.687605
0.563129 0.339553 0.689954
0.664889 0.341902 0.692302
0.766650 0.344250 0.694650
0.868411 0.346599 0.696999
0.970172 0.348947 0.699347
0.163985 0.437473 0.688460
0.265746 0.439821 0.690809
0.367507 0.442169 0.693157
0.469268 0.444518 0.695505
0.571029 0.446866 0.697854
0.672789 0.449214 0.700202
0.774550 0.451563 0.702550
0.876311 0.453911 0.704899
0.978072 0.456259 0.707247
0.171885 0.544785 0.696360
0.273646 0.547134 0.698709
0.375407 0.549482 0.701057
0.477168 0.551830 0.703405
0.578929 0.554179 0.705754
0.680689 0.556527 0.708102
0.782450 0.558875 0.710450
0.884211 0.561224 0.712799
0.985972 0.563572 0.715147
0.179785 0.652098 0.704260
0.281546 0.654446 0.706609
0.383307 0.656794 0.708957
0.485068 0.659143 0.711305
0.586829 0.661491 0.713654
0.688589 0.663839 0.716002
0.790350 0.666188 0.718350
0.892111 0.668536 0.720699
0.993872 0.670884 0.723047
0.187685 0.759410 0.712160
0.289446 0.761759 0.714509
0.391207 0.764107 0.716857
0.492968 0.766455 0.719205
0.594729 0.768804 0.721554
0.696564 0.771152 0.723827
0.799264 0.773500 0.725236
0.901965 0.775849 0.726645
1.000000 0.778197 0.728054
0.195585 0.866723 0.720060
0.297346 0.869071 0.722409
0.399523 0.871419 0.724340
0.502224 0.873768 0.725749
0.604924 0.876116 0.727158
0.707624 0.878464 0.728567
0.810324 0.880813 0.729976
0.913025 0.883161 0.731385
1.000000 0.885510 0.732794
0.205183 0.974035 0.726262
0.307883 0.976384 0.727671
0.410583 0.978732 0.729080
0.513284 0.981080 0.730489
0.615984 0.983429 0.731898
0.718684 0.985777 0.733307
0.821384 0.988125 0.734716
0.924085 0.990474 0.736125
1.000000 0.992822 0.737534
0.141083 0.116333 0.764970
0.242843 0.118681 0.767319
0.344604 0.121029 0.769667
0.446365 0.123378 0.772015
0.548126 0.125726 0.774364
0.649887 0.128074 0.776712
0.751648 0.130423 0.779060
0.853409 0.132771 0.781409
0.955170 0.135119 0.783757
0.148983 0.223645 0.772870
0.250743 0.225993 0.775219
0.352504 0.228342 0.777567
0.454265 0.230690 0.779915
0.556026 0.233038 0.782264
0.657787 0.235387 0.784612
0.759548 0.237735 0.786960
0.861309 0.240084 0.789309
0.963070 0.242432 0.791657
0.156883 0.330958 0.780770
0.258643 0.333306 0.783119
0.360404 0.335654 0.785467
0.462165 0.338003 0.787815
0.563926 0.340351 0.790164
0.665687 0.342699 0.792512
0.767448 0.345048 0.794860
0.869209 0.347396 0.797209
0.970970 0.349744 0.799557
0.164783 0.438270 0.788670
0.266543 0.440619 0.791019
0.368304 0.442967 0.793367
0.470065 0.445315 0.795715
0.571826 0.447664 0.798064
0.673587 0.450012 0.800412
0.775348 0.452360 0.802760
0.877109 0.454709 0.805109
0.978870 0.457057 0.807457
0.172683 0.545583 0.796570
0.274443 0.547931 0.798919
0.376204 0.550279 0.801267
0.477965 0.552628 0.803615
0.579726 0.554976 0.805964
0.681487 0.557324 0.808312
0.783248 0.559673 0.810660
0.885009 0.562021 0.813009
0.986770 0.564369 0.815357
0.180582 0.652895 0.804470
0.282343 0.655244 0.806819
0.384104 0.657592 0.809167
0.485865 0.659940 0.811515
0.587626 0.662289 0.813864
0.689387 0.664637 0.816212
0.791148 0.666985 0.818560
0.892909 0.669334 0.820909
0.994721 0.671682 0.823205
0.188482 0.760208 0.812370
0.290243 0.762556 0.814719
0.392004 0.764904 0.817067
0.493765 0.767253 0.819415
0.595526 0.769601 0.821764
0.697681 0.771949 0.823718
0.800381 0.774298 0.825127
0.903081 0.776646 0.826536
1.000000 0.778995 0.827945
0.196382 0.867520 0.820270
0.298143 0.869869 0.822619
0.400640 0.872217 0.824231
0.503340 0.874565 0.825640
0.606040 0.876914 0.827049
0.708741 0.879262 0.828458
0.811441 0.881610 0.829867
0.914141 0.883959 0.831276
1.000000 0.886307 0.832685
0.206299 0.974833 0.826153
0.309000 0.977181 0.827562
0.411700 0.979530 0.828971
0.514400 0.981878 0.830380
0.617100 0.984226 0.831789
0.719801 0.986575 0.833198
0.822501 0.988923 0.834607
0.925201 0.991271 0.836016
1.000000 0.993620 0.837425
0.141880 0.117130 0.865180
0.243641 0.119478 0.867529
0.345402 0.121827 0.869877
0.447163 0.124175 0.872225
0.548924 0.126523 0.874574
0.650685 0.128872 0.876922
0.752445 0.131220 0.879271
0.854206 0.133568 0.881619
0.955967 0.135917 0.883967
0.149780 0.224443 0.873080
0.251541 0.226791 0.875429
0.353302 0.229139 0.877777
0.455063 0.231488 0.880125
0.556824 0.233836 0.882474
0.658585 0.236184 0.884822
0.760345 0.238533 0.887171
0.862106 0.240881 0.889519
0.963867 0.243229 0.891867
0.157680 0.331755 0.880980
0.259441 0.334103 0.883329
0.361202 0.336452 0.885677
0.462963 0.338800 0.888025
0.564724 0.341149 0.890374
0.666485 0.343497 0.892722
0.768245 0.345845 0.895070
0.870006 0.348194 0.897419
0.971767 0.350542 0.899767
0.165580 0.439068 0.888880
0.267341 0.441416 0.891229
0.369102 0.443764 0.893577
0.470863 0.446113 0.895925
0.572624 0.448461 0.898274
0.674384 0.450809 0.900622
0.776145 0.453158 0.902970
0.877906 0.455506 0.905319
0.979667 0.457854 0.907667
0.173480 0.546380 0.896780
0.275241 0.548729 0.899129
0.377002 0.551077 0.901477
0.478763 0.553425 0.903825
0.580524 0.555774 0.906174
0.682284 0.558122 0.908522
0.784045 0.560470 0.910870
0.885806 0.562819 0.913219
0.987567 0.565167 0.915567
0.181380 0.653693 0.904680
0.283141 0.656041 0.907029
0.384902 0.658389 0.909377
0.486663 0.660738 0.911725
0.588424 0.663086 0.914074
0.690184 0.665434 0.916422
0.791945 0.667783 0.918770
0.893706 0.670131 0.921119
0.995838 0.672479 0.923096
0.189280 0.761005 0.912580
0.291041 0.763354 0.914929
0.392802 0.765702 0.917277
0.494563 0.768050 0.919625
0.596324 0.770399 0.921974
0.698797 0.772747 0.923609
0.801497 0.775095 0.925018
0.904198 0.777444 0.926427
1.000000 0.779792 0.927836
0.197180 0.868318 0.920480
0.299056 0.870666 0.922713
0.401756 0.873014 0.924122
0.504457 0.875363 0.925531
0.607157 0.877711 0.926940
0.709857 0.880060 0.928349
0.812557 0.882408 0.929758
0.915258 0.884756 0.931167
1.000000 0.887105 0.932576
0.207416 0.975630 0.926044
0.310116 0.977979 0.927453
0.412816 0.980327 0.928862
0.515517 0.982675 0.930271
0.618217 0.985024 0.931680
0.720917 0.987372 0.933089
0.823617 0.989720 0.934498
0.926318 0.992069 0.935907
1.000000 0.994417 0.937316
