fexer/Resources/LUTs/portrait_warm.cube
TITLE "Portrait Warm"
LUT_3D_SIZE 5
DOMAIN_MIN 0.0 0.0 0.0
DOMAIN_MAX 1.0 1.0 1.0
0.135500 0.110750 0.063500
0.339022 0.115447 0.068197
0.542544 0.120143 0.072893
0.746065 0.124840 0.077590
0.949587 0.129537 0.082287
0.151300 0.325375 0.079300
0.354822 0.330072 0.083997
0.558344 0.334768 0.088693
0.761865 0.339465 0.093390
0.965387 0.344162 0.098087
0.167100 0.540000 0.095100
0.370622 0.544697 0.099797
0.574144 0.549394 0.104493
0.777665 0.554090 0.109190
0.981187 0.558787 0.113887
0.182900 0.754625 0.110900
0.386422 0.759322 0.115597
0.589943 0.764019 0.120293
0.793465 0.768715 0.124990
0.997966 0.773412 0.128708
0.198700 0.969250 0.126700
0.403884 0.973947 0.129734
0.609285 0.978644 0.132552
0.814685 0.983340 0.135370
1.000000 0.988037 0.138188
0.137095 0.112345 0.263920
0.340617 0.117042 0.268617
0.544139 0.121738 0.273313
0.747660 0.126435 0.278010
0.951182 0.131132 0.282707
0.152895 0.326970 0.279720
0.356417 0.331667 0.284417
0.559939 0.336363 0.289113
0.763460 0.341060 0.293810
0.966982 0.345757 0.298507
0.168695 0.541595 0.295520
0.372217 0.546292 0.300217
0.575739 0.550989 0.304913
0.779260 0.555685 0.309610
0.982782 0.560382 0.314307
0.184495 0.756220 0.311320
0.388017 0.760917 0.316017
0.591538 0.765614 0.320713
0.795060 0.770310 0.325410
1.000000 0.775007 0.328490
0.200717 0.970845 0.326698
0.406117 0.975542 0.329516
0.611518 0.980239 0.332334
0.816918 0.984935 0.335152
1.000000 0.989632 0.337970
0.138690 0.113940 0.464340
0.342212 0.118637 0.469037
0.545734 0.123333 0.473734
0.749255 0.128030 0.478430
0.952777 0.132727 0.483127
0.154490 0.328565 0.480140
0.358012 0.333262 0.484837
0.561534 0.337958 0.489534
0.765055 0.342655 0.494230
0.968577 0.347352 0.498927
0.170290 0.543190 0.495940
0.373812 0.547887 0.500637
0.577334 0.552584 0.505334
0.780855 0.557280 0.510030
0.984377 0.561977 0.514727
0.186090 0.757815 0.511740
0.389612 0.762512 0.516437
0.593134 0.767209 0.521134
0.797031 0.771905 0.525454
1.000000 0.776602 0.528272
0.202950 0.972440 0.526480
0.408350 0.977137 0.529298
0.613751 0.981834 0.532116
0.819151 0.986530 0.534934
1.000000 0.991227 0.537752
0.140285 0.115535 0.664760
0.343807 0.120232 0.669457
0.547329 0.124928 0.674154
0.750850 0.129625 0.678850
0.954372 0.134322 0.683547
0.156085 0.330160 0.680560
0.359607 0.334857 0.685257
0.563129 0.339553 0.689954
0.766650 0.344250 0.694650
0.970172 0.348947 0.699347
0.171885 0.544785 0.696360
0.375407 0.549482 0.701057
0.578929 0.554179 0.705754
0.782450 0.558875 0.710450
0.985972 0.563572 0.715147
0.187685 0.759410 0.712160
0.391207 0.764107 0.716857
0.594729 0.768804 0.721554
0.799264 0.773500 0.725236
1.000000 0.778197 0.728054
0.205183 0.974035 0.726262
0.410583 0.978732 0.729080
0.615984 0.983429 0.731898
0.821384 0.988125 0.734716
1.000000 0.992822 0.737534
0.141880 0.117130 0.865180
0.345402 0.121827 0.869877
0.548924 0.126523 0.874574
0.752445 0.131220 0.879271
0.955967 0.135917 0.883967
0.157680 0.331755 0.880980
0.361202 0.336452 0.885677
0.564724 0.341149 0.890374
0.768245 0.345845 0.895070
0.971767 0.350542 0.899767
0.173480 0.546380 0.896780
0.377002 0.551077 0.901477
0.580524 0.555774 0.906174
0.784045 0.560470 0.910870
0.987567 0.565167 0.915567
0.189280 0.761005 0.912580
0.392802 0.765702 0.917277
0.596324 0.770399 0.921974
0.801497 0.775095 0.925018
1.000000 0.779792 0.927836
0.207416 0.975630 0.926044
0.412816 0.980327 0.928862
0.618217 0.985024 0.931680
0.823617 0.989720 0.934498
1.000000 0.994417 0.937316
