fexer/Resources/LUTs/portrait_warm.cube
TITLE "Portrait Warm"
LUT_3D_SIZE 33
DOMAIN_MIN 0.0 0.0 0.0
DOMAIN_MAX 1.0 1.0 1.0
0.135500 0.110750 0.063500
0.160940 0.111337 0.064087
0.186380 0.111924 0.064674
0.211821 0.112511 0.065261
0.237261 0.113098 0.065848
0.262701 0.113685 0.066435
0.288141 0.114273 0.067023
0.313582 0.114860 0.067610
0.339022 0.115447 0.068197
0.364462 0.116034 0.068784
0.389902 0.116621 0.069371
0.415342 0.117208 0.069958
0.440783 0.117795 0.070545
0.466223 0.118382 0.071132
0.491663 0.118969 0.071719
0.517103 0.119556 0.072306
0.542544 0.120143 0.072893
0.567984 0.120730 0.073480
0.593424 0.121318 0.074068
0.618864 0.121905 0.074655
0.644304 0.122492 0.075242
0.669745 0.123079 0.075829
0.695185 0.123666 0.076416
0.720625 0.124253 0.077003
0.746065 0.124840 0.077590
0.771506 0.125427 0.078177
0.796946 0.126014 0.078764
0.822386 0.126601 0.079351
0.847826 0.127188 0.079938
0.873266 0.127776 0.080526
0.898707 0.128363 0.081113
0.924147 0.128950 0.081700
0.949587 0.129537 0.082287
0.137475 0.137578 0.065475
0.162915 0.138165 0.066062
0.188355 0.138752 0.066649
0.213796 0.139339 0.067236
0.239236 0.139926 0.067823
0.264676 0.140514 0.068410
0.290116 0.141101 0.068998
0.315557 0.141688 0.069585
0.340997 0.142275 0.070172
0.366437 0.142862 0.070759
0.391877 0.143449 0.071346
0.417317 0.144036 0.071933
0.442758 0.144623 0.072520
0.468198 0.145210 0.073107
0.493638 0.145797 0.073694
0.519078 0.146384 0.074281
0.544519 0.146972 0.074868
0.569959 0.147559 0.075455
0.595399 0.148146 0.076043
0.620839 0.148733 0.076630
0.646279 0.149320 0.077217
0.671720 0.149907 0.077804
0.697160 0.150494 0.078391
0.722600 0.151081 0.078978
0.748040 0.151668 0.079565
0.773481 0.152255 0.080152
0.798921 0.152842 0.080739
0.824361 0.153429 0.081326
0.849801 0.154017 0.081913
0.875241 0.154604 0.082500
0.900682 0.155191 0.083088
0.926122 0.155778 0.083675
0.951562 0.156365 0.084262
0.139450 0.164406 0.067450
0.164890 0.164993 0.068037
0.190330 0.165580 0.068624
0.215771 0.166168 0.069211
0.241211 0.166755 0.069798
0.266651 0.167342 0.070385
0.292091 0.167929 0.070973
0.317532 0.168516 0.071560
0.342972 0.169103 0.072147
0.368412 0.169690 0.072734
0.393852 0.170277 0.073321
0.419292 0.170864 0.073908
0.444733 0.171451 0.074495
0.470173 0.172038 0.075082
0.495613 0.172625 0.075669
0.521053 0.173213 0.076256
0.546494 0.173800 0.076843
0.571934 0.174387 0.077430
0.597374 0.174974 0.078018
0.622814 0.175561 0.078605
0.648254 0.176148 0.079192
0.673695 0.176735 0.079779
0.699135 0.177322 0.080366
0.724575 0.177909 0.080953
0.750015 0.178496 0.081540
0.775456 0.179083 0.082127
0.800896 0.179671 0.082714
0.826336 0.180258 0.083301
0.851776 0.180845 0.083888
0.877216 0.181432 0.084475
0.902657 0.182019 0.085063
0.928097 0.182606 0.085650
0.953537 0.183193 0.086237
0.141425 0.191234 0.069425
0.166865 0.191821 0.070012
0.192305 0.192409 0.070599
0.217746 0.192996 0.071186
0.243186 0.193583 0.071773
0.268626 0.194170 0.072360
0.294066 0.194757 0.072948
0.319507 0.195344 0.073535
0.344947 0.195931 0.074122
0.370387 0.196518 0.074709
0.395827 0.197105 0.075296
0.421267 0.197692 0.075883
0.446708 0.198279 0.076470
0.472148 0.198867 0.077057
0.497588 0.199454 0.077644
0.523028 0.200041 0.078231
0.548469 0.200628 0.078818
0.573909 0.201215 0.079405
0.599349 0.201802 0.079993
0.624789 0.202389 0.080580
0.650229 0.202976 0.081167
0.675670 0.203563 0.081754
0.701110 0.204150 0.082341
0.726550 0.204737 0.082928
0.751990 0.205324 0.083515
0.777431 0.205912 0.084102
0.802871 0.206499 0.084689
0.828311 0.207086 0.085276
0.853751 0.207673 0.085863
0.879191 0.208260 0.086450
0.904632 0.208847 0.087038
0.930072 0.209434 0.087625
0.955512 0.210021 0.088212
0.143400 0.218063 0.071400
0.168840 0.218650 0.071987
0.194280 0.219237 0.072574
0.219721 0.219824 0.073161
0.245161 0.220411 0.073748
0.270601 0.220998 0.074335
0.296041 0.221585 0.074923
0.321482 0.222172 0.075510
0.346922 0.222759 0.076097
0.372362 0.223346 0.076684
0.397802 0.223933 0.077271
0.423242 0.224520 0.077858
0.448683 0.225108 0.078445
0.474123 0.225695 0.079032
0.499563 0.226282 0.079619
0.525003 0.226869 0.080206
0.550444 0.227456 0.080793
0.575884 0.228043 0.081380
0.601324 0.228630 0.081968
0.626764 0.229217 0.082555
0.652204 0.229804 0.083142
0.677645 0.230391 0.083729
0.703085 0.230978 0.084316
0.728525 0.231566 0.084903
0.753965 0.232153 0.085490
0.779406 0.232740 0.086077
0.804846 0.233327 0.086664
0.830286 0.233914 0.087251
0.855726 0.234501 0.087838
0.881166 0.235088 0.088425
0.906607 0.235675 0.089013
0.932047 0.236262 0.089600
0.957487 0.236849 0.090187
0.145375 0.244891 0.073375
0.170815 0.245478 0.073962
0.196255 0.246065 0.074549
0.221696 0.246652 0.075136
0.247136 0.247239 0.075723
0.272576 0.247826 0.076310
0.298016 0.248413 0.076897
0.323457 0.249000 0.077485
0.348897 0.249587 0.078072
0.374337 0.250174 0.078659
0.399777 0.250762 0.079246
0.425217 0.251349 0.079833
0.450658 0.251936 0.080420
0.476098 0.252523 0.081007
0.501538 0.253110 0.081594
0.526978 0.253697 0.082181
0.552419 0.254284 0.082768
0.577859 0.254871 0.083355
0.603299 0.255458 0.083943
0.628739 0.256045 0.084530
0.654179 0.256632 0.085117
0.679620 0.257219 0.085704
0.705060 0.257807 0.086291
0.730500 0.258394 0.086878
0.755940 0.258981 0.087465
0.781381 0.259568 0.088052
0.806821 0.260155 0.088639
0.832261 0.260742 0.089226
0.857701 0.261329 0.089813
0.883141 0.261916 0.090400
0.908582 0.262503 0.090988
0.934022 0.263090 0.091575
0.959462 0.263677 0.092162
0.147350 0.271719 0.075350
0.172790 0.272306 0.075937
0.198230 0.272893 0.076524
0.223671 0.273480 0.077111
0.249111 0.274067 0.077698
0.274551 0.274654 0.078285
0.299991 0.275241 0.078872
0.325432 0.275828 0.079460
0.350872 0.276415 0.080047
0.376312 0.277003 0.080634
0.401752 0.277590 0.081221
0.427192 0.278177 0.081808
0.452633 0.278764 0.082395
0.478073 0.279351 0.082982
0.503513 0.279938 0.083569
0.528953 0.280525 0.084156
0.554394 0.281112 0.084743
0.579834 0.281699 0.085330
0.605274 0.282286 0.085918
0.630714 0.282873 0.086505
0.656154 0.283461 0.087092
0.681595 0.284048 0.087679
0.707035 0.284635 0.088266
0.732475 0.285222 0.088853
0.757915 0.285809 0.089440
0.783356 0.286396 0.090027
0.808796 0.286983 0.090614
0.834236 0.287570 0.091201
0.859676 0.288157 0.091788
0.885116 0.288744 0.092375
0.910557 0.289331 0.092963
0.935997 0.289918 0.093550
0.961437 0.290506 0.094137
0.149325 0.298547 0.077325
0.174765 0.299134 0.077912
0.200205 0.299721 0.078499
0.225646 0.300308 0.079086
0.251086 0.300895 0.079673
0.276526 0.301482 0.080260
0.301966 0.302069 0.080847
0.327407 0.302657 0.081435
0.352847 0.303244 0.082022
0.378287 0.303831 0.082609
0.403727 0.304418 0.083196
0.429167 0.305005 0.083783
0.454608 0.305592 0.084370
0.480048 0.306179 0.084957
0.505488 0.306766 0.085544
0.530928 0.307353 0.086131
0.556369 0.307940 0.086718
0.581809 0.308527 0.087305
0.607249 0.309114 0.087893
0.632689 0.309702 0.088480
0.658129 0.310289 0.089067
0.683570 0.310876 0.089654
0.709010 0.311463 0.090241
0.734450 0.312050 0.090828
0.759890 0.312637 0.091415
0.785331 0.313224 0.092002
0.810771 0.313811 0.092589
0.836211 0.314398 0.093176
0.861651 0.314985 0.093763
0.887091 0.315572 0.094350
0.912532 0.316160 0.094938
0.937972 0.316747 0.095525
0.963412 0.317334 0.096112
0.151300 0.325375 0.079300
0.176740 0.325962 0.079887
0.202180 0.326549 0.080474
0.227621 0.327136 0.081061
0.253061 0.327723 0.081648
0.278501 0.328310 0.082235
0.303941 0.328898 0.082822
0.329382 0.329485 0.083410
0.354822 0.330072 0.083997
0.380262 0.330659 0.084584
0.405702 0.331246 0.085171
0.431142 0.331833 0.085758
0.456583 0.332420 0.086345
0.482023 0.333007 0.086932
0.507463 0.333594 0.087519
0.532903 0.334181 0.088106
0.558344 0.334768 0.088693
0.583784 0.335356 0.089280
0.609224 0.335943 0.089868
0.634664 0.336530 0.090455
0.660104 0.337117 0.091042
0.685545 0.337704 0.091629
0.710985 0.338291 0.092216
0.736425 0.338878 0.092803
0.761865 0.339465 0.093390
0.787306 0.340052 0.093977
0.812746 0.340639 0.094564
0.838186 0.341226 0.095151
0.863626 0.341813 0.095738
0.889066 0.342401 0.096325
0.914507 0.342988 0.096913
0.939947 0.343575 0.097500
0.965387 0.344162 0.098087
0.153275 0.352203 0.081275
0.178715 0.352790 0.081862
0.204155 0.353377 0.082449
0.229596 0.353964 0.083036
0.255036 0.354552 0.083623
0.280476 0.355139 0.084210
0.305916 0.355726 0.084797
0.331357 0.356313 0.085385
0.356797 0.356900 0.085972
0.382237 0.357487 0.086559
0.407677 0.358074 0.087146
0.433117 0.358661 0.087733
0.458558 0.359248 0.088320
0.483998 0.359835 0.088907
0.509438 0.360422 0.089494
0.534878 0.361009 0.090081
0.560319 0.361597 0.090668
0.585759 0.362184 0.091255
0.611199 0.362771 0.091843
0.636639 0.363358 0.092430
0.662079 0.363945 0.093017
0.687520 0.364532 0.093604
0.712960 0.365119 0.094191
0.738400 0.365706 0.094778
0.763840 0.366293 0.095365
0.789281 0.366880 0.095952
0.814721 0.367467 0.096539
0.840161 0.368055 0.097126
0.865601 0.368642 0.097713
0.891041 0.369229 0.098300
0.916482 0.369816 0.098888
0.941922 0.370403 0.099475
0.967362 0.370990 0.100062
0.155250 0.379031 0.083250
0.180690 0.379618 0.083837
0.206130 0.380205 0.084424
0.231571 0.380793 0.085011
0.257011 0.381380 0.085598
0.282451 0.381967 0.086185
0.307891 0.382554 0.086772
0.333332 0.383141 0.087360
0.358772 0.383728 0.087947
0.384212 0.384315 0.088534
0.409652 0.384902 0.089121
0.435092 0.385489 0.089708
0.460533 0.386076 0.090295
0.485973 0.386663 0.090882
0.511413 0.387251 0.091469
0.536853 0.387838 0.092056
0.562294 0.388425 0.092643
0.587734 0.389012 0.093230
0.613174 0.389599 0.093818
0.638614 0.390186 0.094405
0.664054 0.390773 0.094992
0.689495 0.391360 0.095579
0.714935 0.391947 0.096166
0.740375 0.392534 0.096753
0.765815 0.393121 0.097340
0.791256 0.393708 0.097927
0.816696 0.394296 0.098514
0.842136 0.394883 0.099101
0.867576 0.395470 0.099688
0.893016 0.396057 0.100275
0.918457 0.396644 0.100863
0.943897 0.397231 0.101450
0.969337 0.397818 0.102037
0.157225 0.405859 0.085225
0.182665 0.406447 0.085812
0.208105 0.407034 0.086399
0.233546 0.407621 0.086986
0.258986 0.408208 0.087573
0.284426 0.408795 0.088160
0.309866 0.409382 0.088747
0.335307 0.409969 0.089335
0.360747 0.410556 0.089922
0.386187 0.411143 0.090509
0.411627 0.411730 0.091096
0.437067 0.412317 0.091683
0.462508 0.412904 0.092270
0.487948 0.413492 0.092857
0.513388 0.414079 0.093444
0.538828 0.414666 0.094031
0.564269 0.415253 0.094618
0.589709 0.415840 0.095205
0.615149 0.416427 0.095793
0.640589 0.417014 0.096380
0.666029 0.417601 0.096967
0.691470 0.418188 0.097554
0.716910 0.418775 0.098141
0.742350 0.419362 0.098728
0.767790 0.419950 0.099315
0.793231 0.420537 0.099902
0.818671 0.421124 0.100489
0.844111 0.421711 0.101076
0.869551 0.422298 0.101663
0.894991 0.422885 0.102250
0.920432 0.423472 0.102838
0.945872 0.424059 0.103425
0.971312 0.424646 0.104012
0.159200 0.432688 0.087200
0.184640 0.433275 0.087787
0.210080 0.433862 0.088374
0.235521 0.434449 0.088961
0.260961 0.435036 0.089548
0.286401 0.435623 0.090135
0.311841 0.436210 0.090722
0.337282 0.436797 0.091310
0.362722 0.437384 0.091897
0.388162 0.437971 0.092484
0.413602 0.438558 0.093071
0.439042 0.439146 0.093658
0.464483 0.439733 0.094245
0.489923 0.440320 0.094832
0.515363 0.440907 0.095419
0.540803 0.441494 0.096006
0.566244 0.442081 0.096593
0.591684 0.442668 0.097180
0.617124 0.443255 0.097768
0.642564 0.443842 0.098355
0.668004 0.444429 0.098942
0.693445 0.445016 0.099529
0.718885 0.445603 0.100116
0.744325 0.446191 0.100703
0.769765 0.446778 0.101290
0.795206 0.447365 0.101877
0.820646 0.447952 0.102464
0.846086 0.448539 0.103051
0.871526 0.449126 0.103638
0.896966 0.449713 0.104225
0.922407 0.450300 0.104813
0.947847 0.450887 0.105400
0.973287 0.451474 0.105987
0.161175 0.459516 0.089175
0.186615 0.460103 0.089762
0.212055 0.460690 0.090349
0.237496 0.461277 0.090936
0.262936 0.461864 0.091523
0.288376 0.462451 0.092110
0.313816 0.463038 0.092697
0.339257 0.463625 0.093285
0.364697 0.464212 0.093872
0.390137 0.464800 0.094459
0.415577 0.465387 0.095046
0.441017 0.465974 0.095633
0.466458 0.466561 0.096220
0.491898 0.467148 0.096807
0.517338 0.467735 0.097394
0.542778 0.468322 0.097981
0.568219 0.468909 0.098568
0.593659 0.469496 0.099155
0.619099 0.470083 0.099743
0.644539 0.470670 0.100330
0.669979 0.471257 0.100917
0.695420 0.471845 0.101504
0.720860 0.472432 0.102091
0.746300 0.473019 0.102678
0.771740 0.473606 0.103265
0.797181 0.474193 0.103852
0.822621 0.474780 0.104439
0.848061 0.475367 0.105026
0.873501 0.475954 0.105613
0.898941 0.476541 0.106200
0.924382 0.477128 0.106788
0.949822 0.477715 0.107375
0.975262 0.478302 0.107962
0.163150 0.486344 0.091150
0.188590 0.486931 0.091737
0.214030 0.487518 0.092324
0.239471 0.488105 0.092911
0.264911 0.488692 0.093498
0.290351 0.489279 0.094085
0.315791 0.489866 0.094672
0.341232 0.490453 0.095260
0.366672 0.491041 0.095847
0.392112 0.491628 0.096434
0.417552 0.492215 0.097021
0.442992 0.492802 0.097608
0.468433 0.493389 0.098195
0.493873 0.493976 0.098782
0.519313 0.494563 0.099369
0.544753 0.495150 0.099956
0.570194 0.495737 0.100543
0.595634 0.496324 0.101130
0.621074 0.496911 0.101717
0.646514 0.497498 0.102305
0.671954 0.498086 0.102892
0.697395 0.498673 0.103479
0.722835 0.499260 0.104066
0.748275 0.499847 0.104653
0.773715 0.500434 0.105240
0.799156 0.501021 0.105827
0.824596 0.501608 0.106414
0.850036 0.502195 0.107001
0.875476 0.502782 0.107588
0.900916 0.503369 0.108175
0.926357 0.503956 0.108763
0.951797 0.504544 0.109350
0.977237 0.505131 0.109937
0.165125 0.513172 0.093125
0.190565 0.513759 0.093712
0.216005 0.514346 0.094299
0.241446 0.514933 0.094886
0.266886 0.515520 0.095473
0.292326 0.516107 0.096060
0.317766 0.516695 0.096647
0.343206 0.517282 0.097235
0.368647 0.517869 0.097822
0.394087 0.518456 0.098409
0.419527 0.519043 0.098996
0.444967 0.519630 0.099583
0.470408 0.520217 0.100170
0.495848 0.520804 0.100757
0.521288 0.521391 0.101344
0.546728 0.521978 0.101931
0.572169 0.522565 0.102518
0.597609 0.523152 0.103105
0.623049 0.523740 0.103692
0.648489 0.524327 0.104280
0.673929 0.524914 0.104867
0.699370 0.525501 0.105454
0.724810 0.526088 0.106041
0.750250 0.526675 0.106628
0.775690 0.527262 0.107215
0.801131 0.527849 0.107802
0.826571 0.528436 0.108389
0.852011 0.529023 0.108976
0.877451 0.529610 0.109563
0.902891 0.530197 0.110150
0.928332 0.530785 0.110738
0.953772 0.531372 0.111325
0.979212 0.531959 0.111912
0.167100 0.540000 0.095100
0.192540 0.540587 0.095687
0.217980 0.541174 0.096274
0.243421 0.541761 0.096861
0.268861 0.542348 0.097448
0.294301 0.542936 0.098035
0.319741 0.543523 0.098622
0.345181 0.544110 0.099210
0.370622 0.544697 0.099797
0.396062 0.545284 0.100384
0.421502 0.545871 0.100971
0.446942 0.546458 0.101558
0.472383 0.547045 0.102145
0.497823 0.547632 0.102732
0.523263 0.548219 0.103319
0.548703 0.548806 0.103906
0.574144 0.549394 0.104493
0.599584 0.549981 0.105080
0.625024 0.550568 0.105667
0.650464 0.551155 0.106255
0.675904 0.551742 0.106842
0.701345 0.552329 0.107429
0.726785 0.552916 0.108016
0.752225 0.553503 0.108603
0.777665 0.554090 0.109190
0.803106 0.554677 0.109777
0.828546 0.555264 0.110364
0.853986 0.555851 0.110951
0.879426 0.556439 0.111538
0.904866 0.557026 0.112125
0.930307 0.557613 0.112713
0.955747 0.558200 0.113300
0.981187 0.558787 0.113887
0.169075 0.566828 0.097075
0.194515 0.567415 0.097662
0.219955 0.568002 0.098249
0.245396 0.568590 0.098836
0.270836 0.569177 0.099423
0.296276 0.569764 0.100010
0.321716 0.570351 0.100597
0.347156 0.570938 0.101185
0.372597 0.571525 0.101772
0.398037 0.572112 0.102359
0.423477 0.572699 0.102946
0.448917 0.573286 0.103533
0.474358 0.573873 0.104120
0.499798 0.574460 0.104707
0.525238 0.575047 0.105294
0.550678 0.575635 0.105881
0.576118 0.576222 0.106468
0.601559 0.576809 0.107055
0.626999 0.577396 0.107642
0.652439 0.577983 0.108230
0.677879 0.578570 0.108817
0.703320 0.579157 0.109404
0.728760 0.579744 0.109991
0.754200 0.580331 0.110578
0.779640 0.580918 0.111165
0.805081 0.581505 0.111752
0.830521 0.582092 0.112339
0.855961 0.582680 0.112926
0.881401 0.583267 0.113513
0.906841 0.583854 0.114100
0.932282 0.584441 0.114688
0.957722 0.585028 0.115275
0.983162 0.585615 0.115862
0.171050 0.593656 0.099050
0.196490 0.594243 0.099637
0.221930 0.594831 0.100224
0.247371 0.595418 0.100811
0.272811 0.596005 0.101398
0.298251 0.596592 0.101985
0.323691 0.597179 0.102572
0.349131 0.597766 0.103160
0.374572 0.598353 0.103747
0.400012 0.598940 0.104334
0.425452 0.599527 0.104921
0.450892 0.600114 0.105508
0.476333 0.600701 0.106095
0.501773 0.601289 0.106682
0.527213 0.601876 0.107269
0.552653 0.602463 0.107856
0.578093 0.603050 0.108443
0.603534 0.603637 0.109030
0.628974 0.604224 0.109617
0.654414 0.604811 0.110205
0.679854 0.605398 0.110792
0.705295 0.605985 0.111379
0.730735 0.606572 0.111966
0.756175 0.607159 0.112553
0.781615 0.607746 0.113140
0.807056 0.608334 0.113727
0.832496 0.608921 0.114314
0.857936 0.609508 0.114901
0.883376 0.610095 0.115488
0.908816 0.610682 0.116075
0.934257 0.611269 0.116663
0.959697 0.611856 0.117250
0.985137 0.612443 0.117837
0.173025 0.620485 0.101025
0.198465 0.621072 0.101612
0.223905 0.621659 0.102199
0.249346 0.622246 0.102786
0.274786 0.622833 0.103373
0.300226 0.623420 0.103960
0.325666 0.624007 0.104547
0.351106 0.624594 0.105135
0.376547 0.625181 0.105722
0.401987 0.625768 0.106309
0.427427 0.626355 0.106896
0.452867 0.626942 0.107483
0.478308 0.627530 0.108070
0.503748 0.628117 0.108657
0.529188 0.628704 0.109244
0.554628 0.629291 0.109831
0.580068 0.629878 0.110418
0.605509 0.630465 0.111005
0.630949 0.631052 0.111592
0.656389 0.631639 0.112180
0.681829 0.632226 0.112767
0.707270 0.632813 0.113354
0.732710 0.633400 0.113941
0.758150 0.633988 0.114528
0.783590 0.634575 0.115115
0.809030 0.635162 0.115702
0.834471 0.635749 0.116289
0.859911 0.636336 0.116876
0.885351 0.636923 0.117463
0.910791 0.637510 0.118050
0.936232 0.638097 0.118638
0.961672 0.638684 0.119225
0.987112 0.639271 0.119812
0.175000 0.647313 0.103000
0.200440 0.647900 0.103587
0.225880 0.648487 0.104174
0.251321 0.649074 0.104761
0.276761 0.649661 0.105348
0.302201 0.650248 0.105935
0.327641 0.650835 0.106522
0.353081 0.651422 0.107110
0.378522 0.652009 0.107697
0.403962 0.652596 0.108284
0.429402 0.653184 0.108871
0.454842 0.653771 0.109458
0.480283 0.654358 0.110045
0.505723 0.654945 0.110632
0.531163 0.655532 0.111219
0.556603 0.656119 0.111806
0.582043 0.656706 0.112393
0.607484 0.657293 0.112980
0.632924 0.657880 0.113567
0.658364 0.658467 0.114155
0.683804 0.659054 0.114742
0.709245 0.659641 0.115329
0.734685 0.660229 0.115916
0.760125 0.660816 0.116503
0.785565 0.661403 0.117090
0.811005 0.661990 0.117677
0.836446 0.662577 0.118264
0.861886 0.663164 0.118851
0.887326 0.663751 0.119438
0.912766 0.664338 0.120025
0.938207 0.664925 0.120613
0.963647 0.665512 0.121200
0.989087 0.666099 0.121787
0.176975 0.674141 0.104975
0.202415 0.674728 0.105562
0.227855 0.675315 0.106149
0.253296 0.675902 0.106736
0.278736 0.676489 0.107323
0.304176 0.677076 0.107910
0.329616 0.677663 0.108497
0.355056 0.678250 0.109085
0.380497 0.678837 0.109672
0.405937 0.679425 0.110259
0.431377 0.680012 0.110846
0.456817 0.680599 0.111433
0.482258 0.681186 0.112020
0.507698 0.681773 0.112607
0.533138 0.682360 0.113194
0.558578 0.682947 0.113781
0.584018 0.683534 0.114368
0.609459 0.684121 0.114955
0.634899 0.684708 0.115542
0.660339 0.685295 0.116130
0.685779 0.685883 0.116717
0.711220 0.686470 0.117304
0.736660 0.687057 0.117891
0.762100 0.687644 0.118478
0.787540 0.688231 0.119065
0.812980 0.688818 0.119652
0.838421 0.689405 0.120239
0.863861 0.689992 0.120826
0.889301 0.690579 0.121413
0.914741 0.691166 0.122000
0.940182 0.691753 0.122588
0.965622 0.692340 0.123175
0.991062 0.692928 0.123762
0.178950 0.700969 0.106950
0.204390 0.701556 0.107537
0.229830 0.702143 0.108124
0.255271 0.702730 0.108711
0.280711 0.703317 0.109298
0.306151 0.703904 0.109885
0.331591 0.704491 0.110472
0.357031 0.705079 0.111060
0.382472 0.705666 0.111647
0.407912 0.706253 0.112234
0.433352 0.706840 0.112821
0.458792 0.707427 0.113408
0.484233 0.708014 0.113995
0.509673 0.708601 0.114582
0.535113 0.709188 0.115169
0.560553 0.709775 0.115756
0.585993 0.710362 0.116343
0.611434 0.710949 0.116930
0.636874 0.711536 0.117517
0.662314 0.712124 0.118105
0.687754 0.712711 0.118692
0.713195 0.713298 0.119279
0.738635 0.713885 0.119866
0.764075 0.714472 0.120453
0.789515 0.715059 0.121040
0.814955 0.715646 0.121627
0.840396 0.716233 0.122214
0.865836 0.716820 0.122801
0.891276 0.717407 0.123388
0.916716 0.717994 0.123975
0.942157 0.718582 0.124562
0.967597 0.719169 0.125150
0.993037 0.719756 0.125737
0.180925 0.727797 0.108925
0.206365 0.728384 0.109512
0.231805 0.728971 0.110099
0.257246 0.729558 0.110686
0.282686 0.730145 0.111273
0.308126 0.730732 0.111860
0.333566 0.731320 0.112447
0.359006 0.731907 0.113035
0.384447 0.732494 0.113622
0.409887 0.733081 0.114209
0.435327 0.733668 0.114796
0.460767 0.734255 0.115383
0.486208 0.734842 0.115970
0.511648 0.735429 0.116557
0.537088 0.736016 0.117144
0.562528 0.736603 0.117731
0.587968 0.737190 0.118318
0.613409 0.737778 0.118905
0.638849 0.738365 0.119492
0.664289 0.738952 0.120080
0.689729 0.739539 0.120667
0.715170 0.740126 0.121254
0.740610 0.740713 0.121841
0.766050 0.741300 0.122428
0.791490 0.741887 0.123015
0.816930 0.742474 0.123602
0.842371 0.743061 0.124189
0.867811 0.743648 0.124776
0.893251 0.744235 0.125363
0.918691 0.744823 0.125950
0.944132 0.745410 0.126537
0.969572 0.745997 0.127125
0.995201 0.746584 0.127523
0.182900 0.754625 0.110900
0.208340 0.755212 0.111487
0.233780 0.755799 0.112074
0.259221 0.756386 0.112661
0.284661 0.756974 0.113248
0.310101 0.757561 0.113835
0.335541 0.758148 0.114422
0.360981 0.758735 0.115010
0.386422 0.759322 0.115597
0.411862 0.759909 0.116184
0.437302 0.760496 0.116771
0.462742 0.761083 0.117358
0.488183 0.761670 0.117945
0.513623 0.762257 0.118532
0.539063 0.762844 0.119119
0.564503 0.763431 0.119706
0.589943 0.764019 0.120293
0.615384 0.764606 0.120880
0.640824 0.765193 0.121467
0.666264 0.765780 0.122055
0.691704 0.766367 0.122642
0.717145 0.766954 0.123229
0.742585 0.767541 0.123816
0.768025 0.768128 0.124403
0.793465 0.768715 0.124990
0.818905 0.769302 0.125577
0.844346 0.769889 0.126164
0.869786 0.770477 0.126751
0.895265 0.771064 0.127299
0.920941 0.771651 0.127651
0.946616 0.772238 0.128003
0.972291 0.772825 0.128356
0.997966 0.773412 0.128708
0.184875 0.781453 0.112875
0.210315 0.782040 0.113462
0.235755 0.782627 0.114049
0.261196 0.783215 0.114636
0.286636 0.783802 0.115223
0.312076 0.784389 0.115810
0.337516 0.784976 0.116397
0.362956 0.785563 0.116985
0.388397 0.786150 0.117572
0.413837 0.786737 0.118159
0.439277 0.787324 0.118746
0.464717 0.787911 0.119333
0.490158 0.788498 0.119920
0.515598 0.789085 0.120507
0.541038 0.789673 0.121094
0.566478 0.790260 0.121681
0.591918 0.790847 0.122268
0.617359 0.791434 0.122855
0.642799 0.792021 0.123442
0.668239 0.792608 0.124030
0.693679 0.793195 0.124617
0.719120 0.793782 0.125204
0.744560 0.794369 0.125791
0.770000 0.794956 0.126378
0.795440 0.795543 0.126965
0.821005 0.796130 0.127427
0.846680 0.796718 0.127779
0.872355 0.797305 0.128132
0.898030 0.797892 0.128484
0.923706 0.798479 0.128836
0.949381 0.799066 0.129188
0.975056 0.799653 0.129541
1.000000 0.800240 0.129893
0.186850 0.808281 0.114850
0.212290 0.808869 0.115437
0.237730 0.809456 0.116024
0.263171 0.810043 0.116611
0.288611 0.810630 0.117198
0.314051 0.811217 0.117785
0.339491 0.811804 0.118372
0.364931 0.812391 0.118959
0.390372 0.812978 0.119547
0.415812 0.813565 0.120134
0.441252 0.814152 0.120721
0.466692 0.814739 0.121308
0.492133 0.815326 0.121895
0.517573 0.815914 0.122482
0.543013 0.816501 0.123069
0.568453 0.817088 0.123656
0.593893 0.817675 0.124243
0.619334 0.818262 0.124830
0.644774 0.818849 0.125417
0.670214 0.819436 0.126005
0.695654 0.820023 0.126592
0.721095 0.820610 0.127179
0.746745 0.821197 0.127555
0.772420 0.821784 0.127908
0.798095 0.822372 0.128260
0.823770 0.822959 0.128612
0.849445 0.823546 0.128964
