fexer/Resources/LUTs/punchy_contrast.cube
TITLE "Punchy"
LUT_3D_SIZE 5
DOMAIN_MIN 0.0 0.0 0.0
DOMAIN_MAX 1.0 1.0 1.0
0.000000 0.000000 0.000000
0.254244 0.000000 0.000000
0.601488 0.000000 0.000000
0.948732 0.000000 0.000000
1.000000 0.000000 0.000000
0.000000 0.218588 0.000000
0.211332 0.205832 0.000000
0.558576 0.193076 0.000000
0.905820 0.180320 0.000000
1.000000 0.167564 0.000000
0.000000 0.535676 0.000000
0.168420 0.522920 0.000000
0.515664 0.510164 0.000000
0.862908 0.497408 0.000000
1.000000 0.484652 0.000000
0.000000 0.852764 0.000000
0.125508 0.840008 0.000000
0.472752 0.827252 0.000000
0.819996 0.814496 0.000000
1.000000 0.801740 0.000000
0.000000 1.000000 0.000000
0.082596 1.000000 0.000000
0.429840 1.000000 0.000000
0.777084 1.000000 0.000000
1.000000 1.000000 0.000000
0.000000 0.000000 0.246668
0.249912 0.000000 0.233912
0.597156 0.000000 0.221156
0.944400 0.000000 0.208400
1.000000 0.000000 0.195644
0.000000 0.214256 0.203756
0.207000 0.201500 0.191000
0.554244 0.188744 0.178244
0.901488 0.175988 0.165488
1.000000 0.163232 0.152732
0.000000 0.531344 0.160844
0.164088 0.518588 0.148088
0.511332 0.505832 0.135332
0.858576 0.493076 0.122576
1.000000 0.480320 0.109820
0.000000 0.848432 0.117932
0.121176 0.835676 0.105176
0.468420 0.822920 0.092420
0.815664 0.810164 0.079664
1.000000 0.797408 0.066908
0.000000 1.000000 0.075020
0.078264 1.000000 0.062264
0.425508 1.000000 0.049508
0.772752 1.000000 0.036752
1.000000 1.000000 0.023996
0.000000 0.000000 0.602336
0.245580 0.000000 0.589580
0.592824 0.000000 0.576824
0.940068 0.000000 0.564068
1.000000 0.000000 0.551312
0.000000 0.209924 0.559424
0.202668 0.197168 0.546668
0.549912 0.184412 0.533912
0.897156 0.171656 0.521156
1.000000 0.158900 0.508400
0.000000 0.527012 0.516512
0.159756 0.514256 0.503756
0.507000 0.501500 0.491000
0.854244 0.488744 0.478244
1.000000 0.475988 0.465488
0.000000 0.844100 0.473600
0.116844 0.831344 0.460844
0.464088 0.818588 0.448088
0.811332 0.805832 0.435332
1.000000 0.793076 0.422576
0.000000 1.000000 0.430688
0.073932 1.000000 0.417932
0.421176 1.000000 0.405176
0.768420 1.000000 0.392420
1.000000 1.000000 0.379664
0.000000 0.000000 0.958004
0.241248 0.000000 0.945248
0.588492 0.000000 0.932492
0.935736 0.000000 0.919736
1.000000 0.000000 0.906980
0.000000 0.205592 0.915092
0.198336 0.192836 0.902336
0.545580 0.180080 0.889580
0.892824 0.167324 0.876824
1.000000 0.154568 0.864068
0.000000 0.522680 0.872180
0.155424 0.509924 0.859424
0.502668 0.497168 0.846668
0.849912 0.484412 0.833912
1.000000 0.471656 0.821156
0.000000 0.839768 0.829268
0.112512 0.827012 0.816512
0.459756 0.814256 0.803756
0.807000 0.801500 0.791000
1.000000 0.788744 0.778244
0.000000 1.000000 0.786356
0.069600 1.000000 0.773600
0.416844 1.000000 0.760844
0.764088 1.000000 0.748088
1.000000 1.000000 0.735332
0.000000 0.000000 1.000000
0.236916 0.000000 1.000000
0.584160 0.000000 1.000000
0.931404 0.000000 1.000000
1.000000 0.000000 1.000000
0.000000 0.201260 1.000000
0.194004 0.188504 1.000000
0.541248 0.175748 1.000000
0.888492 0.162992 1.000000
1.000000 0.150236 1.000000
0.000000 0.518348 1.000000
0.151092 0.505592 1.000000
0.498336 0.492836 1.000000
0.845580 0.480080 1.000000
1.000000 0.467324 1.000000
0.000000 0.835436 1.000000
0.108180 0.822680 1.000000
0.455424 0.809924 1.000000
0.802668 0.797168 1.000000
1.000000 0.784412 1.000000
0.000000 1.000000 1.000000
0.065268 1.000000 1.000000
0.412512 1.000000 1.000000
0.759756 1.000000 1.000000
1.000000 1.000000 1.000000
