fexer/Resources/LUTs/punchy_contrast.cube
TITLE "Punchy"
LUT_3D_SIZE 9
DOMAIN_MIN 0.0 0.0 0.0
DOMAIN_MAX 1.0 1.0 1.0
0.000000 0.000000 0.000000
0.080622 0.000000 0.000000
0.254244 0.000000 0.000000
0.427866 0.000000 0.000000
0.601488 0.000000 0.000000
0.775110 0.000000 0.000000
0.948732 0.000000 0.000000
1.000000 0.000000 0.000000
1.000000 0.000000 0.000000
0.000000 0.060044 0.000000
0.059166 0.053666 0.000000
0.232788 0.047288 0.000000
0.406410 0.040910 0.000000
0.580032 0.034532 0.000000
0.753654 0.028154 0.000000
0.927276 0.021776 0.000000
1.000000 0.015398 0.000000
1.000000 0.009020 0.000000
0.000000 0.218588 0.000000
0.037710 0.212210 0.000000
0.211332 0.205832 0.000000
0.384954 0.199454 0.000000
0.558576 0.193076 0.000000
0.732198 0.186698 0.000000
0.905820 0.180320 0.000000
1.000000 0.173942 0.000000
1.000000 0.167564 0.000000
0.000000 0.377132 0.000000
0.016254 0.370754 0.000000
0.189876 0.364376 0.000000
0.363498 0.357998 0.000000
0.537120 0.351620 0.000000
0.710742 0.345242 0.000000
0.884364 0.338864 0.000000
1.000000 0.332486 0.000000
1.000000 0.326108 0.000000
0.000000 0.535676 0.000000
0.000000 0.529298 0.000000
0.168420 0.522920 0.000000
0.342042 0.516542 0.000000
0.515664 0.510164 0.000000
0.689286 0.503786 0.000000
0.862908 0.497408 0.000000
1.000000 0.491030 0.000000
1.000000 0.484652 0.000000
0.000000 0.694220 0.000000
0.000000 0.687842 0.000000
0.146964 0.681464 0.000000
0.320586 0.675086 0.000000
0.494208 0.668708 0.000000
0.667830 0.662330 0.000000
0.841452 0.655952 0.000000
1.000000 0.649574 0.000000
1.000000 0.643196 0.000000
0.000000 0.852764 0.000000
0.000000 0.846386 0.000000
0.125508 0.840008 0.000000
0.299130 0.833630 0.000000
0.472752 0.827252 0.000000
0.646374 0.820874 0.000000
0.819996 0.814496 0.000000
0.993618 0.808118 0.000000
1.000000 0.801740 0.000000
0.000000 1.000000 0.000000
0.000000 1.000000 0.000000
0.104052 0.998552 0.000000
0.277674 0.992174 0.000000
0.451296 0.985796 0.000000
0.624918 0.979418 0.000000
0.798540 0.973040 0.000000
0.972162 0.966662 0.000000
1.000000 0.960284 0.000000
0.000000 1.000000 0.000000
0.000000 1.000000 0.000000
0.082596 1.000000 0.000000
0.256218 1.000000 0.000000
0.429840 1.000000 0.000000
0.603462 1.000000 0.000000
0.777084 1.000000 0.000000
0.950706 1.000000 0.000000
1.000000 1.000000 0.000000
0.000000 0.000000 0.068834
0.078456 0.000000 0.062456
0.252078 0.000000 0.056078
0.425700 0.000000 0.049700
0.599322 0.000000 0.043322
0.772944 0.000000 0.036944
0.946566 0.000000 0.030566
1.000000 0.000000 0.024188
1.000000 0.000000 0.017810
0.000000 0.057878 0.047378
0.057000 0.051500 0.041000
0.230622 0.045122 0.034622
0.404244 0.038744 0.028244
0.577866 0.032366 0.021866
0.751488 0.025988 0.015488
0.925110 0.019610 0.009110
1.000000 0.013232 0.002732
1.000000 0.006854 0.000000
0.000000 0.216422 0.025922
0.035544 0.210044 0.019544
0.209166 0.203666 0.013166
0.382788 0.197288 0.006788
0.556410 0.190910 0.000410
0.730032 0.184532 0.000000
0.903654 0.178154 0.000000
1.000000 0.171776 0.000000
1.000000 0.165398 0.000000
0.000000 0.374966 0.004466
0.014088 0.368588 0.000000
0.187710 0.362210 0.000000
0.361332 0.355832 0.000000
0.534954 0.349454 0.000000
0.708576 0.343076 0.000000
0.882198 0.336698 0.000000
1.000000 0.330320 0.000000
1.000000 0.323942 0.000000
0.000000 0.533510 0.000000
0.000000 0.527132 0.000000
0.166254 0.520754 0.000000
0.339876 0.514376 0.000000
0.513498 0.507998 0.000000
0.687120 0.501620 0.000000
0.860742 0.495242 0.000000
1.000000 0.488864 0.000000
1.000000 0.482486 0.000000
0.000000 0.692054 0.000000
0.000000 0.685676 0.000000
0.144798 0.679298 0.000000
0.318420 0.672920 0.000000
0.492042 0.666542 0.000000
0.665664 0.660164 0.000000
0.839286 0.653786 0.000000
1.000000 0.647408 0.000000
1.000000 0.641030 0.000000
0.000000 0.850598 0.000000
0.000000 0.844220 0.000000
0.123342 0.837842 0.000000
0.296964 0.831464 0.000000
0.470586 0.825086 0.000000
0.644208 0.818708 0.000000
0.817830 0.812330 0.000000
0.991452 0.805952 0.000000
1.000000 0.799574 0.000000
0.000000 1.000000 0.000000
0.000000 1.000000 0.000000
0.101886 0.996386 0.000000
0.275508 0.990008 0.000000
0.449130 0.983630 0.000000
0.622752 0.977252 0.000000
0.796374 0.970874 0.000000
0.969996 0.964496 0.000000
1.000000 0.958118 0.000000
0.000000 1.000000 0.000000
0.000000 1.000000 0.000000
0.080430 1.000000 0.000000
0.254052 1.000000 0.000000
0.427674 1.000000 0.000000
0.601296 1.000000 0.000000
0.774918 1.000000 0.000000
0.948540 1.000000 0.000000
1.000000 1.000000 0.000000
0.000000 0.000000 0.246668
0.076290 0.000000 0.240290
0.249912 0.000000 0.233912
0.423534 0.000000 0.227534
0.597156 0.000000 0.221156
0.770778 0.000000 0.214778
0.944400 0.000000 0.208400
1.000000 0.000000 0.202022
1.000000 0.000000 0.195644
0.000000 0.055712 0.225212
0.054834 0.049334 0.218834
0.228456 0.042956 0.212456
0.402078 0.036578 0.206078
0.575700 0.030200 0.199700
0.749322 0.023822 0.193322
0.922944 0.017444 0.186944
1.000000 0.011066 0.180566
1.000000 0.004688 0.174188
0.000000 0.214256 0.203756
0.033378 0.207878 0.197378
0.207000 0.201500 0.191000
0.380622 0.195122 0.184622
0.554244 0.188744 0.178244
0.727866 0.182366 0.171866
0.901488 0.175988 0.165488
1.000000 0.169610 0.159110
1.000000 0.163232 0.152732
0.000000 0.372800 0.182300
0.011922 0.366422 0.175922
0.185544 0.360044 0.169544
0.359166 0.353666 0.163166
0.532788 0.347288 0.156788
0.706410 0.340910 0.150410
0.880032 0.334532 0.144032
1.000000 0.328154 0.137654
1.000000 0.321776 0.131276
0.000000 0.531344 0.160844
0.000000 0.524966 0.154466
0.164088 0.518588 0.148088
0.337710 0.512210 0.141710
0.511332 0.505832 0.135332
0.684954 0.499454 0.128954
0.858576 0.493076 0.122576
1.000000 0.486698 0.116198
1.000000 0.480320 0.109820
0.000000 0.689888 0.139388
0.000000 0.683510 0.133010
0.142632 0.677132 0.126632
0.316254 0.670754 0.120254
0.489876 0.664376 0.113876
0.663498 0.657998 0.107498
0.837120 0.651620 0.101120
1.000000 0.645242 0.094742
1.000000 0.638864 0.088364
0.000000 0.848432 0.117932
0.000000 0.842054 0.111554
0.121176 0.835676 0.105176
0.294798 0.829298 0.098798
0.468420 0.822920 0.092420
0.642042 0.816542 0.086042
0.815664 0.810164 0.079664
0.989286 0.803786 0.073286
1.000000 0.797408 0.066908
0.000000 1.000000 0.096476
0.000000 1.000000 0.090098
0.099720 0.994220 0.083720
0.273342 0.987842 0.077342
0.446964 0.981464 0.070964
0.620586 0.975086 0.064586
0.794208 0.968708 0.058208
0.967830 0.962330 0.051830
1.000000 0.955952 0.045452
0.000000 1.000000 0.075020
0.000000 1.000000 0.068642
0.078264 1.000000 0.062264
0.251886 1.000000 0.055886
0.425508 1.000000 0.049508
0.599130 1.000000 0.043130
0.772752 1.000000 0.036752
0.946374 1.000000 0.030374
1.000000 1.000000 0.023996
0.000000 0.000000 0.424502
0.074124 0.000000 0.418124
0.247746 0.000000 0.411746
0.421368 0.000000 0.405368
0.594990 0.000000 0.398990
0.768612 0.000000 0.392612
0.942234 0.000000 0.386234
1.000000 0.000000 0.379856
1.000000 0.000000 0.373478
0.000000 0.053546 0.403046
0.052668 0.047168 0.396668
0.226290 0.040790 0.390290
0.399912 0.034412 0.383912
0.573534 0.028034 0.377534
0.747156 0.021656 0.371156
0.920778 0.015278 0.364778
1.000000 0.008900 0.358400
1.000000 0.002522 0.352022
0.000000 0.212090 0.381590
0.031212 0.205712 0.375212
0.204834 0.199334 0.368834
0.378456 0.192956 0.362456
0.552078 0.186578 0.356078
0.725700 0.180200 0.349700
0.899322 0.173822 0.343322
1.000000 0.167444 0.336944
1.000000 0.161066 0.330566
0.000000 0.370634 0.360134
0.009756 0.364256 0.353756
0.183378 0.357878 0.347378
0.357000 0.351500 0.341000
0.530622 0.345122 0.334622
0.704244 0.338744 0.328244
0.877866 0.332366 0.321866
1.000000 0.325988 0.315488
1.000000 0.319610 0.309110
0.000000 0.529178 0.338678
0.000000 0.522800 0.332300
0.161922 0.516422 0.325922
0.335544 0.510044 0.319544
0.509166 0.503666 0.313166
0.682788 0.497288 0.306788
0.856410 0.490910 0.300410
1.000000 0.484532 0.294032
1.000000 0.478154 0.287654
0.000000 0.687722 0.317222
0.000000 0.681344 0.310844
0.140466 0.674966 0.304466
0.314088 0.668588 0.298088
0.487710 0.662210 0.291710
0.661332 0.655832 0.285332
0.834954 0.649454 0.278954
1.000000 0.643076 0.272576
1.000000 0.636698 0.266198
0.000000 0.846266 0.295766
0.000000 0.839888 0.289388
0.119010 0.833510 0.283010
0.292632 0.827132 0.276632
0.466254 0.820754 0.270254
0.639876 0.814376 0.263876
0.813498 0.807998 0.257498
0.987120 0.801620 0.251120
1.000000 0.795242 0.244742
0.000000 1.000000 0.274310
0.000000 0.998432 0.267932
0.097554 0.992054 0.261554
0.271176 0.985676 0.255176
0.444798 0.979298 0.248798
0.618420 0.972920 0.242420
0.792042 0.966542 0.236042
0.965664 0.960164 0.229664
1.000000 0.953786 0.223286
0.000000 1.000000 0.252854
0.000000 1.000000 0.246476
0.076098 1.000000 0.240098
0.249720 1.000000 0.233720
0.423342 1.000000 0.227342
0.596964 1.000000 0.220964
0.770586 1.000000 0.214586
0.944208 1.000000 0.208208
1.000000 1.000000 0.201830
0.000000 0.000000 0.602336
0.071958 0.000000 0.595958
0.245580 0.000000 0.589580
0.419202 0.000000 0.583202
0.592824 0.000000 0.576824
0.766446 0.000000 0.570446
0.940068 0.000000 0.564068
1.000000 0.000000 0.557690
1.000000 0.000000 0.551312
0.000000 0.051380 0.580880
0.050502 0.045002 0.574502
0.224124 0.038624 0.568124
0.397746 0.032246 0.561746
0.571368 0.025868 0.555368
0.744990 0.019490 0.548990
0.918612 0.013112 0.542612
1.000000 0.006734 0.536234
1.000000 0.000356 0.529856
0.000000 0.209924 0.559424
0.029046 0.203546 0.553046
0.202668 0.197168 0.546668
0.376290 0.190790 0.540290
0.549912 0.184412 0.533912
0.723534 0.178034 0.527534
0.897156 0.171656 0.521156
1.000000 0.165278 0.514778
1.000000 0.158900 0.508400
0.000000 0.368468 0.537968
0.007590 0.362090 0.531590
0.181212 0.355712 0.525212
0.354834 0.349334 0.518834
0.528456 0.342956 0.512456
0.702078 0.336578 0.506078
0.875700 0.330200 0.499700
1.000000 0.323822 0.493322
1.000000 0.317444 0.486944
0.000000 0.527012 0.516512
0.000000 0.520634 0.510134
0.159756 0.514256 0.503756
0.333378 0.507878 0.497378
0.507000 0.501500 0.491000
0.680622 0.495122 0.484622
0.854244 0.488744 0.478244
1.000000 0.482366 0.471866
1.000000 0.475988 0.465488
0.000000 0.685556 0.495056
0.000000 0.679178 0.488678
0.138300 0.672800 0.482300
0.311922 0.666422 0.475922
0.485544 0.660044 0.469544
0.659166 0.653666 0.463166
0.832788 0.647288 0.456788
1.000000 0.640910 0.450410
1.000000 0.634532 0.444032
0.000000 0.844100 0.473600
0.000000 0.837722 0.467222
0.116844 0.831344 0.460844
0.290466 0.824966 0.454466
0.464088 0.818588 0.448088
0.637710 0.812210 0.441710
0.811332 0.805832 0.435332
0.984954 0.799454 0.428954
1.000000 0.793076 0.422576
0.000000 1.000000 0.452144
0.000000 0.996266 0.445766
0.095388 0.989888 0.439388
0.269010 0.983510 0.433010
0.442632 0.977132 0.426632
0.616254 0.970754 0.420254
0.789876 0.964376 0.413876
0.963498 0.957998 0.407498
1.000000 0.951620 0.401120
0.000000 1.000000 0.430688
0.000000 1.000000 0.424310
0.073932 1.000000 0.417932
0.247554 1.000000 0.411554
0.421176 1.000000 0.405176
0.594798 1.000000 0.398798
0.768420 1.000000 0.392420
0.942042 1.000000 0.386042
1.000000 1.000000 0.379664
0.000000 0.000000 0.780170
0.069792 0.000000 0.773792
0.243414 0.000000 0.767414
0.417036 0.000000 0.761036
0.590658 0.000000 0.754658
0.764280 0.000000 0.748280
0.937902 0.000000 0.741902
1.000000 0.000000 0.735524
1.000000 0.000000 0.729146
0.000000 0.049214 0.758714
0.048336 0.042836 0.752336
0.221958 0.036458 0.745958
0.395580 0.030080 0.739580
0.569202 0.023702 0.733202
0.742824 0.017324 0.726824
0.916446 0.010946 0.720446
1.000000 0.004568 0.714068
1.000000 0.000000 0.707690
0.000000 0.207758 0.737258
0.026880 0.201380 0.730880
0.200502 0.195002 0.724502
0.374124 0.188624 0.718124
0.547746 0.182246 0.711746
0.721368 0.175868 0.705368
0.894990 0.169490 0.698990
1.000000 0.163112 0.692612
1.000000 0.156734 0.686234
0.000000 0.366302 0.715802
0.005424 0.359924 0.709424
0.179046 0.353546 0.703046
0.352668 0.347168 0.696668
0.526290 0.340790 0.690290
0.699912 0.334412 0.683912
0.873534 0.328034 0.677534
1.000000 0.321656 0.671156
1.000000 0.315278 0.664778
0.000000 0.524846 0.694346
0.000000 0.518468 0.687968
0.157590 0.512090 0.681590
0.331212 0.505712 0.675212
0.504834 0.499334 0.668834
0.678456 0.492956 0.662456
0.852078 0.486578 0.656078
1.000000 0.480200 0.649700
1.000000 0.473822 0.643322
0.000000 0.683390 0.672890
0.000000 0.677012 0.666512
0.136134 0.670634 0.660134
0.309756 0.664256 0.653756
0.483378 0.657878 0.647378
0.657000 0.651500 0.641000
0.830622 0.645122 0.634622
1.000000 0.638744 0.628244
1.000000 0.632366 0.621866
0.000000 0.841934 0.651434
0.000000 0.835556 0.645056
0.114678 0.829178 0.638678
0.288300 0.822800 0.632300
0.461922 0.816422 0.625922
0.635544 0.810044 0.619544
0.809166 0.803666 0.613166
0.982788 0.797288 0.606788
1.000000 0.790910 0.600410
0.000000 1.000000 0.629978
0.000000 0.994100 0.623600
0.093222 0.987722 0.617222
0.266844 0.981344 0.610844
0.440466 0.974966 0.604466
0.614088 0.968588 0.598088
0.787710 0.962210 0.591710
0.961332 0.955832 0.585332
1.000000 0.949454 0.578954
0.000000 1.000000 0.608522
0.000000 1.000000 0.602144
0.071766 1.000000 0.595766
0.245388 1.000000 0.589388
0.419010 1.000000 0.583010
0.592632 1.000000 0.576632
0.766254 1.000000 0.570254
0.939876 1.000000 0.563876
1.000000 1.000000 0.557498
0.000000 0.000000 0.958004
0.067626 0.000000 0.951626
0.241248 0.000000 0.945248
0.414870 0.000000 0.938870
0.588492 0.000000 0.932492
0.762114 0.000000 0.926114
0.935736 0.000000 0.919736
1.000000 0.000000 0.913358
1.000000 0.000000 0.906980
0.000000 0.047048 0.936548
0.046170 0.040670 0.930170
0.219792 0.034292 0.923792
0.393414 0.027914 0.917414
0.567036 0.021536 0.911036
0.740658 0.015158 0.904658
0.914280 0.008780 0.898280
1.000000 0.002402 0.891902
1.000000 0.000000 0.885524
0.000000 0.205592 0.915092
0.024714 0.199214 0.908714
0.198336 0.192836 0.902336
0.371958 0.186458 0.895958
0.545580 0.180080 0.889580
0.719202 0.173702 0.883202
0.892824 0.167324 0.876824
1.000000 0.160946 0.870446
1.000000 0.154568 0.864068
0.000000 0.364136 0.893636
0.003258 0.357758 0.887258
0.176880 0.351380 0.880880
0.350502 0.345002 0.874502
0.524124 0.338624 0.868124
0.697746 0.332246 0.861746
0.871368 0.325868 0.855368
1.000000 0.319490 0.848990
1.000000 0.313112 0.842612
0.000000 0.522680 0.872180
0.000000 0.516302 0.865802
0.155424 0.509924 0.859424
0.329046 0.503546 0.853046
0.502668 0.497168 0.846668
0.676290 0.490790 0.840290
0.849912 0.484412 0.833912
1.000000 0.478034 0.827534
1.000000 0.471656 0.821156
0.000000 0.681224 0.850724
0.000000 0.674846 0.844346
0.133968 0.668468 0.837968
0.307590 0.662090 0.831590
0.481212 0.655712 0.825212
0.654834 0.649334 0.818834
0.828456 0.642956 0.812456
1.000000 0.636578 0.806078
1.000000 0.630200 0.799700
0.000000 0.839768 0.829268
0.000000 0.833390 0.822890
0.112512 0.827012 0.816512
0.286134 0.820634 0.810134
0.459756 0.814256 0.803756
0.633378 0.807878 0.797378
0.807000 0.801500 0.791000
0.980622 0.795122 0.784622
1.000000 0.788744 0.778244
0.000000 0.998312 0.807812
0.000000 0.991934 0.801434
0.091056 0.985556 0.795056
0.264678 0.979178 0.788678
0.438300 0.972800 0.782300
0.611922 0.966422 0.775922
0.785544 0.960044 0.769544
0.959166 0.953666 0.763166
1.000000 0.947288 0.756788
0.000000 1.000000 0.786356
0.000000 1.000000 0.779978
0.069600 1.000000 0.773600
0.243222 1.000000 0.767222
0.416844 1.000000 0.760844
0.590466 1.000000 0.754466
0.764088 1.000000 0.748088
0.937710 1.000000 0.741710
1.000000 1.000000 0.735332
0.000000 0.000000 1.000000
0.065460 0.000000 1.000000
0.239082 0.000000 1.000000
0.412704 0.000000 1.000000
0.586326 0.000000 1.000000
0.759948 0.000000 1.000000
0.933570 0.000000 1.000000
1.000000 0.000000 1.000000
1.000000 0.000000 1.000000
0.000000 0.044882 1.000000
0.044004 0.038504 1.000000
0.217626 0.032126 1.000000
0.391248 0.025748 1.000000
0.564870 0.019370 1.000000
0.738492 0.012992 1.000000
0.912114 0.006614 1.000000
1.000000 0.000236 1.000000
1.000000 0.000000 1.000000
0.000000 0.203426 1.000000
0.022548 0.197048 1.000000
0.196170 0.190670 1.000000
0.369792 0.184292 1.000000
0.543414 0.177914 1.000000
0.717036 0.171536 1.000000
0.890658 0.165158 1.000000
1.000000 0.158780 1.000000
1.000000 0.152402 1.000000
0.000000 0.361970 1.000000
0.001092 0.355592 1.000000
0.174714 0.349214 1.000000
0.348336 0.342836 1.000000
0.521958 0.336458 1.000000
0.695580 0.330080 1.000000
0.869202 0.323702 1.000000
1.000000 0.317324 1.000000
1.000000 0.310946 1.000000
0.000000 0.520514 1.000000
0.000000 0.514136 1.000000
0.153258 0.507758 1.000000
0.326880 0.501380 1.000000
0.500502 0.495002 1.000000
0.674124 0.488624 1.000000
0.847746 0.482246 1.000000
1.000000 0.475868 1.000000
1.000000 0.469490 0.998990
0.000000 0.679058 1.000000
0.000000 0.672680 1.000000
0.131802 0.666302 1.000000
0.305424 0.659924 1.000000
0.479046 0.653546 1.000000
0.652668 0.647168 0.996668
0.826290 0.640790 0.990290
0.999912 0.634412 0.983912
1.000000 0.628034 0.977534
0.000000 0.837602 1.000000
0.000000 0.831224 1.000000
0.110346 0.824846 0.994346
0.283968 0.818468 0.987968
0.457590 0.812090 0.981590
0.631212 0.805712 0.975212
0.804834 0.799334 0.968834
0.978456 0.792956 0.962456
1.000000 0.786578 0.956078
0.000000 0.996146 0.985646
0.000000 0.989768 0.979268
0.088890 0.983390 0.972890
0.262512 0.977012 0.966512
0.436134 0.970634 0.960134
0.609756 0.964256 0.953756
0.783378 0.957878 0.947378
0.957000 0.951500 0.941000
1.000000 0.945122 0.934622
0.000000 1.000000 0.964190
0.000000 1.000000 0.957812
0.067434 1.000000 0.951434
0.241056 1.000000 0.945056
0.414678 1.000000 0.938678
0.588300 1.000000 0.932300
0.761922 1.000000 0.925922
0.935544 1.000000 0.919544
1.000000 1.000000 0.913166
0.000000 0.000000 1.000000
0.063294 0.000000 1.000000
0.236916 0.000000 1.000000
0.410538 0.000000 1.000000
0.584160 0.000000 1.000000
0.757782 0.000000 1.000000
0.931404 0.000000 1.000000
1.000000 0.000000 1.000000
1.000000 0.000000 1.000000
0.000000 0.042716 1.000000
0.041838 0.036338 1.000000
0.215460 0.029960 1.000000
0.389082 0.023582 1.000000
0.562704 0.017204 1.000000
0.736326 0.010826 1.000000
0.909948 0.004448 1.000000
1.000000 0.000000 1.000000
1.000000 0.000000 1.000000
0.000000 0.201260 1.000000
0.020382 0.194882 1.000000
0.194004 0.188504 1.000000
0.367626 0.182126 1.000000
0.541248 0.175748 1.000000
0.714870 0.169370 1.000000
0.888492 0.162992 1.000000
1.000000 0.156614 1.000000
1.000000 0.150236 1.000000
0.000000 0.359804 1.000000
0.000000 0.353426 1.000000
0.172548 0.347048 1.000000
0.346170 0.340670 1.000000
0.519792 0.334292 1.000000
0.693414 0.327914 1.000000
0.867036 0.321536 1.000000
1.000000 0.315158 1.000000
1.000000 0.308780 1.000000
0.000000 0.518348 1.000000
0.000000 0.511970 1.000000
0.151092 0.505592 1.000000
0.324714 0.499214 1.000000
0.498336 0.492836 1.000000
0.671958 0.486458 1.000000
0.845580 0.480080 1.000000
1.000000 0.473702 1.000000
1.000000 0.467324 1.000000
0.000000 0.676892 1.000000
0.000000 0.670514 1.000000
0.129636 0.664136 1.000000
0.303258 0.657758 1.000000
0.476880 0.651380 1.000000
0.650502 0.645002 1.000000
0.824124 0.638624 1.000000
0.997746 0.632246 1.000000
1.000000 0.625868 1.000000
0.000000 0.835436 1.000000
0.000000 0.829058 1.000000
0.108180 0.822680 1.000000
0.281802 0.816302 1.000000
0.455424 0.809924 1.000000
0.629046 0.803546 1.000000
0.802668 0.797168 1.000000
0.976290 0.790790 1.000000
1.000000 0.784412 1.000000
0.000000 0.993980 1.000000
0.000000 0.987602 1.000000
0.086724 0.981224 1.000000
0.260346 0.974846 1.000000
0.433968 0.968468 1.000000
0.607590 0.962090 1.000000
0.781212 0.955712 1.000000
0.954834 0.949334 1.000000
1.000000 0.942956 1.000000
0.000000 1.000000 1.000000
0.000000 1.000000 1.000000
0.065268 1.000000 1.000000
0.238890 1.000000 1.000000
0.412512 1.000000 1.000000
0.586134 1.000000 1.000000
0.759756 1.000000 1.000000
0.933378 1.000000 1.000000
1.000000 1.000000 1.000000
