fexer/Resources/LUTs/punchy_contrast.cube
TITLE "Punchy"
LUT_3D_SIZE 33
DOMAIN_MIN 0.0 0.0 0.0
DOMAIN_MAX 1.0 1.0 1.0
0.000000 0.000000 0.000000
0.000000 0.000000 0.000000
0.000000 0.000000 0.000000
0.037217 0.000000 0.000000
0.080622 0.000000 0.000000
0.124028 0.000000 0.000000
0.167433 0.000000 0.000000
0.210839 0.000000 0.000000
0.254244 0.000000 0.000000
0.297649 0.000000 0.000000
0.341055 0.000000 0.000000
0.384460 0.000000 0.000000
0.427866 0.000000 0.000000
0.471272 0.000000 0.000000
0.514677 0.000000 0.000000
0.558083 0.000000 0.000000
0.601488 0.000000 0.000000
0.644893 0.000000 0.000000
0.688299 0.000000 0.000000
0.731704 0.000000 0.000000
0.775110 0.000000 0.000000
0.818515 0.000000 0.000000
0.861921 0.000000 0.000000
0.905326 0.000000 0.000000
0.948732 0.000000 0.000000
0.992137 0.000000 0.000000
1.000000 0.000000 0.000000
1.000000 0.000000 0.000000
1.000000 0.000000 0.000000
1.000000 0.000000 0.000000
1.000000 0.000000 0.000000
1.000000 0.000000 0.000000
1.000000 0.000000 0.000000
0.000000 0.000000 0.000000
0.000000 0.000000 0.000000
0.000000 0.000000 0.000000
0.031853 0.000000 0.000000
0.075258 0.000000 0.000000
0.118664 0.000000 0.000000
0.162069 0.000000 0.000000
0.205475 0.000000 0.000000
0.248880 0.000000 0.000000
0.292286 0.000000 0.000000
0.335691 0.000000 0.000000
0.379097 0.000000 0.000000
0.422502 0.000000 0.000000
0.465908 0.000000 0.000000
0.509313 0.000000 0.000000
0.552719 0.000000 0.000000
0.596124 0.000000 0.000000
0.639529 0.000000 0.000000
0.682935 0.000000 0.000000
0.726341 0.000000 0.000000
0.769746 0.000000 0.000000
0.813152 0.000000 0.000000
0.856557 0.000000 0.000000
0.899962 0.000000 0.000000
0.943368 0.000000 0.000000
0.986773 0.000000 0.000000
1.000000 0.000000 0.000000
1.000000 0.000000 0.000000
1.000000 0.000000 0.000000
1.000000 0.000000 0.000000
1.000000 0.000000 0.000000
1.000000 0.000000 0.000000
1.000000 0.000000 0.000000
0.000000 0.000000 0.000000
0.000000 0.000000 0.000000
0.000000 0.000000 0.000000
0.026489 0.000000 0.000000
0.069894 0.000000 0.000000
0.113300 0.000000 0.000000
0.156705 0.000000 0.000000
0.200111 0.000000 0.000000
0.243516 0.000000 0.000000
0.286921 0.000000 0.000000
0.330327 0.000000 0.000000
0.373732 0.000000 0.000000
0.417138 0.000000 0.000000
0.460543 0.000000 0.000000
0.503949 0.000000 0.000000
0.547355 0.000000 0.000000
0.590760 0.000000 0.000000
0.634165 0.000000 0.000000
0.677571 0.000000 0.000000
0.720977 0.000000 0.000000
0.764382 0.000000 0.000000
0.807787 0.000000 0.000000
0.851193 0.000000 0.000000
0.894598 0.000000 0.000000
0.938004 0.000000 0.000000
0.981409 0.000000 0.000000
1.000000 0.000000 0.000000
1.000000 0.000000 0.000000
1.000000 0.000000 0.000000
1.000000 0.000000 0.000000
1.000000 0.000000 0.000000
1.000000 0.000000 0.000000
1.000000 0.000000 0.000000
0.000000 0.020408 0.000000
0.000000 0.018814 0.000000
0.000000 0.017219 0.000000
0.021125 0.015625 0.000000
0.064530 0.014030 0.000000
0.107936 0.012436 0.000000
0.151341 0.010841 0.000000
0.194747 0.009247 0.000000
0.238152 0.007652 0.000000
0.281557 0.006058 0.000000
0.324963 0.004463 0.000000
0.368368 0.002869 0.000000
0.411774 0.001274 0.000000
0.455180 0.000000 0.000000
0.498585 0.000000 0.000000
0.541991 0.000000 0.000000
0.585396 0.000000 0.000000
0.628801 0.000000 0.000000
0.672207 0.000000 0.000000
0.715612 0.000000 0.000000
0.759018 0.000000 0.000000
0.802423 0.000000 0.000000
0.845829 0.000000 0.000000
0.889234 0.000000 0.000000
0.932640 0.000000 0.000000
0.976045 0.000000 0.000000
1.000000 0.000000 0.000000
1.000000 0.000000 0.000000
1.000000 0.000000 0.000000
1.000000 0.000000 0.000000
1.000000 0.000000 0.000000
1.000000 0.000000 0.000000
1.000000 0.000000 0.000000
0.000000 0.060044 0.000000
0.000000 0.058450 0.000000
0.000000 0.056855 0.000000
0.015761 0.055261 0.000000
0.059166 0.053666 0.000000
0.102572 0.052072 0.000000
0.145977 0.050477 0.000000
0.189383 0.048883 0.000000
0.232788 0.047288 0.000000
0.276193 0.045694 0.000000
0.319599 0.044099 0.000000
0.363005 0.042505 0.000000
0.406410 0.040910 0.000000
0.449815 0.039316 0.000000
0.493221 0.037721 0.000000
0.536627 0.036127 0.000000
0.580032 0.034532 0.000000
0.623437 0.032938 0.000000
0.666843 0.031343 0.000000
0.710248 0.029749 0.000000
0.753654 0.028154 0.000000
0.797060 0.026560 0.000000
0.840465 0.024965 0.000000
0.883870 0.023371 0.000000
0.927276 0.021776 0.000000
0.970681 0.020182 0.000000
1.000000 0.018587 0.000000
1.000000 0.016993 0.000000
1.000000 0.015398 0.000000
1.000000 0.013804 0.000000
1.000000 0.012209 0.000000
1.000000 0.010615 0.000000
1.000000 0.009020 0.000000
0.000000 0.099680 0.000000
0.000000 0.098086 0.000000
0.000000 0.096491 0.000000
0.010397 0.094897 0.000000
0.053802 0.093302 0.000000
0.097208 0.091708 0.000000
0.140613 0.090113 0.000000
0.184019 0.088519 0.000000
0.227424 0.086924 0.000000
0.270829 0.085330 0.000000
0.314235 0.083735 0.000000
0.357641 0.082141 0.000000
0.401046 0.080546 0.000000
0.444451 0.078952 0.000000
0.487857 0.077357 0.000000
0.531263 0.075763 0.000000
0.574668 0.074168 0.000000
0.618073 0.072574 0.000000
0.661479 0.070979 0.000000
0.704885 0.069385 0.000000
0.748290 0.067790 0.000000
0.791695 0.066196 0.000000
0.835101 0.064601 0.000000
0.878506 0.063007 0.000000
0.921912 0.061412 0.000000
0.965317 0.059818 0.000000
1.000000 0.058223 0.000000
1.000000 0.056629 0.000000
1.000000 0.055034 0.000000
1.000000 0.053440 0.000000
1.000000 0.051845 0.000000
1.000000 0.050251 0.000000
1.000000 0.048656 0.000000
0.000000 0.139316 0.000000
0.000000 0.137721 0.000000
0.000000 0.136127 0.000000
0.005033 0.134532 0.000000
0.048438 0.132938 0.000000
0.091844 0.131344 0.000000
0.135249 0.129749 0.000000
0.178655 0.128155 0.000000
0.222060 0.126560 0.000000
0.265466 0.124966 0.000000
0.308871 0.123371 0.000000
0.352276 0.121776 0.000000
0.395682 0.120182 0.000000
0.439088 0.118588 0.000000
0.482493 0.116993 0.000000
0.525899 0.115399 0.000000
0.569304 0.113804 0.000000
0.612709 0.112210 0.000000
0.656115 0.110615 0.000000
0.699521 0.109021 0.000000
0.742926 0.107426 0.000000
0.786331 0.105832 0.000000
0.829737 0.104237 0.000000
0.873142 0.102642 0.000000
0.916548 0.101048 0.000000
0.959953 0.099454 0.000000
1.000000 0.097859 0.000000
1.000000 0.096265 0.000000
1.000000 0.094670 0.000000
1.000000 0.093076 0.000000
1.000000 0.091481 0.000000
1.000000 0.089887 0.000000
1.000000 0.088292 0.000000
0.000000 0.178952 0.000000
0.000000 0.177358 0.000000
0.000000 0.175763 0.000000
0.000000 0.174169 0.000000
0.043074 0.172574 0.000000
0.086480 0.170980 0.000000
0.129885 0.169385 0.000000
0.173291 0.167791 0.000000
0.216696 0.166196 0.000000
0.260101 0.164602 0.000000
0.303507 0.163007 0.000000
0.346912 0.161413 0.000000
0.390318 0.159818 0.000000
0.433724 0.158224 0.000000
0.477129 0.156629 0.000000
0.520535 0.155035 0.000000
0.563940 0.153440 0.000000
0.607345 0.151846 0.000000
0.650751 0.150251 0.000000
0.694157 0.148657 0.000000
0.737562 0.147062 0.000000
0.780967 0.145468 0.000000
0.824373 0.143873 0.000000
0.867778 0.142279 0.000000
0.911184 0.140684 0.000000
0.954589 0.139090 0.000000
0.997995 0.137495 0.000000
1.000000 0.135901 0.000000
1.000000 0.134306 0.000000
1.000000 0.132712 0.000000
1.000000 0.131117 0.000000
1.000000 0.129523 0.000000
1.000000 0.127928 0.000000
0.000000 0.218588 0.000000
0.000000 0.216994 0.000000
0.000000 0.215399 0.000000
0.000000 0.213805 0.000000
0.037710 0.212210 0.000000
0.081116 0.210616 0.000000
0.124521 0.209021 0.000000
0.167927 0.207427 0.000000
0.211332 0.205832 0.000000
0.254738 0.204238 0.000000
0.298143 0.202643 0.000000
0.341549 0.201049 0.000000
0.384954 0.199454 0.000000
0.428360 0.197860 0.000000
0.471765 0.196265 0.000000
0.515171 0.194671 0.000000
0.558576 0.193076 0.000000
0.601981 0.191482 0.000000
0.645387 0.189887 0.000000
0.688793 0.188293 0.000000
0.732198 0.186698 0.000000
0.775604 0.185104 0.000000
0.819009 0.183509 0.000000
0.862414 0.181915 0.000000
0.905820 0.180320 0.000000
0.949225 0.178726 0.000000
0.992631 0.177131 0.000000
1.000000 0.175537 0.000000
1.000000 0.173942 0.000000
1.000000 0.172348 0.000000
1.000000 0.170753 0.000000
1.000000 0.169159 0.000000
1.000000 0.167564 0.000000
0.000000 0.258224 0.000000
0.000000 0.256630 0.000000
0.000000 0.255035 0.000000
0.000000 0.253441 0.000000
0.032346 0.251846 0.000000
0.075752 0.250251 0.000000
0.119157 0.248657 0.000000
0.162563 0.247062 0.000000
0.205968 0.245468 0.000000
0.249373 0.243873 0.000000
0.292779 0.242279 0.000000
0.336184 0.240684 0.000000
0.379590 0.239090 0.000000
0.422996 0.237495 0.000000
0.466401 0.235901 0.000000
0.509807 0.234306 0.000000
0.553212 0.232712 0.000000
0.596617 0.231117 0.000000
0.640023 0.229523 0.000000
0.683429 0.227928 0.000000
0.726834 0.226334 0.000000
0.770239 0.224739 0.000000
0.813645 0.223145 0.000000
0.857050 0.221550 0.000000
0.900456 0.219956 0.000000
0.943861 0.218361 0.000000
0.987267 0.216767 0.000000
1.000000 0.215172 0.000000
1.000000 0.213578 0.000000
1.000000 0.211983 0.000000
1.000000 0.210389 0.000000
1.000000 0.208794 0.000000
1.000000 0.207200 0.000000
0.000000 0.297860 0.000000
0.000000 0.296266 0.000000
0.000000 0.294671 0.000000
0.000000 0.293077 0.000000
0.026982 0.291482 0.000000
0.070388 0.289888 0.000000
0.113793 0.288293 0.000000
0.157199 0.286699 0.000000
0.200604 0.285104 0.000000
0.244009 0.283510 0.000000
0.287415 0.281915 0.000000
0.330821 0.280321 0.000000
0.374226 0.278726 0.000000
0.417632 0.277132 0.000000
0.461037 0.275537 0.000000
0.504443 0.273943 0.000000
0.547848 0.272348 0.000000
0.591253 0.270754 0.000000
0.634659 0.269159 0.000000
0.678065 0.267565 0.000000
0.721470 0.265970 0.000000
0.764875 0.264376 0.000000
0.808281 0.262781 0.000000
0.851686 0.261187 0.000000
0.895092 0.259592 0.000000
0.938497 0.257998 0.000000
0.981903 0.256403 0.000000
1.000000 0.254809 0.000000
1.000000 0.253214 0.000000
1.000000 0.251620 0.000000
1.000000 0.250025 0.000000
1.000000 0.248431 0.000000
1.000000 0.246836 0.000000
0.000000 0.337496 0.000000
0.000000 0.335902 0.000000
0.000000 0.334307 0.000000
0.000000 0.332713 0.000000
0.021618 0.331118 0.000000
0.065024 0.329524 0.000000
0.108429 0.327929 0.000000
0.151835 0.326335 0.000000
0.195240 0.324740 0.000000
0.238646 0.323146 0.000000
0.282051 0.321551 0.000000
0.325457 0.319957 0.000000
0.368862 0.318362 0.000000
0.412268 0.316767 0.000000
0.455673 0.315173 0.000000
0.499079 0.313578 0.000000
0.542484 0.311984 0.000000
0.585889 0.310389 0.000000
0.629295 0.308795 0.000000
0.672701 0.307200 0.000000
0.716106 0.305606 0.000000
0.759512 0.304011 0.000000
0.802917 0.302417 0.000000
0.846322 0.300822 0.000000
0.889728 0.299228 0.000000
0.933133 0.297633 0.000000
0.976539 0.296039 0.000000
1.000000 0.294444 0.000000
1.000000 0.292850 0.000000
1.000000 0.291256 0.000000
1.000000 0.289661 0.000000
1.000000 0.288067 0.000000
1.000000 0.286472 0.000000
0.000000 0.377132 0.000000
0.000000 0.375537 0.000000
0.000000 0.373943 0.000000
0.000000 0.372348 0.000000
0.016254 0.370754 0.000000
0.059660 0.369159 0.000000
0.103065 0.367565 0.000000
0.146471 0.365970 0.000000
0.189876 0.364376 0.000000
0.233282 0.362781 0.000000
0.276687 0.361187 0.000000
0.320093 0.359592 0.000000
0.363498 0.357998 0.000000
0.406904 0.356403 0.000000
0.450309 0.354809 0.000000
0.493715 0.353214 0.000000
0.537120 0.351620 0.000000
0.580525 0.350025 0.000000
0.623931 0.348431 0.000000
0.667337 0.346836 0.000000
0.710742 0.345242 0.000000
0.754148 0.343647 0.000000
0.797553 0.342053 0.000000
0.840958 0.340458 0.000000
0.884364 0.338864 0.000000
0.927769 0.337269 0.000000
0.971175 0.335675 0.000000
1.000000 0.334080 0.000000
1.000000 0.332486 0.000000
1.000000 0.330891 0.000000
1.000000 0.329297 0.000000
1.000000 0.327702 0.000000
1.000000 0.326108 0.000000
0.000000 0.416768 0.000000
0.000000 0.415174 0.000000
0.000000 0.413579 0.000000
0.000000 0.411985 0.000000
0.010890 0.410390 0.000000
0.054296 0.408796 0.000000
0.097701 0.407201 0.000000
0.141107 0.405607 0.000000
0.184512 0.404012 0.000000
0.227917 0.402418 0.000000
0.271323 0.400823 0.000000
0.314729 0.399229 0.000000
0.358134 0.397634 0.000000
0.401539 0.396039 0.000000
0.444945 0.394445 0.000000
0.488351 0.392850 0.000000
0.531756 0.391256 0.000000
0.575161 0.389661 0.000000
0.618567 0.388067 0.000000
0.661972 0.386472 0.000000
0.705378 0.384878 0.000000
0.748783 0.383283 0.000000
0.792189 0.381689 0.000000
0.835594 0.380095 0.000000
0.879000 0.378500 0.000000
0.922405 0.376906 0.000000
0.965811 0.375311 0.000000
1.000000 0.373717 0.000000
1.000000 0.372122 0.000000
1.000000 0.370528 0.000000
1.000000 0.368933 0.000000
1.000000 0.367339 0.000000
1.000000 0.365744 0.000000
0.000000 0.456404 0.000000
0.000000 0.454810 0.000000
0.000000 0.453215 0.000000
0.000000 0.451621 0.000000
0.005526 0.450026 0.000000
0.048932 0.448431 0.000000
0.092337 0.446837 0.000000
0.135743 0.445242 0.000000
0.179148 0.443648 0.000000
0.222554 0.442053 0.000000
0.265959 0.440459 0.000000
0.309365 0.438864 0.000000
0.352770 0.437270 0.000000
0.396176 0.435675 0.000000
0.439581 0.434081 0.000000
0.482987 0.432486 0.000000
0.526392 0.430892 0.000000
0.569797 0.429297 0.000000
0.613203 0.427703 0.000000
0.656609 0.426109 0.000000
0.700014 0.424514 0.000000
0.743420 0.422920 0.000000
0.786825 0.421325 0.000000
0.830230 0.419731 0.000000
0.873636 0.418136 0.000000
0.917041 0.416542 0.000000
0.960447 0.414947 0.000000
1.000000 0.413353 0.000000
1.000000 0.411758 0.000000
1.000000 0.410164 0.000000
1.000000 0.408569 0.000000
1.000000 0.406974 0.000000
1.000000 0.405380 0.000000
0.000000 0.496040 0.000000
0.000000 0.494446 0.000000
0.000000 0.492851 0.000000
0.000000 0.491257 0.000000
0.000162 0.489662 0.000000
0.043568 0.488068 0.000000
0.086973 0.486473 0.000000
0.130379 0.484879 0.000000
0.173784 0.483284 0.000000
0.217190 0.481690 0.000000
0.260595 0.480095 0.000000
0.304001 0.478501 0.000000
0.347406 0.476906 0.000000
0.390812 0.475311 0.000000
0.434217 0.473717 0.000000
0.477623 0.472123 0.000000
0.521028 0.470528 0.000000
0.564433 0.468934 0.000000
0.607839 0.467339 0.000000
0.651245 0.465745 0.000000
0.694650 0.464150 0.000000
0.738055 0.462556 0.000000
0.781461 0.460961 0.000000
0.824866 0.459367 0.000000
0.868272 0.457772 0.000000
0.911677 0.456178 0.000000
0.955083 0.454583 0.000000
0.998489 0.452989 0.000000
1.000000 0.451394 0.000000
1.000000 0.449800 0.000000
1.000000 0.448205 0.000000
1.000000 0.446611 0.000000
1.000000 0.445016 0.000000
0.000000 0.535676 0.000000
0.000000 0.534081 0.000000
0.000000 0.532487 0.000000
0.000000 0.530892 0.000000
0.000000 0.529298 0.000000
0.038204 0.527703 0.000000
0.081609 0.526109 0.000000
0.125015 0.524514 0.000000
0.168420 0.522920 0.000000
0.211825 0.521325 0.000000
0.255231 0.519731 0.000000
0.298637 0.518136 0.000000
0.342042 0.516542 0.000000
0.385447 0.514948 0.000000
0.428853 0.513353 0.000000
0.472259 0.511758 0.000000
0.515664 0.510164 0.000000
0.559069 0.508570 0.000000
0.602475 0.506975 0.000000
0.645881 0.505380 0.000000
0.689286 0.503786 0.000000
0.732691 0.502191 0.000000
0.776097 0.500597 0.000000
0.819502 0.499003 0.000000
0.862908 0.497408 0.000000
0.906313 0.495814 0.000000
0.949719 0.494219 0.000000
0.993124 0.492625 0.000000
1.000000 0.491030 0.000000
1.000000 0.489435 0.000000
1.000000 0.487841 0.000000
1.000000 0.486247 0.000000
1.000000 0.484652 0.000000
0.000000 0.575312 0.000000
0.000000 0.573717 0.000000
0.000000 0.572123 0.000000
0.000000 0.570528 0.000000
0.000000 0.568934 0.000000
0.032840 0.567339 0.000000
0.076245 0.565745 0.000000
0.119651 0.564150 0.000000
0.163056 0.562556 0.000000
0.206462 0.560961 0.000000
0.249867 0.559367 0.000000
0.293273 0.557772 0.000000
0.336678 0.556178 0.000000
0.380084 0.554583 0.000000
0.423489 0.552989 0.000000
0.466895 0.551394 0.000000
0.510300 0.549800 0.000000
0.553705 0.548205 0.000000
0.597111 0.546611 0.000000
0.640517 0.545016 0.000000
0.683922 0.543422 0.000000
0.727328 0.541827 0.000000
0.770733 0.540233 0.000000
0.814138 0.538638 0.000000
0.857544 0.537044 0.000000
0.900949 0.535449 0.000000
0.944355 0.533855 0.000000
0.987760 0.532260 0.000000
1.000000 0.530666 0.000000
1.000000 0.529071 0.000000
1.000000 0.527477 0.000000
1.000000 0.525882 0.000000
1.000000 0.524288 0.000000
0.000000 0.614948 0.000000
0.000000 0.613353 0.000000
0.000000 0.611759 0.000000
0.000000 0.610164 0.000000
0.000000 0.608570 0.000000
0.027476 0.606975 0.000000
0.070881 0.605381 0.000000
0.114287 0.603786 0.000000
0.157692 0.602192 0.000000
0.201098 0.600597 0.000000
0.244503 0.599003 0.000000
0.287909 0.597408 0.000000
0.331314 0.595814 0.000000
0.374720 0.594219 0.000000
0.418125 0.592625 0.000000
0.461531 0.591030 0.000000
0.504936 0.589436 0.000000
0.548342 0.587841 0.000000
0.591747 0.586247 0.000000
0.635153 0.584652 0.000000
0.678558 0.583058 0.000000
0.721963 0.581463 0.000000
0.765369 0.579869 0.000000
0.808774 0.578274 0.000000
0.852180 0.576680 0.000000
0.895585 0.575085 0.000000
0.938991 0.573491 0.000000
0.982397 0.571896 0.000000
1.000000 0.570302 0.000000
1.000000 0.568707 0.000000
1.000000 0.567113 0.000000
1.000000 0.565518 0.000000
1.000000 0.563924 0.000000
0.000000 0.654584 0.000000
0.000000 0.652990 0.000000
0.000000 0.651395 0.000000
0.000000 0.649801 0.000000
0.000000 0.648206 0.000000
0.022112 0.646612 0.000000
0.065517 0.645017 0.000000
0.108923 0.643423 0.000000
0.152328 0.641828 0.000000
0.195734 0.640234 0.000000
0.239139 0.638639 0.000000
0.282544 0.637045 0.000000
0.325950 0.635450 0.000000
0.369356 0.633856 0.000000
0.412761 0.632261 0.000000
0.456167 0.630667 0.000000
0.499572 0.629072 0.000000
0.542978 0.627478 0.000000
0.586383 0.625883 0.000000
0.629789 0.624289 0.000000
0.673194 0.622694 0.000000
0.716599 0.621100 0.000000
0.760005 0.619505 0.000000
0.803410 0.617911 0.000000
0.846816 0.616316 0.000000
0.890221 0.614722 0.000000
0.933627 0.613127 0.000000
0.977032 0.611533 0.000000
1.000000 0.609938 0.000000
1.000000 0.608344 0.000000
1.000000 0.606749 0.000000
1.000000 0.605155 0.000000
1.000000 0.603560 0.000000
0.000000 0.694220 0.000000
0.000000 0.692626 0.000000
0.000000 0.691031 0.000000
0.000000 0.689437 0.000000
0.000000 0.687842 0.000000
0.016748 0.686248 0.000000
0.060153 0.684653 0.000000
0.103559 0.683059 0.000000
0.146964 0.681464 0.000000
0.190370 0.679870 0.000000
0.233775 0.678275 0.000000
0.277180 0.676680 0.000000
0.320586 0.675086 0.000000
0.363992 0.673492 0.000000
0.407397 0.671897 0.000000
0.450803 0.670302 0.000000
0.494208 0.668708 0.000000
0.537613 0.667114 0.000000
0.581019 0.665519 0.000000
0.624425 0.663925 0.000000
0.667830 0.662330 0.000000
0.711236 0.660736 0.000000
0.754641 0.659141 0.000000
0.798046 0.657547 0.000000
0.841452 0.655952 0.000000
0.884857 0.654358 0.000000
0.928263 0.652763 0.000000
0.971668 0.651168 0.000000
1.000000 0.649574 0.000000
1.000000 0.647979 0.000000
1.000000 0.646385 0.000000
1.000000 0.644790 0.000000
1.000000 0.643196 0.000000
0.000000 0.733856 0.000000
0.000000 0.732262 0.000000
0.000000 0.730667 0.000000
0.000000 0.729072 0.000000
0.000000 0.727478 0.000000
0.011384 0.725883 0.000000
0.054789 0.724289 0.000000
0.098195 0.722694 0.000000
0.141600 0.721100 0.000000
0.185005 0.719505 0.000000
0.228411 0.717911 0.000000
0.271817 0.716316 0.000000
0.315222 0.714722 0.000000
0.358628 0.713127 0.000000
0.402033 0.711533 0.000000
0.445439 0.709938 0.000000
0.488844 0.708344 0.000000
0.532249 0.706749 0.000000
0.575655 0.705155 0.000000
0.619061 0.703560 0.000000
0.662466 0.701966 0.000000
0.705871 0.700371 0.000000
0.749277 0.698777 0.000000
0.792682 0.697182 0.000000
0.836088 0.695588 0.000000
0.879493 0.693993 0.000000
0.922899 0.692399 0.000000
0.966305 0.690804 0.000000
1.000000 0.689210 0.000000
1.000000 0.687615 0.000000
1.000000 0.686021 0.000000
1.000000 0.684426 0.000000
1.000000 0.682832 0.000000
0.000000 0.773492 0.000000
0.000000 0.771897 0.000000
0.000000 0.770303 0.000000
0.000000 0.768708 0.000000
0.000000 0.767114 0.000000
0.006020 0.765519 0.000000
0.049425 0.763925 0.000000
0.092831 0.762330 0.000000
0.136236 0.760736 0.000000
0.179642 0.759141 0.000000
0.223047 0.757547 0.000000
0.266453 0.755952 0.000000
0.309858 0.754358 0.000000
0.353264 0.752763 0.000000
0.396669 0.751169 0.000000
0.440075 0.749574 0.000000
0.483480 0.747980 0.000000
0.526886 0.746385 0.000000
0.570291 0.744791 0.000000
0.613697 0.743196 0.000000
0.657102 0.741602 0.000000
0.700508 0.740007 0.000000
0.743913 0.738413 0.000000
0.787318 0.736818 0.000000
0.830724 0.735224 0.000000
0.874129 0.733629 0.000000
0.917535 0.732035 0.000000
0.960940 0.730440 0.000000
1.000000 0.728846 0.000000
1.000000 0.727251 0.000000
1.000000 0.725657 0.000000
1.000000 0.724062 0.000000
1.000000 0.722468 0.000000
0.000000 0.813128 0.000000
0.000000 0.811533 0.000000
0.000000 0.809939 0.000000
0.000000 0.808344 0.000000
0.000000 0.806750 0.000000
0.000656 0.805155 0.000000
0.044061 0.803561 0.000000
0.087467 0.801966 0.000000
0.130872 0.800372 0.000000
0.174278 0.798777 0.000000
0.217683 0.797183 0.000000
0.261089 0.795588 0.000000
0.304494 0.793994 0.000000
0.347900 0.792399 0.000000
0.391305 0.790805 0.000000
0.434711 0.789210 0.000000
0.478116 0.787616 0.000000
0.521521 0.786021 0.000000
0.564927 0.784427 0.000000
0.608333 0.782832 0.000000
0.651738 0.781238 0.000000
0.695144 0.779643 0.000000
0.738549 0.778049 0.000000
0.781954 0.776454 0.000000
0.825360 0.774860 0.000000
0.868765 0.773265 0.000000
0.912171 0.771671 0.000000
0.955576 0.770076 0.000000
0.998982 0.768482 0.000000
1.000000 0.766887 0.000000
1.000000 0.765293 0.000000
1.000000 0.763698 0.000000
1.000000 0.762104 0.000000
0.000000 0.852764 0.000000
0.000000 0.851170 0.000000
0.000000 0.849575 0.000000
0.000000 0.847980 0.000000
0.000000 0.846386 0.000000
0.000000 0.844792 0.000000
0.038697 0.843197 0.000000
0.082103 0.841603 0.000000
0.125508 0.840008 0.000000
0.168913 0.838414 0.000000
0.212319 0.836819 0.000000
0.255725 0.835224 0.000000
0.299130 0.833630 0.000000
0.342536 0.832036 0.000000
0.385941 0.830441 0.000000
0.429347 0.828846 0.000000
0.472752 0.827252 0.000000
0.516157 0.825658 0.000000
0.559563 0.824063 0.000000
0.602969 0.822468 0.000000
0.646374 0.820874 0.000000
0.689779 0.819280 0.000000
0.733185 0.817685 0.000000
0.776590 0.816091 0.000000
0.819996 0.814496 0.000000
0.863401 0.812902 0.000000
0.906807 0.811307 0.000000
0.950213 0.809712 0.000000
0.993618 0.808118 0.000000
1.000000 0.806523 0.000000
1.000000 0.804929 0.000000
1.000000 0.803334 0.000000
1.000000 0.801740 0.000000
0.000000 0.892400 0.000000
0.000000 0.890805 0.000000
0.000000 0.889211 0.000000
0.000000 0.887616 0.000000
0.000000 0.886022 0.000000
0.000000 0.884427 0.000000
0.033333 0.882833 0.000000
0.076739 0.881238 0.000000
0.120144 0.879644 0.000000
0.163550 0.878049 0.000000
0.206955 0.876455 0.000000
0.250361 0.874860 0.000000
0.293766 0.873266 0.000000
0.337172 0.871671 0.000000
0.380577 0.870077 0.000000
0.423983 0.868482 0.000000
0.467388 0.866888 0.000000
0.510794 0.865293 0.000000
0.554199 0.863699 0.000000
0.597605 0.862104 0.000000
0.641010 0.860510 0.000000
0.684416 0.858915 0.000000
0.727821 0.857321 0.000000
0.771227 0.855726 0.000000
0.814632 0.854132 0.000000
0.858037 0.852537 0.000000
0.901443 0.850943 0.000000
0.944848 0.849348 0.000000
0.988254 0.847754 0.000000
1.000000 0.846159 0.000000
1.000000 0.844565 0.000000
1.000000 0.842970 0.000000
1.000000 0.841376 0.000000
0.000000 0.932036 0.000000
0.000000 0.930442 0.000000
0.000000 0.928847 0.000000
0.000000 0.927252 0.000000
0.000000 0.925658 0.000000
0.000000 0.924064 0.000000
0.027969 0.922469 0.000000
0.071375 0.920874 0.000000
0.114780 0.919280 0.000000
0.158185 0.917685 0.000000
0.201591 0.916091 0.000000
0.244997 0.914496 0.000000
0.288402 0.912902 0.000000
0.331808 0.911307 0.000000
0.375213 0.909713 0.000000
0.418619 0.908118 0.000000
0.462024 0.906524 0.000000
0.505429 0.904929 0.000000
0.548835 0.903335 0.000000
0.592241 0.901740 0.000000
0.635646 0.900146 0.000000
0.679052 0.898551 0.000000
0.722457 0.896957 0.000000
0.765863 0.895362 0.000000
0.809268 0.893768 0.000000
0.852673 0.892173 0.000000
0.896079 0.890579 0.000000
0.939484 0.888984 0.000000
