fexer/Resources/LUTs/street_punch.cube
TITLE "Street"
LUT_3D_SIZE 5
DOMAIN_MIN 0.0 0.0 0.0
DOMAIN_MAX 1.0 1.0 1.0
0.000000 0.000000 0.000000
0.128141 0.000000 0.000000
0.358883 0.000000 0.000000
0.589624 0.000000 0.000000
0.820365 0.000000 0.000000
0.000000 0.168901 0.000000
0.172054 0.181954 0.000000
0.402795 0.195007 0.000000
0.633537 0.208061 0.009273
0.864278 0.221114 0.022326
0.000000 0.430501 0.014025
0.215967 0.443555 0.027079
0.446708 0.456608 0.040132
0.677449 0.469661 0.053186
0.908191 0.482715 0.066239
0.029138 0.692102 0.057938
0.259879 0.705155 0.070991
0.490621 0.718209 0.084045
0.721362 0.731262 0.097098
0.952103 0.744315 0.110152
0.073051 0.953702 0.101851
0.303792 0.966756 0.114904
0.534533 0.979809 0.127958
0.765275 0.992862 0.141011
0.996016 1.000000 0.154064
0.000000 0.000000 0.148321
0.132574 0.000000 0.161374
0.363316 0.000000 0.174428
0.594057 0.000000 0.187481
0.824798 0.000000 0.200535
0.000000 0.173334 0.192234
0.176487 0.186387 0.205287
0.407228 0.199440 0.218340
0.637970 0.212494 0.231394
0.868711 0.225547 0.244447
0.000000 0.434934 0.236146
0.220400 0.447988 0.249200
0.451141 0.461041 0.262253
0.681882 0.474094 0.275307
0.912624 0.487148 0.288360
0.033571 0.696535 0.280059
0.264312 0.709588 0.293112
0.495054 0.722642 0.306166
0.725795 0.735695 0.319219
0.956536 0.748748 0.332273
0.077484 0.958135 0.323972
0.308225 0.971189 0.337025
0.538966 0.984242 0.350078
0.769708 0.997296 0.363132
1.000000 1.000000 0.376185
0.000000 0.000000 0.370442
0.137007 0.000000 0.383495
0.367749 0.000000 0.396549
0.598490 0.000000 0.409602
0.829231 0.000000 0.422656
0.000000 0.177767 0.414354
0.180920 0.190820 0.427408
0.411661 0.203873 0.440461
0.642403 0.216927 0.453515
0.873144 0.229980 0.466568
0.000000 0.439367 0.458267
0.224833 0.452421 0.471321
0.455574 0.465474 0.484374
0.686315 0.478527 0.497427
0.917057 0.491581 0.510481
0.038004 0.700968 0.502180
0.268745 0.714021 0.515233
0.499487 0.727075 0.528287
0.730228 0.740128 0.541340
0.960969 0.753181 0.554394
0.081917 0.962568 0.546092
0.312658 0.975622 0.559146
0.543399 0.988675 0.572199
0.774141 1.000000 0.585253
1.000000 1.000000 0.598306
0.000000 0.000000 0.592563
0.141440 0.000000 0.605616
0.372182 0.000000 0.618670
0.602923 0.000000 0.631723
0.833664 0.000000 0.644776
0.000000 0.182200 0.636475
0.185353 0.195253 0.649529
0.416094 0.208306 0.662582
0.646836 0.221360 0.675636
0.877577 0.234413 0.688689
0.000000 0.443800 0.680388
0.229266 0.456854 0.693441
0.460007 0.469907 0.706495
0.690748 0.482960 0.719548
0.921490 0.496014 0.732602
0.042437 0.705401 0.724301
0.273178 0.718454 0.737354
0.503920 0.731508 0.750408
0.734661 0.744561 0.763461
0.965402 0.757614 0.776514
0.086350 0.967001 0.768213
0.317091 0.980055 0.781267
0.547832 0.993108 0.794320
0.778574 1.000000 0.807374
1.000000 1.000000 0.820427
0.000000 0.000000 0.814684
0.145873 0.000000 0.827737
0.376615 0.000000 0.840790
0.607356 0.000000 0.853844
0.838097 0.000000 0.866897
0.000000 0.186633 0.858596
0.189786 0.199686 0.871650
0.420527 0.212740 0.884703
0.651269 0.225793 0.897757
0.882010 0.238846 0.910810
0.002957 0.448233 0.902509
0.233699 0.461287 0.915562
0.464440 0.474340 0.928616
0.695181 0.487394 0.941669
0.925923 0.500447 0.954723
0.046870 0.709834 0.946422
0.277611 0.722887 0.959475
0.508353 0.735941 0.972528
0.739094 0.748994 0.985582
0.969835 0.762047 0.998635
0.090783 0.971434 0.990334
0.321524 0.984488 1.000000
0.552265 0.997541 1.000000
0.783007 1.000000 1.000000
1.000000 1.000000 1.000000
