fexer/Resources/LUTs/street_punch.cube
TITLE "Street"
LUT_3D_SIZE 9
DOMAIN_MIN 0.0 0.0 0.0
DOMAIN_MAX 1.0 1.0 1.0
0.000000 0.000000 0.000000
0.012771 0.000000 0.000000
0.128141 0.000000 0.000000
0.243512 0.000000 0.000000
0.358883 0.000000 0.000000
0.474253 0.000000 0.000000
0.589624 0.000000 0.000000
0.704995 0.000000 0.000000
0.820365 0.000000 0.000000
0.000000 0.038100 0.000000
0.034727 0.044627 0.000000
0.150098 0.051154 0.000000
0.265468 0.057680 0.000000
0.380839 0.064207 0.000000
0.496210 0.070734 0.000000
0.611580 0.077261 0.000000
0.726951 0.083787 0.000000
0.842322 0.090314 0.000370
0.000000 0.168901 0.000000
0.056683 0.175427 0.000000
0.172054 0.181954 0.000000
0.287425 0.188481 0.000000
0.402795 0.195007 0.000000
0.518166 0.201534 0.002746
0.633537 0.208061 0.009273
0.748907 0.214588 0.015800
0.864278 0.221114 0.022326
0.000000 0.299701 0.000000
0.078640 0.306228 0.000000
0.194010 0.312754 0.005122
0.309381 0.319281 0.011649
0.424752 0.325808 0.018176
0.540122 0.332334 0.024703
0.655493 0.338861 0.031229
0.770864 0.345388 0.037756
0.886234 0.351915 0.044283
0.000000 0.430501 0.014025
0.100596 0.437028 0.020552
0.215967 0.443555 0.027079
0.331337 0.450081 0.033606
0.446708 0.456608 0.040132
0.562079 0.463135 0.046659
0.677449 0.469661 0.053186
0.792820 0.476188 0.059712
0.908191 0.482715 0.066239
0.007182 0.561301 0.035982
0.122552 0.567828 0.042508
0.237923 0.574355 0.049035
0.353294 0.580882 0.055562
0.468664 0.587408 0.062089
0.584035 0.593935 0.068615
0.699406 0.600462 0.075142
0.814776 0.606988 0.081669
0.930147 0.613515 0.088195
0.029138 0.692102 0.057938
0.144509 0.698628 0.064465
0.259879 0.705155 0.070991
0.375250 0.711682 0.077518
0.490621 0.718209 0.084045
0.605991 0.724735 0.090572
0.721362 0.731262 0.097098
0.836733 0.737789 0.103625
0.952103 0.744315 0.110152
0.051094 0.822902 0.079894
0.166465 0.829429 0.086421
0.281836 0.835955 0.092948
0.397206 0.842482 0.099475
0.512577 0.849009 0.106001
0.627948 0.855535 0.112528
0.743318 0.862062 0.119055
0.858689 0.868589 0.125581
0.974060 0.875116 0.132108
0.073051 0.953702 0.101851
0.188421 0.960229 0.108377
0.303792 0.966756 0.114904
0.419163 0.973282 0.121431
0.534533 0.979809 0.127958
0.649904 0.986336 0.134484
0.765275 0.992862 0.141011
0.880645 0.999389 0.147538
0.996016 1.000000 0.154064
0.000000 0.000000 0.037260
0.014987 0.000000 0.043787
0.130358 0.000000 0.050314
0.245728 0.000000 0.056841
0.361099 0.000000 0.063367
0.476470 0.000000 0.069894
0.591840 0.000000 0.076421
0.707211 0.000000 0.082948
0.822582 0.000000 0.089474
0.000000 0.040317 0.059217
0.036944 0.046844 0.065744
0.152314 0.053370 0.072270
0.267685 0.059897 0.078797
0.383055 0.066424 0.085324
0.498426 0.072950 0.091850
0.613797 0.079477 0.098377
0.729167 0.086004 0.104904
0.844538 0.092531 0.111431
0.000000 0.171117 0.081173
0.058900 0.177644 0.087700
0.174270 0.184170 0.094227
0.289641 0.190697 0.100753
0.405012 0.197224 0.107280
0.520382 0.203751 0.113807
0.635753 0.210277 0.120333
0.751124 0.216804 0.126860
0.866494 0.223331 0.133387
0.000000 0.301917 0.103129
0.080856 0.308444 0.109656
0.196227 0.314971 0.116183
0.311597 0.321497 0.122710
0.426968 0.328024 0.129236
0.542339 0.334551 0.135763
0.657709 0.341078 0.142290
0.773080 0.347604 0.148817
0.888451 0.354131 0.155343
0.000000 0.432718 0.125086
0.102813 0.439244 0.131613
0.218183 0.445771 0.138139
0.333554 0.452298 0.144666
0.448924 0.458824 0.151193
0.564295 0.465351 0.157719
0.679666 0.471878 0.164246
0.795036 0.478405 0.170773
0.910407 0.484931 0.177300
0.009398 0.563518 0.147042
0.124769 0.570045 0.153569
0.240139 0.576571 0.160096
0.355510 0.583098 0.166622
0.470881 0.589625 0.173149
0.586251 0.596151 0.179676
0.701622 0.602678 0.186202
0.816993 0.609205 0.192729
0.932363 0.615732 0.199256
0.031355 0.694318 0.168998
0.146725 0.700845 0.175525
0.262096 0.707372 0.182052
0.377466 0.713898 0.188579
0.492837 0.720425 0.195105
0.608208 0.726952 0.201632
0.723578 0.733478 0.208159
0.838949 0.740005 0.214686
0.954320 0.746532 0.221212
0.053311 0.825118 0.190955
0.168682 0.831645 0.197482
0.284052 0.838172 0.204008
0.399423 0.844699 0.210535
0.514793 0.851225 0.217062
0.630164 0.857752 0.223588
0.745535 0.864279 0.230115
0.860905 0.870805 0.236642
0.976276 0.877332 0.243169
0.075267 0.955919 0.212911
0.190638 0.962445 0.219438
0.306008 0.968972 0.225965
0.421379 0.975499 0.232491
0.536750 0.982026 0.239018
0.652120 0.988552 0.245545
0.767491 0.995079 0.252071
0.882862 1.000000 0.258598
0.998232 1.000000 0.265125
0.000000 0.000000 0.148321
0.017204 0.000000 0.154848
0.132574 0.000000 0.161374
0.247945 0.000000 0.167901
0.363316 0.000000 0.174428
0.478686 0.000000 0.180955
0.594057 0.000000 0.187481
0.709428 0.000000 0.194008
0.824798 0.000000 0.200535
0.000000 0.042533 0.170277
0.039160 0.049060 0.176804
0.154531 0.055587 0.183331
0.269901 0.062113 0.189857
0.385272 0.068640 0.196384
0.500643 0.075167 0.202911
0.616013 0.081694 0.209438
0.731384 0.088220 0.215964
0.846755 0.094747 0.222491
0.000000 0.173334 0.192234
0.061116 0.179860 0.198760
0.176487 0.186387 0.205287
0.291858 0.192914 0.211814
0.407228 0.199440 0.218340
0.522599 0.205967 0.224867
0.637970 0.212494 0.231394
0.753340 0.219021 0.237921
0.868711 0.225547 0.244447
0.000000 0.304134 0.214190
0.083073 0.310661 0.220717
0.198443 0.317187 0.227243
0.313814 0.323714 0.233770
0.429185 0.330241 0.240297
0.544555 0.336767 0.246824
0.659926 0.343294 0.253350
0.775297 0.349821 0.259877
0.890667 0.356348 0.266404
0.000000 0.434934 0.236146
0.105029 0.441461 0.242673
0.220400 0.447988 0.249200
0.335770 0.454514 0.255726
0.451141 0.461041 0.262253
0.566512 0.467568 0.268780
0.681882 0.474094 0.275307
0.797253 0.480621 0.281833
0.912624 0.487148 0.288360
0.011615 0.565734 0.258103
0.126985 0.572261 0.264629
0.242356 0.578788 0.271156
0.357727 0.585315 0.277683
0.473097 0.591841 0.284209
0.588468 0.598368 0.290736
0.703839 0.604895 0.297263
0.819209 0.611421 0.303790
0.934580 0.617948 0.310316
0.033571 0.696535 0.280059
0.148942 0.703061 0.286586
0.264312 0.709588 0.293112
0.379683 0.716115 0.299639
0.495054 0.722642 0.306166
0.610424 0.729168 0.312693
0.725795 0.735695 0.319219
0.841166 0.742222 0.325746
0.956536 0.748748 0.332273
0.055527 0.827335 0.302015
0.170898 0.833862 0.308542
0.286269 0.840388 0.315069
0.401639 0.846915 0.321595
0.517010 0.853442 0.328122
0.632381 0.859969 0.334649
0.747751 0.866495 0.341176
0.863122 0.873022 0.347702
0.978493 0.879549 0.354229
0.077484 0.958135 0.323972
0.192854 0.964662 0.330498
0.308225 0.971189 0.337025
0.423596 0.977715 0.343552
0.538966 0.984242 0.350078
0.654337 0.990769 0.356605
0.769708 0.997296 0.363132
0.885078 1.000000 0.369659
1.000000 1.000000 0.376185
0.000000 0.000000 0.259381
0.019420 0.000000 0.265908
0.134791 0.000000 0.272435
0.250162 0.000000 0.278962
0.365532 0.000000 0.285488
0.480903 0.000000 0.292015
0.596273 0.000000 0.298542
0.711644 0.000000 0.305068
0.827015 0.000000 0.311595
0.000000 0.044750 0.281338
0.041377 0.051277 0.287864
0.156747 0.057803 0.294391
0.272118 0.064330 0.300918
0.387489 0.070857 0.307445
0.502859 0.077383 0.313971
0.618230 0.083910 0.320498
0.733600 0.090437 0.327025
0.848971 0.096964 0.333551
0.000000 0.175550 0.303294
0.063333 0.182077 0.309821
0.178704 0.188604 0.316347
0.294074 0.195130 0.322874
0.409445 0.201657 0.329401
0.524815 0.208184 0.335928
0.640186 0.214710 0.342454
0.755557 0.221237 0.348981
0.870927 0.227764 0.355508
0.000000 0.306350 0.325250
0.085289 0.312877 0.331777
0.200660 0.319404 0.338304
0.316031 0.325931 0.344831
0.431401 0.332457 0.351357
0.546772 0.338984 0.357884
0.662142 0.345511 0.364411
0.777513 0.352037 0.370937
0.892884 0.358564 0.377464
0.000000 0.437151 0.347207
0.107246 0.443677 0.353733
0.222616 0.450204 0.360260
0.337987 0.456731 0.366787
0.453358 0.463258 0.373314
0.568728 0.469784 0.379840
0.684099 0.476311 0.386367
0.799469 0.482838 0.392894
0.914840 0.489364 0.399420
0.013831 0.567951 0.369163
0.129202 0.574478 0.375690
0.244573 0.581004 0.382216
0.359943 0.587531 0.388743
0.475314 0.594058 0.395270
0.590684 0.600584 0.401797
0.706055 0.607111 0.408323
0.821426 0.613638 0.414850
0.936796 0.620165 0.421377
0.035788 0.698751 0.391119
0.151158 0.705278 0.397646
0.266529 0.711805 0.404173
0.381900 0.718331 0.410700
0.497270 0.724858 0.417226
0.612641 0.731385 0.423753
0.728011 0.737911 0.430280
0.843382 0.744438 0.436806
0.958753 0.750965 0.443333
0.057744 0.829551 0.413076
0.173115 0.836078 0.419602
0.288485 0.842605 0.426129
0.403856 0.849132 0.432656
0.519227 0.855658 0.439183
0.634597 0.862185 0.445709
0.749968 0.868712 0.452236
0.865338 0.875238 0.458763
0.980709 0.881765 0.465289
0.079700 0.960352 0.435032
0.195071 0.966878 0.441559
0.310442 0.973405 0.448085
0.425812 0.979932 0.454612
0.541183 0.986459 0.461139
0.656553 0.992985 0.467666
0.771924 0.999512 0.474192
0.887295 1.000000 0.480719
1.000000 1.000000 0.487246
0.000000 0.000000 0.370442
0.021637 0.000000 0.376968
0.137007 0.000000 0.383495
0.252378 0.000000 0.390022
0.367749 0.000000 0.396549
0.483119 0.000000 0.403075
0.598490 0.000000 0.409602
0.713861 0.000000 0.416129
0.829231 0.000000 0.422656
0.000000 0.046966 0.392398
0.043593 0.053493 0.398925
0.158964 0.060020 0.405452
0.274334 0.066546 0.411978
0.389705 0.073073 0.418505
0.505076 0.079600 0.425032
0.620446 0.086127 0.431558
0.735817 0.092653 0.438085
0.851188 0.099180 0.444612
0.000000 0.177767 0.414354
0.065549 0.184293 0.420881
0.180920 0.190820 0.427408
0.296291 0.197347 0.433935
0.411661 0.203873 0.440461
0.527032 0.210400 0.446988
0.642403 0.216927 0.453515
0.757773 0.223454 0.460042
0.873144 0.229980 0.466568
0.000000 0.308567 0.436311
0.087506 0.315094 0.442837
0.202876 0.321620 0.449364
0.318247 0.328147 0.455891
0.433618 0.334674 0.462418
0.548988 0.341200 0.468944
0.664359 0.347727 0.475471
0.779730 0.354254 0.481998
0.895100 0.360781 0.488525
0.000000 0.439367 0.458267
0.109462 0.445894 0.464794
0.224833 0.452421 0.471321
0.340203 0.458947 0.477847
0.455574 0.465474 0.484374
0.570945 0.472001 0.490901
0.686315 0.478527 0.497427
0.801686 0.485054 0.503954
0.917057 0.491581 0.510481
0.016048 0.570167 0.480223
0.131418 0.576694 0.486750
0.246789 0.583221 0.493277
0.362160 0.589748 0.499804
0.477530 0.596274 0.506330
0.592901 0.602801 0.512857
0.708272 0.609328 0.519384
0.823642 0.615854 0.525911
0.939013 0.622381 0.532437
0.038004 0.700968 0.502180
0.153375 0.707494 0.508706
0.268745 0.714021 0.515233
0.384116 0.720548 0.521760
0.499487 0.727075 0.528287
0.614857 0.733601 0.534813
0.730228 0.740128 0.541340
0.845599 0.746655 0.547867
0.960969 0.753181 0.554394
0.059960 0.831768 0.524136
0.175331 0.838295 0.530663
0.290702 0.844821 0.537190
0.406072 0.851348 0.543716
0.521443 0.857875 0.550243
0.636814 0.864402 0.556770
0.752184 0.870928 0.563296
0.867555 0.877455 0.569823
0.982926 0.883982 0.576350
0.081917 0.962568 0.546092
0.197287 0.969095 0.552619
0.312658 0.975622 0.559146
0.428029 0.982148 0.565673
0.543399 0.988675 0.572199
0.658770 0.995202 0.578726
0.774141 1.000000 0.585253
0.889511 1.000000 0.591780
1.000000 1.000000 0.598306
0.000000 0.000000 0.481502
0.023853 0.000000 0.488029
0.139224 0.000000 0.494556
0.254595 0.000000 0.501082
0.369965 0.000000 0.507609
0.485336 0.000000 0.514136
0.600707 0.000000 0.520663
0.716077 0.000000 0.527189
0.831448 0.000000 0.533716
0.000000 0.049183 0.503459
0.045810 0.055710 0.509985
0.161180 0.062236 0.516512
0.276551 0.068763 0.523039
0.391922 0.075290 0.529565
0.507292 0.081816 0.536092
0.622663 0.088343 0.542619
0.738034 0.094870 0.549146
0.853404 0.101397 0.555672
0.000000 0.179983 0.525415
0.067766 0.186510 0.531942
0.183137 0.193037 0.538468
0.298507 0.199563 0.544995
0.413878 0.206090 0.551522
0.529249 0.212617 0.558049
0.644619 0.219143 0.564575
0.759990 0.225670 0.571102
0.875360 0.232197 0.577629
0.000000 0.310783 0.547371
0.089722 0.317310 0.553898
0.205093 0.323837 0.560425
0.320464 0.330364 0.566951
0.435834 0.336890 0.573478
0.551205 0.343417 0.580005
0.666576 0.349944 0.586532
0.781946 0.356470 0.593058
0.897317 0.362997 0.599585
0.000000 0.441584 0.569328
0.111679 0.448110 0.575854
0.227049 0.454637 0.582381
0.342420 0.461164 0.588908
0.457791 0.467691 0.595434
0.573161 0.474217 0.601961
0.688532 0.480744 0.608488
0.803903 0.487271 0.615015
0.919273 0.493797 0.621541
0.018264 0.572384 0.591284
0.133635 0.578911 0.597811
0.249006 0.585437 0.604337
0.364376 0.591964 0.610864
0.479747 0.598491 0.617391
0.595118 0.605018 0.623918
0.710488 0.611544 0.630444
0.825859 0.618071 0.636971
0.941229 0.624598 0.643498
0.040221 0.703184 0.613240
0.155591 0.709711 0.619767
0.270962 0.716238 0.626294
0.386333 0.722764 0.632820
0.501703 0.729291 0.639347
0.617074 0.735818 0.645874
0.732445 0.742345 0.652401
0.847815 0.748871 0.658927
0.963186 0.755398 0.665454
0.062177 0.833984 0.635197
0.177548 0.840511 0.641723
0.292918 0.847038 0.648250
0.408289 0.853565 0.654777
0.523660 0.860091 0.661303
0.639030 0.866618 0.667830
0.754401 0.873145 0.674357
0.869772 0.879672 0.680884
0.985142 0.886198 0.687410
0.084133 0.964785 0.657153
0.199504 0.971311 0.663680
0.314875 0.977838 0.670206
0.430245 0.984365 0.676733
0.545616 0.990892 0.683260
0.660987 0.997418 0.689787
0.776357 1.000000 0.696313
0.891728 1.000000 0.702840
1.000000 1.000000 0.709367
0.000000 0.000000 0.592563
0.026070 0.000000 0.599089
0.141440 0.000000 0.605616
0.256811 0.000000 0.612143
0.372182 0.000000 0.618670
0.487552 0.000000 0.625196
0.602923 0.000000 0.631723
0.718294 0.000000 0.638250
0.833664 0.000000 0.644776
0.000000 0.051399 0.614519
0.048026 0.057926 0.621046
0.163397 0.064453 0.627572
0.278767 0.070980 0.634099
0.394138 0.077506 0.640626
0.509509 0.084033 0.647153
0.624879 0.090560 0.653679
0.740250 0.097086 0.660206
0.855621 0.103613 0.666733
0.000000 0.182200 0.636475
0.069982 0.188726 0.643002
0.185353 0.195253 0.649529
0.300724 0.201780 0.656055
0.416094 0.208306 0.662582
0.531465 0.214833 0.669109
0.646836 0.221360 0.675636
0.762206 0.227887 0.682162
0.877577 0.234413 0.688689
0.000000 0.313000 0.658432
0.091939 0.319527 0.664958
0.207309 0.326053 0.671485
0.322680 0.332580 0.678012
0.438051 0.339107 0.684539
0.553421 0.345633 0.691065
0.668792 0.352160 0.697592
0.784163 0.358687 0.704119
0.899533 0.365214 0.710645
0.000000 0.443800 0.680388
0.113895 0.450327 0.686915
0.229266 0.456854 0.693441
0.344636 0.463380 0.699968
0.460007 0.469907 0.706495
0.575378 0.476434 0.713022
0.690748 0.482960 0.719548
0.806119 0.489487 0.726075
0.921490 0.496014 0.732602
0.020481 0.574600 0.702344
0.135851 0.581127 0.708871
0.251222 0.587654 0.715398
0.366593 0.594181 0.721924
0.481963 0.600707 0.728451
0.597334 0.607234 0.734978
0.712705 0.613761 0.741505
0.828075 0.620287 0.748031
0.943446 0.626814 0.754558
0.042437 0.705401 0.724301
0.157808 0.711927 0.730827
0.273178 0.718454 0.737354
0.388549 0.724981 0.743881
0.503920 0.731508 0.750408
0.619290 0.738034 0.756934
0.734661 0.744561 0.763461
0.850032 0.751088 0.769988
0.965402 0.757614 0.776514
0.064393 0.836201 0.746257
0.179764 0.842728 0.752784
0.295135 0.849254 0.759310
0.410505 0.855781 0.765837
0.525876 0.862308 0.772364
0.641247 0.868835 0.778891
0.756617 0.875361 0.785417
0.871988 0.881888 0.791944
0.987359 0.888415 0.798471
0.086350 0.967001 0.768213
0.201720 0.973528 0.774740
0.317091 0.980055 0.781267
0.432462 0.986581 0.787793
0.547832 0.993108 0.794320
0.663203 0.999635 0.800847
0.778574 1.000000 0.807374
0.893944 1.000000 0.813900
1.000000 1.000000 0.820427
0.000000 0.000000 0.703623
0.028286 0.000000 0.710150
0.143657 0.000000 0.716677
0.259028 0.000000 0.723203
0.374398 0.000000 0.729730
0.489769 0.000000 0.736257
0.605140 0.000000 0.742783
0.720510 0.000000 0.749310
0.835881 0.000000 0.755837
0.000000 0.053616 0.725579
0.050243 0.060143 0.732106
0.165613 0.066669 0.738633
0.280984 0.073196 0.745160
0.396355 0.079723 0.751686
0.511725 0.086249 0.758213
0.627096 0.092776 0.764740
0.742467 0.099303 0.771267
0.857837 0.105830 0.777793
0.000000 0.184416 0.747536
0.072199 0.190943 0.754062
0.187570 0.197470 0.760589
0.302940 0.203996 0.767116
0.418311 0.210523 0.773643
0.533682 0.217050 0.780169
0.649052 0.223576 0.786696
0.764423 0.230103 0.793223
0.879794 0.236630 0.799750
0.000000 0.315216 0.769492
0.094155 0.321743 0.776019
0.209526 0.328270 0.782546
0.324897 0.334797 0.789072
0.440267 0.341323 0.795599
0.555638 0.347850 0.802126
0.671009 0.354377 0.808652
0.786379 0.360903 0.815179
0.901750 0.367430 0.821706
0.000741 0.446017 0.791448
0.116112 0.452543 0.797975
0.231482 0.459070 0.804502
0.346853 0.465597 0.811029
0.462224 0.472124 0.817555
0.577594 0.478650 0.824082
0.692965 0.485177 0.830609
0.808336 0.491704 0.837136
0.923706 0.498230 0.843662
0.022697 0.576817 0.813405
0.138068 0.583344 0.819931
0.253439 0.589870 0.826458
0.368809 0.596397 0.832985
0.484180 0.602924 0.839512
0.599551 0.609451 0.846038
0.714921 0.615977 0.852565
0.830292 0.622504 0.859092
0.945663 0.629031 0.865619
0.044654 0.707617 0.835361
0.160024 0.714144 0.841888
0.275395 0.720671 0.848415
0.390766 0.727197 0.854941
0.506136 0.733724 0.861468
0.621507 0.740251 0.867995
0.736878 0.746778 0.874521
0.852248 0.753304 0.881048
0.967619 0.759831 0.887575
0.066610 0.838417 0.857317
0.181981 0.844944 0.863844
0.297351 0.851471 0.870371
0.412722 0.857998 0.876898
0.528093 0.864524 0.883424
0.643463 0.871051 0.889951
0.758834 0.877578 0.896478
0.874205 0.884105 0.903005
0.989575 0.890631 0.909531
0.088566 0.969218 0.879274
0.203937 0.975744 0.885800
0.319308 0.982271 0.892327
0.434678 0.988798 0.898854
0.550049 0.995325 0.905381
0.665420 1.000000 0.911907
0.780790 1.000000 0.918434
0.896161 1.000000 0.924961
1.000000 1.000000 0.931488
0.000000 0.000000 0.814684
0.030503 0.000000 0.821210
0.145873 0.000000 0.827737
0.261244 0.000000 0.834264
0.376615 0.000000 0.840790
0.491985 0.000000 0.847317
0.607356 0.000000 0.853844
0.722727 0.000000 0.860371
0.838097 0.000000 0.866897
0.000000 0.055832 0.836640
0.052459 0.062359 0.843167
0.167830 0.068886 0.849693
0.283200 0.075413 0.856220
0.398571 0.081939 0.862747
0.513942 0.088466 0.869274
0.629312 0.094993 0.875800
0.744683 0.101519 0.882327
0.860054 0.108046 0.888854
0.000000 0.186633 0.858596
0.074415 0.193159 0.865123
0.189786 0.199686 0.871650
0.305157 0.206213 0.878176
0.420527 0.212740 0.884703
0.535898 0.219266 0.891230
0.651269 0.225793 0.897757
0.766639 0.232320 0.904283
0.882010 0.238846 0.910810
0.000000 0.317433 0.880553
0.096372 0.323960 0.887079
0.211742 0.330486 0.893606
0.327113 0.337013 0.900133
0.442484 0.343540 0.906659
0.557854 0.350067 0.913186
0.673225 0.356593 0.919713
0.788596 0.363120 0.926240
0.903966 0.369647 0.932766
0.002957 0.448233 0.902509
0.118328 0.454760 0.909036
0.233699 0.461287 0.915562
0.349069 0.467813 0.922089
0.464440 0.474340 0.928616
0.579811 0.480867 0.935143
0.695181 0.487394 0.941669
0.810552 0.493920 0.948196
0.925923 0.500447 0.954723
0.024914 0.579033 0.924465
0.140284 0.585560 0.930992
0.255655 0.592087 0.937519
0.371026 0.598614 0.944045
0.486396 0.605140 0.950572
0.601767 0.611667 0.957099
0.717138 0.618194 0.963626
0.832508 0.624720 0.970152
0.947879 0.631247 0.976679
0.046870 0.709834 0.946422
0.162241 0.716360 0.952948
0.277611 0.722887 0.959475
0.392982 0.729414 0.966002
0.508353 0.735941 0.972528
0.623723 0.742467 0.979055
0.739094 0.748994 0.985582
0.854465 0.755521 0.992109
0.969835 0.762047 0.998635
0.068826 0.840634 0.968378
0.184197 0.847161 0.974905
0.299568 0.853687 0.981431
0.414938 0.860214 0.987958
0.530309 0.866741 0.994485
0.645680 0.873268 1.000000
0.761050 0.879794 1.000000
0.876421 0.886321 1.000000
0.991792 0.892848 1.000000
0.090783 0.971434 0.990334
0.206153 0.977961 0.996861
0.321524 0.984488 1.000000
0.436895 0.991014 1.000000
0.552265 0.997541 1.000000
0.667636 1.000000 1.000000
0.783007 1.000000 1.000000
0.898377 1.000000 1.000000
1.000000 1.000000 1.000000
