fexer/Resources/LUTs/street_punch.cube
TITLE "Street"
LUT_3D_SIZE 33
DOMAIN_MIN 0.0 0.0 0.0
DOMAIN_MAX 1.0 1.0 1.0
0.000000 0.000000 0.000000
0.000000 0.000000 0.000000
0.000000 0.000000 0.000000
0.000000 0.000000 0.000000
0.012771 0.000000 0.000000
0.041613 0.000000 0.000000
0.070456 0.000000 0.000000
0.099299 0.000000 0.000000
0.128141 0.000000 0.000000
0.156984 0.000000 0.000000
0.185827 0.000000 0.000000
0.214669 0.000000 0.000000
0.243512 0.000000 0.000000
0.272355 0.000000 0.000000
0.301197 0.000000 0.000000
0.330040 0.000000 0.000000
0.358883 0.000000 0.000000
0.387725 0.000000 0.000000
0.416568 0.000000 0.000000
0.445411 0.000000 0.000000
0.474253 0.000000 0.000000
0.503096 0.000000 0.000000
0.531939 0.000000 0.000000
0.560781 0.000000 0.000000
0.589624 0.000000 0.000000
0.618467 0.000000 0.000000
0.647309 0.000000 0.000000
0.676152 0.000000 0.000000
0.704995 0.000000 0.000000
0.733837 0.000000 0.000000
0.762680 0.000000 0.000000
0.791523 0.000000 0.000000
0.820365 0.000000 0.000000
0.000000 0.000000 0.000000
0.000000 0.000000 0.000000
0.000000 0.000000 0.000000
0.000000 0.000000 0.000000
0.018260 0.000000 0.000000
0.047102 0.000000 0.000000
0.075945 0.000000 0.000000
0.104788 0.000000 0.000000
0.133630 0.000000 0.000000
0.162473 0.000000 0.000000
0.191316 0.000000 0.000000
0.220158 0.000000 0.000000
0.249001 0.000000 0.000000
0.277844 0.000000 0.000000
0.306686 0.000000 0.000000
0.335529 0.000000 0.000000
0.364372 0.000000 0.000000
0.393214 0.000000 0.000000
0.422057 0.000000 0.000000
0.450900 0.000000 0.000000
0.479742 0.000000 0.000000
0.508585 0.000000 0.000000
0.537428 0.000000 0.000000
0.566270 0.000000 0.000000
0.595113 0.000000 0.000000
0.623956 0.000000 0.000000
0.652798 0.000000 0.000000
0.681641 0.000000 0.000000
0.710484 0.000000 0.000000
0.739326 0.000000 0.000000
0.768169 0.000000 0.000000
0.797012 0.000000 0.000000
0.825854 0.000000 0.000000
0.000000 0.000000 0.000000
0.000000 0.000000 0.000000
0.000000 0.000000 0.000000
0.000000 0.000000 0.000000
0.023749 0.000000 0.000000
0.052591 0.000000 0.000000
0.081434 0.000000 0.000000
0.110277 0.000000 0.000000
0.139119 0.000000 0.000000
0.167962 0.000000 0.000000
0.196805 0.000000 0.000000
0.225647 0.000000 0.000000
0.254490 0.000000 0.000000
0.283333 0.000000 0.000000
0.312175 0.000000 0.000000
0.341018 0.000000 0.000000
0.369861 0.000000 0.000000
0.398703 0.000439 0.000000
0.427546 0.002070 0.000000
0.456389 0.003702 0.000000
0.485231 0.005334 0.000000
0.514074 0.006965 0.000000
0.542917 0.008597 0.000000
0.571759 0.010229 0.000000
0.600602 0.011861 0.000000
0.629445 0.013492 0.000000
0.658287 0.015124 0.000000
0.687130 0.016756 0.000000
0.715973 0.018387 0.000000
0.744815 0.020019 0.000000
0.773658 0.021651 0.000000
0.802501 0.023282 0.000000
0.831343 0.024914 0.000000
0.000000 0.005400 0.000000
0.000000 0.007032 0.000000
0.000000 0.008664 0.000000
0.000395 0.010295 0.000000
0.029238 0.011927 0.000000
0.058081 0.013559 0.000000
0.086923 0.015190 0.000000
0.115766 0.016822 0.000000
0.144609 0.018454 0.000000
0.173451 0.020085 0.000000
0.202294 0.021717 0.000000
0.231137 0.023349 0.000000
0.259979 0.024980 0.000000
0.288822 0.026612 0.000000
0.317665 0.028244 0.000000
0.346507 0.029875 0.000000
0.375350 0.031507 0.000000
0.404193 0.033139 0.000000
0.433035 0.034770 0.000000
0.461878 0.036402 0.000000
0.490721 0.038034 0.000000
0.519563 0.039666 0.000000
0.548406 0.041297 0.000000
0.577249 0.042929 0.000000
0.606091 0.044561 0.000000
0.634934 0.046192 0.000000
0.663777 0.047824 0.000000
0.692619 0.049456 0.000000
0.721462 0.051087 0.000000
0.750305 0.052719 0.000000
0.779147 0.054351 0.000000
0.807990 0.055982 0.000000
0.836833 0.057614 0.000000
0.000000 0.038100 0.000000
0.000000 0.039732 0.000000
0.000000 0.041364 0.000000
0.005884 0.042995 0.000000
0.034727 0.044627 0.000000
0.063570 0.046259 0.000000
0.092412 0.047890 0.000000
0.121255 0.049522 0.000000
0.150098 0.051154 0.000000
0.178940 0.052785 0.000000
0.207783 0.054417 0.000000
0.236626 0.056049 0.000000
0.265468 0.057680 0.000000
0.294311 0.059312 0.000000
0.323154 0.060944 0.000000
0.351996 0.062575 0.000000
0.380839 0.064207 0.000000
0.409682 0.065839 0.000000
0.438524 0.067471 0.000000
0.467367 0.069102 0.000000
0.496210 0.070734 0.000000
0.525052 0.072366 0.000000
0.553895 0.073997 0.000000
0.582738 0.075629 0.000000
0.611580 0.077261 0.000000
0.640423 0.078892 0.000000
0.669266 0.080524 0.000000
0.698108 0.082156 0.000000
0.726951 0.083787 0.000000
0.755794 0.085419 0.000000
0.784636 0.087051 0.000000
0.813479 0.088682 0.000000
0.842322 0.090314 0.000370
0.000000 0.070800 0.000000
0.000000 0.072432 0.000000
0.000000 0.074064 0.000000
0.011373 0.075695 0.000000
0.040216 0.077327 0.000000
0.069059 0.078959 0.000000
0.097901 0.080590 0.000000
0.126744 0.082222 0.000000
0.155587 0.083854 0.000000
0.184429 0.085485 0.000000
0.213272 0.087117 0.000000
0.242115 0.088749 0.000000
0.270957 0.090381 0.000000
0.299800 0.092012 0.000000
0.328643 0.093644 0.000000
0.357485 0.095276 0.000000
0.386328 0.096907 0.000000
0.415171 0.098539 0.000000
0.444013 0.100171 0.000000
0.472856 0.101802 0.000000
0.501699 0.103434 0.000000
0.530541 0.105066 0.000000
0.559384 0.106697 0.000000
0.588227 0.108329 0.000000
0.617069 0.109961 0.000000
0.645912 0.111592 0.000000
0.674755 0.113224 0.000000
0.703597 0.114856 0.000000
0.732440 0.116487 0.000000
0.761283 0.118119 0.000964
0.790125 0.119751 0.002596
0.818968 0.121382 0.004228
0.847811 0.123014 0.005859
0.000000 0.103500 0.000000
0.000000 0.105132 0.000000
0.000000 0.106764 0.000000
0.016862 0.108395 0.000000
0.045705 0.110027 0.000000
0.074548 0.111659 0.000000
0.103390 0.113290 0.000000
0.132233 0.114922 0.000000
0.161076 0.116554 0.000000
0.189918 0.118186 0.000000
0.218761 0.119817 0.000000
0.247604 0.121449 0.000000
0.276446 0.123081 0.000000
0.305289 0.124712 0.000000
0.334132 0.126344 0.000000
0.362974 0.127976 0.000000
0.391817 0.129607 0.000000
0.420660 0.131239 0.000000
0.449502 0.132871 0.000000
0.478345 0.134502 0.000000
0.507188 0.136134 0.000000
0.536030 0.137766 0.000000
0.564873 0.139397 0.000000
0.593716 0.141029 0.000000
0.622558 0.142661 0.000000
0.651401 0.144292 0.000000
0.680244 0.145924 0.001558
0.709086 0.147556 0.003190
0.737929 0.149187 0.004822
0.766772 0.150819 0.006453
0.795614 0.152451 0.008085
0.824457 0.154083 0.009717
0.853300 0.155714 0.011348
0.000000 0.136200 0.000000
0.000000 0.137832 0.000000
0.000000 0.139464 0.000000
0.022352 0.141096 0.000000
0.051194 0.142727 0.000000
0.080037 0.144359 0.000000
0.108880 0.145991 0.000000
0.137722 0.147622 0.000000
0.166565 0.149254 0.000000
0.195408 0.150886 0.000000
0.224250 0.152517 0.000000
0.253093 0.154149 0.000000
0.281936 0.155781 0.000000
0.310778 0.157412 0.000000
0.339621 0.159044 0.000000
0.368464 0.160676 0.000000
0.397306 0.162307 0.000000
0.426149 0.163939 0.000000
0.454992 0.165571 0.000000
0.483834 0.167202 0.000000
0.512677 0.168834 0.000000
0.541520 0.170466 0.000000
0.570362 0.172097 0.000521
0.599205 0.173729 0.002152
0.628048 0.175361 0.003784
0.656890 0.176993 0.005416
0.685733 0.178624 0.007047
0.714576 0.180256 0.008679
0.743418 0.181888 0.010311
0.772261 0.183519 0.011942
0.801104 0.185151 0.013574
0.829946 0.186783 0.015206
0.858789 0.188414 0.016837
0.000000 0.168901 0.000000
0.000000 0.170532 0.000000
0.000000 0.172164 0.000000
0.027841 0.173796 0.000000
0.056683 0.175427 0.000000
0.085526 0.177059 0.000000
0.114369 0.178691 0.000000
0.143211 0.180322 0.000000
0.172054 0.181954 0.000000
0.200897 0.183586 0.000000
0.229739 0.185217 0.000000
0.258582 0.186849 0.000000
0.287425 0.188481 0.000000
0.316267 0.190112 0.000000
0.345110 0.191744 0.000000
0.373953 0.193376 0.000000
0.402795 0.195007 0.000000
0.431638 0.196639 0.000000
0.460481 0.198271 0.000000
0.489323 0.199902 0.001115
0.518166 0.201534 0.002746
0.547009 0.203166 0.004378
0.575851 0.204798 0.006010
0.604694 0.206429 0.007641
0.633537 0.208061 0.009273
0.662379 0.209693 0.010905
0.691222 0.211324 0.012536
0.720065 0.212956 0.014168
0.748907 0.214588 0.015800
0.777750 0.216219 0.017431
0.806593 0.217851 0.019063
0.835435 0.219483 0.020695
0.864278 0.221114 0.022326
0.000000 0.201601 0.000000
0.000000 0.203232 0.000000
0.004487 0.204864 0.000000
0.033330 0.206496 0.000000
0.062172 0.208127 0.000000
0.091015 0.209759 0.000000
0.119858 0.211391 0.000000
0.148700 0.213022 0.000000
0.177543 0.214654 0.000000
0.206386 0.216286 0.000000
0.235228 0.217917 0.000000
0.264071 0.219549 0.000000
0.292914 0.221181 0.000000
0.321756 0.222812 0.000000
0.350599 0.224444 0.000000
0.379442 0.226076 0.000077
0.408284 0.227708 0.001709
0.437127 0.229339 0.003340
0.465970 0.230971 0.004972
0.494812 0.232603 0.006604
0.523655 0.234234 0.008235
0.552498 0.235866 0.009867
0.581340 0.237498 0.011499
0.610183 0.239129 0.013130
0.639026 0.240761 0.014762
0.667868 0.242393 0.016394
0.696711 0.244024 0.018025
0.725554 0.245656 0.019657
0.754396 0.247288 0.021289
0.783239 0.248919 0.022921
0.812082 0.250551 0.024552
0.840924 0.252183 0.026184
0.869767 0.253814 0.027816
0.000000 0.234301 0.000000
0.000000 0.235932 0.000000
0.009976 0.237564 0.000000
0.038819 0.239196 0.000000
0.067661 0.240827 0.000000
0.096504 0.242459 0.000000
0.125347 0.244091 0.000000
0.154189 0.245722 0.000000
0.183032 0.247354 0.000000
0.211875 0.248986 0.000000
0.240717 0.250617 0.000000
0.269560 0.252249 0.000000
0.298403 0.253881 0.000671
0.327245 0.255513 0.002303
0.356088 0.257144 0.003934
0.384931 0.258776 0.005566
0.413773 0.260408 0.007198
0.442616 0.262039 0.008829
0.471459 0.263671 0.010461
0.500301 0.265303 0.012093
0.529144 0.266934 0.013724
0.557987 0.268566 0.015356
0.586829 0.270198 0.016988
0.615672 0.271829 0.018620
0.644515 0.273461 0.020251
0.673357 0.275093 0.021883
0.702200 0.276724 0.023515
0.731043 0.278356 0.025146
0.759885 0.279988 0.026778
0.788728 0.281619 0.028410
0.817571 0.283251 0.030041
0.846413 0.284883 0.031673
0.875256 0.286514 0.033305
0.000000 0.267001 0.000000
0.000000 0.268632 0.000000
0.015465 0.270264 0.000000
0.044308 0.271896 0.000000
0.073151 0.273527 0.000000
0.101993 0.275159 0.000000
0.130836 0.276791 0.000000
0.159679 0.278423 0.000000
0.188521 0.280054 0.000000
0.217364 0.281686 0.001265
0.246207 0.283318 0.002897
0.275049 0.284949 0.004528
0.303892 0.286581 0.006160
0.332735 0.288213 0.007792
0.361577 0.289844 0.009423
0.390420 0.291476 0.011055
0.419263 0.293108 0.012687
0.448105 0.294739 0.014319
0.476948 0.296371 0.015950
0.505791 0.298003 0.017582
0.534633 0.299634 0.019214
0.563476 0.301266 0.020845
0.592319 0.302898 0.022477
0.621161 0.304529 0.024109
0.650004 0.306161 0.025740
0.678847 0.307793 0.027372
0.707689 0.309424 0.029004
0.736532 0.311056 0.030635
0.765375 0.312688 0.032267
0.794217 0.314320 0.033899
0.823060 0.315951 0.035530
0.851903 0.317583 0.037162
0.880745 0.319215 0.038794
0.000000 0.299701 0.000000
0.000000 0.301332 0.000000
0.020954 0.302964 0.000000
0.049797 0.304596 0.000000
0.078640 0.306228 0.000000
0.107482 0.307859 0.000227
0.136325 0.309491 0.001859
0.165168 0.311123 0.003491
0.194010 0.312754 0.005122
0.222853 0.314386 0.006754
0.251696 0.316018 0.008386
0.280538 0.317649 0.010018
0.309381 0.319281 0.011649
0.338224 0.320913 0.013281
0.367066 0.322544 0.014913
0.395909 0.324176 0.016544
0.424752 0.325808 0.018176
0.453594 0.327439 0.019808
0.482437 0.329071 0.021439
0.511280 0.330703 0.023071
0.540122 0.332334 0.024703
0.568965 0.333966 0.026334
0.597808 0.335598 0.027966
0.626650 0.337229 0.029598
0.655493 0.338861 0.031229
0.684336 0.340493 0.032861
0.713178 0.342125 0.034493
0.742021 0.343756 0.036124
0.770864 0.345388 0.037756
0.799706 0.347020 0.039388
0.828549 0.348651 0.041019
0.857392 0.350283 0.042651
0.886234 0.351915 0.044283
0.000000 0.332401 0.000000
0.000000 0.334033 0.000000
0.026443 0.335664 0.000821
0.055286 0.337296 0.002453
0.084129 0.338928 0.004085
0.112971 0.340559 0.005716
0.141814 0.342191 0.007348
0.170657 0.343823 0.008980
0.199499 0.345454 0.010612
0.228342 0.347086 0.012243
0.257185 0.348718 0.013875
0.286027 0.350349 0.015507
0.314870 0.351981 0.017138
0.343713 0.353613 0.018770
0.372555 0.355244 0.020402
0.401398 0.356876 0.022033
0.430241 0.358508 0.023665
0.459083 0.360139 0.025297
0.487926 0.361771 0.026928
0.516769 0.363403 0.028560
0.545611 0.365035 0.030192
0.574454 0.366666 0.031823
0.603297 0.368298 0.033455
0.632139 0.369930 0.035087
0.660982 0.371561 0.036718
0.689825 0.373193 0.038350
0.718667 0.374825 0.039982
0.747510 0.376456 0.041614
0.776353 0.378088 0.043245
0.805195 0.379720 0.044877
0.834038 0.381351 0.046509
0.862881 0.382983 0.048140
0.891723 0.384615 0.049772
0.000000 0.365101 0.003047
0.003090 0.366733 0.004679
0.031932 0.368364 0.006311
0.060775 0.369996 0.007942
0.089618 0.371628 0.009574
0.118460 0.373259 0.011206
0.147303 0.374891 0.012837
0.176146 0.376523 0.014469
0.204988 0.378154 0.016101
0.233831 0.379786 0.017732
0.262674 0.381418 0.019364
0.291516 0.383049 0.020996
0.320359 0.384681 0.022627
0.349202 0.386313 0.024259
0.378044 0.387944 0.025891
0.406887 0.389576 0.027522
0.435730 0.391208 0.029154
0.464572 0.392840 0.030786
0.493415 0.394471 0.032417
0.522258 0.396103 0.034049
0.551100 0.397735 0.035681
0.579943 0.399366 0.037312
0.608786 0.400998 0.038944
0.637628 0.402630 0.040576
0.666471 0.404261 0.042208
0.695314 0.405893 0.043839
0.724156 0.407525 0.045471
0.752999 0.409156 0.047103
0.781842 0.410788 0.048734
0.810684 0.412420 0.050366
0.839527 0.414051 0.051998
0.868370 0.415683 0.053629
0.897212 0.417315 0.055261
0.000000 0.397801 0.008536
0.008579 0.399433 0.010168
0.037422 0.401064 0.011800
0.066264 0.402696 0.013431
0.095107 0.404328 0.015063
0.123950 0.405959 0.016695
0.152792 0.407591 0.018326
0.181635 0.409223 0.019958
0.210478 0.410854 0.021590
0.239320 0.412486 0.023221
0.268163 0.414118 0.024853
0.297006 0.415749 0.026485
0.325848 0.417381 0.028116
0.354691 0.419013 0.029748
0.383534 0.420645 0.031380
0.412376 0.422276 0.033011
0.441219 0.423908 0.034643
0.470062 0.425540 0.036275
0.498904 0.427171 0.037907
0.527747 0.428803 0.039538
0.556590 0.430435 0.041170
0.585432 0.432066 0.042802
0.614275 0.433698 0.044433
0.643118 0.435330 0.046065
0.671960 0.436961 0.047697
0.700803 0.438593 0.049328
0.729646 0.440225 0.050960
0.758488 0.441856 0.052592
0.787331 0.443488 0.054223
0.816174 0.445120 0.055855
0.845016 0.446751 0.057487
0.873859 0.448383 0.059118
0.902702 0.450015 0.060750
0.000000 0.430501 0.014025
0.014068 0.432133 0.015657
0.042911 0.433764 0.017289
0.071753 0.435396 0.018920
0.100596 0.437028 0.020552
0.129439 0.438659 0.022184
0.158281 0.440291 0.023815
0.187124 0.441923 0.025447
0.215967 0.443555 0.027079
0.244809 0.445186 0.028710
0.273652 0.446818 0.030342
0.302495 0.448450 0.031974
0.331337 0.450081 0.033606
0.360180 0.451713 0.035237
0.389023 0.453345 0.036869
0.417865 0.454976 0.038501
0.446708 0.456608 0.040132
0.475551 0.458240 0.041764
0.504393 0.459871 0.043396
0.533236 0.461503 0.045027
0.562079 0.463135 0.046659
0.590921 0.464766 0.048291
0.619764 0.466398 0.049922
0.648607 0.468030 0.051554
0.677449 0.469661 0.053186
0.706292 0.471293 0.054817
0.735135 0.472925 0.056449
0.763977 0.474556 0.058081
0.792820 0.476188 0.059712
0.821663 0.477820 0.061344
0.850505 0.479452 0.062976
0.879348 0.481083 0.064607
0.908191 0.482715 0.066239
0.000000 0.463201 0.019514
0.019557 0.464833 0.021146
0.048400 0.466464 0.022778
0.077242 0.468096 0.024409
0.106085 0.469728 0.026041
0.134928 0.471360 0.027673
0.163770 0.472991 0.029305
0.192613 0.474623 0.030936
0.221456 0.476255 0.032568
0.250298 0.477886 0.034200
0.279141 0.479518 0.035831
0.307984 0.481150 0.037463
0.336826 0.482781 0.039095
0.365669 0.484413 0.040726
0.394512 0.486045 0.042358
0.423354 0.487676 0.043990
0.452197 0.489308 0.045621
0.481040 0.490940 0.047253
0.509882 0.492571 0.048885
0.538725 0.494203 0.050516
0.567568 0.495835 0.052148
0.596410 0.497466 0.053780
0.625253 0.499098 0.055411
0.654096 0.500730 0.057043
0.682938 0.502361 0.058675
0.711781 0.503993 0.060306
0.740624 0.505625 0.061938
0.769466 0.507257 0.063570
0.798309 0.508888 0.065202
0.827152 0.510520 0.066833
0.855994 0.512152 0.068465
0.884837 0.513783 0.070097
0.913680 0.515415 0.071728
0.000000 0.495901 0.025003
0.025046 0.497533 0.026635
0.053889 0.499165 0.028267
0.082731 0.500796 0.029899
0.111574 0.502428 0.031530
0.140417 0.504060 0.033162
0.169259 0.505691 0.034794
0.198102 0.507323 0.036425
0.226945 0.508955 0.038057
0.255787 0.510586 0.039689
0.284630 0.512218 0.041320
0.313473 0.513850 0.042952
0.342315 0.515481 0.044584
0.371158 0.517113 0.046215
0.400001 0.518745 0.047847
0.428843 0.520376 0.049479
0.457686 0.522008 0.051110
0.486529 0.523640 0.052742
0.515371 0.525271 0.054374
0.544214 0.526903 0.056005
0.573057 0.528535 0.057637
0.601899 0.530167 0.059269
0.630742 0.531798 0.060901
0.659585 0.533430 0.062532
0.688427 0.535062 0.064164
0.717270 0.536693 0.065796
0.746113 0.538325 0.067427
0.774955 0.539957 0.069059
0.803798 0.541588 0.070691
0.832641 0.543220 0.072322
0.861483 0.544852 0.073954
0.890326 0.546483 0.075586
0.919169 0.548115 0.077217
0.001693 0.528601 0.030493
0.030535 0.530233 0.032124
0.059378 0.531865 0.033756
0.088221 0.533496 0.035388
0.117063 0.535128 0.037019
0.145906 0.536760 0.038651
0.174749 0.538391 0.040283
0.203591 0.540023 0.041914
0.232434 0.541655 0.043546
0.261277 0.543286 0.045178
0.290119 0.544918 0.046809
0.318962 0.546550 0.048441
0.347805 0.548181 0.050073
0.376647 0.549813 0.051704
0.405490 0.551445 0.053336
0.434333 0.553076 0.054968
0.463175 0.554708 0.056599
0.492018 0.556340 0.058231
0.520861 0.557972 0.059863
0.549703 0.559603 0.061495
0.578546 0.561235 0.063126
0.607389 0.562867 0.064758
0.636231 0.564498 0.066390
0.665074 0.566130 0.068021
0.693917 0.567762 0.069653
0.722759 0.569393 0.071285
0.751602 0.571025 0.072916
0.780445 0.572657 0.074548
0.809287 0.574288 0.076180
0.838130 0.575920 0.077811
0.866973 0.577552 0.079443
0.895815 0.579183 0.081075
0.924658 0.580815 0.082706
0.007182 0.561301 0.035982
0.036024 0.562933 0.037613
0.064867 0.564565 0.039245
0.093710 0.566196 0.040877
0.122552 0.567828 0.042508
0.151395 0.569460 0.044140
0.180238 0.571091 0.045772
0.209080 0.572723 0.047403
0.237923 0.574355 0.049035
0.266766 0.575986 0.050667
0.295608 0.577618 0.052298
0.324451 0.579250 0.053930
0.353294 0.580882 0.055562
0.382136 0.582513 0.057194
0.410979 0.584145 0.058825
0.439822 0.585777 0.060457
0.468664 0.587408 0.062089
0.497507 0.589040 0.063720
0.526350 0.590672 0.065352
0.555192 0.592303 0.066984
0.584035 0.593935 0.068615
0.612878 0.595567 0.070247
0.641720 0.597198 0.071879
0.670563 0.598830 0.073510
0.699406 0.600462 0.075142
0.728248 0.602093 0.076774
0.757091 0.603725 0.078405
0.785934 0.605357 0.080037
0.814776 0.606988 0.081669
0.843619 0.608620 0.083300
0.872462 0.610252 0.084932
0.901304 0.611883 0.086564
0.930147 0.613515 0.088195
0.012671 0.594001 0.041471
0.041513 0.595633 0.043102
0.070356 0.597265 0.044734
0.099199 0.598896 0.046366
0.128041 0.600528 0.047997
0.156884 0.602160 0.049629
0.185727 0.603791 0.051261
0.214569 0.605423 0.052893
0.243412 0.607055 0.054524
0.272255 0.608687 0.056156
0.301097 0.610318 0.057788
0.329940 0.611950 0.059419
0.358783 0.613582 0.061051
0.387625 0.615213 0.062683
0.416468 0.616845 0.064314
0.445311 0.618477 0.065946
0.474153 0.620108 0.067578
0.502996 0.621740 0.069209
0.531839 0.623372 0.070841
0.560681 0.625003 0.072473
0.589524 0.626635 0.074104
0.618367 0.628267 0.075736
0.647209 0.629898 0.077368
0.676052 0.631530 0.078999
0.704895 0.633162 0.080631
0.733737 0.634793 0.082263
0.762580 0.636425 0.083894
0.791423 0.638057 0.085526
0.820265 0.639688 0.087158
0.849108 0.641320 0.088790
0.877951 0.642952 0.090421
0.906793 0.644584 0.092053
0.935636 0.646215 0.093685
0.018160 0.626701 0.046960
0.047002 0.628333 0.048592
0.075845 0.629965 0.050223
0.104688 0.631597 0.051855
0.133530 0.633228 0.053487
0.162373 0.634860 0.055118
0.191216 0.636492 0.056750
0.220058 0.638123 0.058382
0.248901 0.639755 0.060013
0.277744 0.641387 0.061645
0.306586 0.643018 0.063277
0.335429 0.644650 0.064908
0.364272 0.646282 0.066540
0.393114 0.647913 0.068172
0.421957 0.649545 0.069803
0.450800 0.651177 0.071435
0.479642 0.652808 0.073067
0.508485 0.654440 0.074698
0.537328 0.656072 0.076330
0.566170 0.657703 0.077962
0.595013 0.659335 0.079593
0.623856 0.660967 0.081225
0.652698 0.662598 0.082857
0.681541 0.664230 0.084489
0.710384 0.665862 0.086120
0.739226 0.667494 0.087752
0.768069 0.669125 0.089384
0.796912 0.670757 0.091015
0.825754 0.672389 0.092647
0.854597 0.674020 0.094279
0.883440 0.675652 0.095910
0.912282 0.677284 0.097542
0.941125 0.678915 0.099174
0.023649 0.659402 0.052449
0.052492 0.661033 0.054081
0.081334 0.662665 0.055712
0.110177 0.664297 0.057344
0.139020 0.665928 0.058976
0.167862 0.667560 0.060607
0.196705 0.669192 0.062239
0.225548 0.670823 0.063871
0.254390 0.672455 0.065502
0.283233 0.674087 0.067134
0.312076 0.675718 0.068766
0.340918 0.677350 0.070397
0.369761 0.678982 0.072029
0.398604 0.680613 0.073661
0.427446 0.682245 0.075292
0.456289 0.683877 0.076924
0.485132 0.685508 0.078556
0.513974 0.687140 0.080188
0.542817 0.688772 0.081819
0.571660 0.690403 0.083451
0.600502 0.692035 0.085083
0.629345 0.693667 0.086714
0.658188 0.695299 0.088346
0.687030 0.696930 0.089978
0.715873 0.698562 0.091609
0.744716 0.700194 0.093241
0.773558 0.701825 0.094873
0.802401 0.703457 0.096504
0.831244 0.705089 0.098136
0.860086 0.706720 0.099768
0.888929 0.708352 0.101399
0.917772 0.709984 0.103031
0.946614 0.711615 0.104663
0.029138 0.692102 0.057938
0.057981 0.693733 0.059570
0.086823 0.695365 0.061201
0.115666 0.696997 0.062833
0.144509 0.698628 0.064465
0.173351 0.700260 0.066096
0.202194 0.701892 0.067728
0.231037 0.703523 0.069360
0.259879 0.705155 0.070991
0.288722 0.706787 0.072623
0.317565 0.708418 0.074255
0.346407 0.710050 0.075887
0.375250 0.711682 0.077518
0.404093 0.713313 0.079150
0.432935 0.714945 0.080782
0.461778 0.716577 0.082413
0.490621 0.718209 0.084045
0.519463 0.719840 0.085677
0.548306 0.721472 0.087308
0.577149 0.723104 0.088940
0.605991 0.724735 0.090572
0.634834 0.726367 0.092203
0.663677 0.727999 0.093835
0.692519 0.729630 0.095467
0.721362 0.731262 0.097098
0.750205 0.732894 0.098730
0.779047 0.734525 0.100362
0.807890 0.736157 0.101993
0.836733 0.737789 0.103625
0.865575 0.739420 0.105257
0.894418 0.741052 0.106888
0.923261 0.742684 0.108520
0.952103 0.744315 0.110152
0.034627 0.724802 0.063427
0.063470 0.726433 0.065059
0.092312 0.728065 0.066690
0.121155 0.729697 0.068322
0.149998 0.731328 0.069954
0.178840 0.732960 0.071585
0.207683 0.734592 0.073217
0.236526 0.736223 0.074849
0.265368 0.737855 0.076481
0.294211 0.739487 0.078112
0.323054 0.741118 0.079744
0.351896 0.742750 0.081376
0.380739 0.744382 0.083007
0.409582 0.746014 0.084639
0.438424 0.747645 0.086271
0.467267 0.749277 0.087902
0.496110 0.750909 0.089534
0.524952 0.752540 0.091166
0.553795 0.754172 0.092797
0.582638 0.755804 0.094429
0.611480 0.757435 0.096061
0.640323 0.759067 0.097692
0.669166 0.760699 0.099324
0.698008 0.762330 0.100956
0.726851 0.763962 0.102587
0.755694 0.765594 0.104219
0.784536 0.767225 0.105851
0.813379 0.768857 0.107482
0.842222 0.770489 0.109114
0.871064 0.772120 0.110746
0.899907 0.773752 0.112378
0.928750 0.775384 0.114009
0.957592 0.777015 0.115641
0.040116 0.757502 0.068916
0.068959 0.759133 0.070548
0.097801 0.760765 0.072180
0.126644 0.762397 0.073811
0.155487 0.764028 0.075443
0.184329 0.765660 0.077075
0.213172 0.767292 0.078706
0.242015 0.768923 0.080338
0.270857 0.770555 0.081970
0.299700 0.772187 0.083601
0.328543 0.773819 0.085233
0.357385 0.775450 0.086865
0.386228 0.777082 0.088496
0.415071 0.778714 0.090128
0.443913 0.780345 0.091760
0.472756 0.781977 0.093391
0.501599 0.783609 0.095023
0.530441 0.785240 0.096655
0.559284 0.786872 0.098286
0.588127 0.788504 0.099918
0.616969 0.790135 0.101550
0.645812 0.791767 0.103181
0.674655 0.793399 0.104813
0.703497 0.795030 0.106445
0.732340 0.796662 0.108077
0.761183 0.798294 0.109708
0.790025 0.799925 0.111340
0.818868 0.801557 0.112972
