fexer/Resources/LUTs/warm_fade.cube
TITLE "Warm Fade"
LUT_3D_SIZE 33
DOMAIN_MIN 0.0 0.0 0.0
DOMAIN_MAX 1.0 1.0 1.0
0.193008 0.165169 0.118331
0.213861 0.165915 0.119502
0.234714 0.166660 0.120673
0.255566 0.167405 0.121844
0.276419 0.168151 0.123015
0.297272 0.168896 0.124186
0.318124 0.169641 0.125358
0.338977 0.170387 0.126529
0.359829 0.171132 0.127700
0.380682 0.171877 0.128871
0.401535 0.172623 0.130042
0.422387 0.173368 0.131214
0.443240 0.174113 0.132385
0.464092 0.174858 0.133556
0.484945 0.175604 0.134727
0.505798 0.176349 0.135898
0.526650 0.177094 0.137070
0.547954 0.177990 0.138090
0.569446 0.178948 0.139048
0.590937 0.179907 0.140007
0.612429 0.180865 0.140965
0.633920 0.181823 0.141923
0.655412 0.182781 0.142881
0.676903 0.183740 0.143840
0.698394 0.184698 0.144798
0.719886 0.185656 0.145756
0.741377 0.186614 0.146714
0.762869 0.187573 0.147673
0.784360 0.188531 0.148631
0.805852 0.189489 0.149589
0.827343 0.190447 0.150547
0.848834 0.191406 0.151506
0.870326 0.192364 0.152464
0.194083 0.188210 0.122270
0.214936 0.188955 0.123442
0.235788 0.189701 0.124613
0.256641 0.190446 0.125784
0.277493 0.191191 0.126955
0.298346 0.191936 0.128126
0.319199 0.192682 0.129298
0.340051 0.193427 0.130469
0.360904 0.194172 0.131640
0.381756 0.194918 0.132811
0.402609 0.195663 0.133982
0.423462 0.196408 0.135154
0.444314 0.197154 0.136325
0.465212 0.197914 0.137481
0.486704 0.198872 0.138439
0.508195 0.199831 0.139397
0.529687 0.200789 0.140356
0.551178 0.201747 0.141314
0.572669 0.202705 0.142272
0.594161 0.203664 0.143230
0.615652 0.204622 0.144189
0.637144 0.205580 0.145147
0.658635 0.206538 0.146105
0.680127 0.207497 0.147063
0.701618 0.208455 0.148022
0.723109 0.209413 0.148980
0.744601 0.210371 0.149938
0.766092 0.211330 0.150896
0.787584 0.212288 0.151855
0.809075 0.213246 0.152813
0.830567 0.214204 0.153771
0.852058 0.215163 0.154729
0.873550 0.216121 0.155688
0.195158 0.211250 0.126210
0.216010 0.211996 0.127382
0.236863 0.212741 0.128553
0.257715 0.213486 0.129724
0.278568 0.214232 0.130895
0.299421 0.214977 0.132066
0.320273 0.215722 0.133238
0.341126 0.216468 0.134409
0.361978 0.217213 0.135580
0.382831 0.217958 0.136751
0.403962 0.218796 0.137830
0.425453 0.219754 0.138788
0.446944 0.220713 0.139746
0.468436 0.221671 0.140704
0.489927 0.222629 0.141663
0.511419 0.223587 0.142621
0.532910 0.224546 0.143579
0.554402 0.225504 0.144537
0.575893 0.226462 0.145496
0.597384 0.227420 0.146454
0.618876 0.228379 0.147412
0.640367 0.229337 0.148370
0.661859 0.230295 0.149329
0.683350 0.231253 0.150287
0.704842 0.232212 0.151245
0.726333 0.233170 0.152203
0.747825 0.234128 0.153162
0.769316 0.235086 0.154120
0.790807 0.236045 0.155078
0.812299 0.237003 0.156036
0.833790 0.237961 0.156995
0.855282 0.238919 0.157953
0.876773 0.239878 0.158911
0.196232 0.234291 0.130150
0.217085 0.235036 0.131322
0.237937 0.235781 0.132493
0.258790 0.236527 0.133664
0.279643 0.237272 0.134835
0.300495 0.238017 0.136006
0.321348 0.238763 0.137178
0.342711 0.239678 0.138179
0.364202 0.240636 0.139137
0.385694 0.241595 0.140095
0.407185 0.242553 0.141053
0.428677 0.243511 0.142012
0.450168 0.244469 0.142970
0.471659 0.245428 0.143928
0.493151 0.246386 0.144886
0.514642 0.247344 0.145845
0.536134 0.248302 0.146803
0.557625 0.249261 0.147761
0.579117 0.250219 0.148719
0.600608 0.251177 0.149678
0.622100 0.252135 0.150636
0.643591 0.253094 0.151594
0.665082 0.254052 0.152552
0.686574 0.255010 0.153511
0.708065 0.255968 0.154469
0.729557 0.256927 0.155427
0.751048 0.257885 0.156385
0.772540 0.258843 0.157344
0.794031 0.259801 0.158302
0.815522 0.260760 0.159260
0.837014 0.261718 0.160218
0.858505 0.262676 0.161177
0.879997 0.263634 0.162135
0.197307 0.257331 0.134090
0.218159 0.258077 0.135262
0.239012 0.258822 0.136433
0.259969 0.259602 0.137569
0.281460 0.260560 0.138527
0.302952 0.261518 0.139486
0.324443 0.262477 0.140444
0.345934 0.263435 0.141402
0.367426 0.264393 0.142360
0.388917 0.265351 0.143319
0.410409 0.266310 0.144277
0.431900 0.267268 0.145235
0.453392 0.268226 0.146193
0.474883 0.269184 0.147152
0.496375 0.270143 0.148110
0.517866 0.271101 0.149068
0.539357 0.272059 0.150026
0.560849 0.273017 0.150985
0.582340 0.273976 0.151943
0.603832 0.274934 0.152901
0.625323 0.275892 0.153859
0.646815 0.276850 0.154818
0.668306 0.277809 0.155776
0.689797 0.278767 0.156734
0.711289 0.279725 0.157692
0.732780 0.280683 0.158651
0.754272 0.281642 0.159609
0.775763 0.282600 0.160567
0.797255 0.283558 0.161525
0.818746 0.284516 0.162484
0.840237 0.285475 0.163442
0.861729 0.286433 0.164400
0.883220 0.287391 0.165358
0.198718 0.280484 0.137918
0.220209 0.281442 0.138876
0.241701 0.282400 0.139835
0.263192 0.283359 0.140793
0.284684 0.284317 0.141751
0.306175 0.285275 0.142709
0.327667 0.286233 0.143668
0.349158 0.287192 0.144626
0.370650 0.288150 0.145584
0.392141 0.289108 0.146542
0.413632 0.290066 0.147501
0.435124 0.291025 0.148459
0.456615 0.291983 0.149417
0.478107 0.292941 0.150375
0.499598 0.293899 0.151334
0.521090 0.294858 0.152292
0.542581 0.295816 0.153250
0.564072 0.296774 0.154208
0.585564 0.297732 0.155167
0.607055 0.298691 0.156125
0.628547 0.299649 0.157083
0.650038 0.300607 0.158041
0.671530 0.301565 0.159000
0.693021 0.302524 0.159958
0.714512 0.303482 0.160916
0.736004 0.304440 0.161874
0.757495 0.305398 0.162833
0.778987 0.306357 0.163791
0.800478 0.307315 0.164749
0.821970 0.308273 0.165707
0.843461 0.309231 0.166666
0.864953 0.310190 0.167624
0.886444 0.311148 0.168582
0.201942 0.304241 0.141142
0.223433 0.305199 0.142100
0.244925 0.306157 0.143058
0.266416 0.307116 0.144016
0.287907 0.308074 0.144975
0.309399 0.309032 0.145933
0.330890 0.309990 0.146891
0.352382 0.310949 0.147849
0.373873 0.311907 0.148808
0.395365 0.312865 0.149766
0.416856 0.313823 0.150724
0.438347 0.314782 0.151682
0.459839 0.315740 0.152641
0.481330 0.316698 0.153599
0.502822 0.317656 0.154557
0.524313 0.318615 0.155515
0.545805 0.319573 0.156474
0.567296 0.320531 0.157432
0.588787 0.321489 0.158390
0.610279 0.322447 0.159348
0.631770 0.323406 0.160307
0.653262 0.324364 0.161265
0.674753 0.325322 0.162223
0.696245 0.326280 0.163181
0.717736 0.327239 0.164140
0.739228 0.328197 0.165098
0.760719 0.329155 0.166056
0.782210 0.330113 0.167014
0.803702 0.331072 0.167973
0.825193 0.332030 0.168931
0.846685 0.332988 0.169889
0.868176 0.333946 0.170847
0.889668 0.334905 0.171806
0.205165 0.327998 0.144365
0.226657 0.328956 0.145324
0.248148 0.329914 0.146282
0.269640 0.330872 0.147240
0.291131 0.331831 0.148198
0.312622 0.332789 0.149157
0.334114 0.333747 0.150115
0.355605 0.334705 0.151073
0.377097 0.335664 0.152031
0.398588 0.336622 0.152990
0.420080 0.337580 0.153948
0.441571 0.338538 0.154906
0.463062 0.339497 0.155864
0.484554 0.340455 0.156823
0.506045 0.341413 0.157781
0.527537 0.342371 0.158739
0.549028 0.343330 0.159697
0.570520 0.344288 0.160655
0.592011 0.345246 0.161614
0.613503 0.346204 0.162572
0.634994 0.347163 0.163530
0.656485 0.348121 0.164488
0.677977 0.349079 0.165447
0.699468 0.350037 0.166405
0.720960 0.350996 0.167363
0.742451 0.351954 0.168321
0.763943 0.352912 0.169280
0.785434 0.353870 0.170238
0.806925 0.354829 0.171196
0.828417 0.355787 0.172154
0.849908 0.356745 0.173113
0.871400 0.357703 0.174071
0.892891 0.358662 0.175029
0.208389 0.351754 0.147589
0.229880 0.352713 0.148547
0.251372 0.353671 0.149505
0.272863 0.354629 0.150464
0.294355 0.355587 0.151422
0.315846 0.356546 0.152380
0.337337 0.357504 0.153338
0.358829 0.358462 0.154297
0.380320 0.359420 0.155255
0.401812 0.360379 0.156213
0.423303 0.361337 0.157171
0.444795 0.362295 0.158130
0.466286 0.363253 0.159088
0.487778 0.364212 0.160046
0.509269 0.365170 0.161004
0.530760 0.366128 0.161963
0.552252 0.367086 0.162921
0.573743 0.368045 0.163879
0.595235 0.369003 0.164837
0.616726 0.369961 0.165796
0.638218 0.370919 0.166754
0.659709 0.371878 0.167712
0.681200 0.372836 0.168670
0.702692 0.373794 0.169629
0.724183 0.374752 0.170587
0.745675 0.375711 0.171545
0.767166 0.376669 0.172503
0.788658 0.377627 0.173462
0.810149 0.378585 0.174420
0.831640 0.379544 0.175378
0.853132 0.380502 0.176336
0.874623 0.381460 0.177295
0.896115 0.382418 0.178253
0.211612 0.375511 0.150812
0.233104 0.376469 0.151771
0.254595 0.377428 0.152729
0.276087 0.378386 0.153687
0.297578 0.379344 0.154645
0.319070 0.380302 0.155604
0.340561 0.381261 0.156562
0.362053 0.382219 0.157520
0.383544 0.383177 0.158478
0.405035 0.384135 0.159437
0.426527 0.385094 0.160395
0.448018 0.386052 0.161353
0.469510 0.387010 0.162311
0.491001 0.387968 0.163270
0.512493 0.388927 0.164228
0.533984 0.389885 0.165186
0.555475 0.390843 0.166144
0.576967 0.391801 0.167103
0.598458 0.392760 0.168061
0.619950 0.393718 0.169019
0.641441 0.394676 0.169977
0.662933 0.395634 0.170936
0.684424 0.396593 0.171894
0.705915 0.397551 0.172852
0.727407 0.398509 0.173810
0.748898 0.399467 0.174769
0.770390 0.400426 0.175727
0.791881 0.401384 0.176685
0.813373 0.402342 0.177643
0.834864 0.403300 0.178602
0.856356 0.404259 0.179560
0.877847 0.405217 0.180518
0.899338 0.406175 0.181476
0.214836 0.399268 0.154036
0.236328 0.400226 0.154994
0.257819 0.401184 0.155953
0.279310 0.402143 0.156911
0.300802 0.403101 0.157869
0.322293 0.404059 0.158827
0.343785 0.405017 0.159786
0.365276 0.405976 0.160744
0.386768 0.406934 0.161702
0.408259 0.407892 0.162660
0.429750 0.408850 0.163619
0.451242 0.409809 0.164577
0.472733 0.410767 0.165535
0.494225 0.411725 0.166493
0.515716 0.412683 0.167452
0.537208 0.413642 0.168410
0.558699 0.414600 0.169368
0.580190 0.415558 0.170326
0.601682 0.416516 0.171285
0.623173 0.417475 0.172243
0.644665 0.418433 0.173201
0.666156 0.419391 0.174159
0.687648 0.420349 0.175118
0.709139 0.421308 0.176076
0.730631 0.422266 0.177034
0.752122 0.423224 0.177992
0.773613 0.424182 0.178951
0.795105 0.425141 0.179909
0.816596 0.426099 0.180867
0.838088 0.427057 0.181825
0.859579 0.428015 0.182784
0.881071 0.428974 0.183742
0.902562 0.429932 0.184700
0.218060 0.423025 0.157260
0.239551 0.423983 0.158218
0.261043 0.424941 0.159176
0.282534 0.425899 0.160134
0.304025 0.426858 0.161093
0.325517 0.427816 0.162051
0.347008 0.428774 0.163009
0.368500 0.429732 0.163967
0.389991 0.430691 0.164926
0.411483 0.431649 0.165884
0.432974 0.432607 0.166842
0.454465 0.433565 0.167800
0.475957 0.434524 0.168759
0.497448 0.435482 0.169717
0.518940 0.436440 0.170675
0.540431 0.437398 0.171633
0.561923 0.438357 0.172592
0.583414 0.439315 0.173550
0.604906 0.440273 0.174508
0.626397 0.441231 0.175466
0.647888 0.442190 0.176425
0.669380 0.443148 0.177383
0.690871 0.444106 0.178341
0.712363 0.445064 0.179299
0.733854 0.446023 0.180258
0.755346 0.446981 0.181216
0.776837 0.447939 0.182174
0.798328 0.448897 0.183132
0.819820 0.449856 0.184091
0.841311 0.450814 0.185049
0.862803 0.451772 0.186007
0.884294 0.452730 0.186965
0.905786 0.453689 0.187924
0.221283 0.446782 0.160483
0.242775 0.447740 0.161442
0.264266 0.448698 0.162400
0.285758 0.449656 0.163358
0.307249 0.450615 0.164316
0.328740 0.451573 0.165275
0.350232 0.452531 0.166233
0.371723 0.453489 0.167191
0.393215 0.454448 0.168149
0.414706 0.455406 0.169108
0.436198 0.456364 0.170066
0.457689 0.457322 0.171024
0.479181 0.458281 0.171982
0.500672 0.459239 0.172941
0.522163 0.460197 0.173899
0.543655 0.461155 0.174857
0.565146 0.462114 0.175815
0.586638 0.463072 0.176774
0.608129 0.464030 0.177732
0.629621 0.464988 0.178690
0.651112 0.465947 0.179648
0.672603 0.466905 0.180607
0.694095 0.467863 0.181565
0.715586 0.468821 0.182523
0.737078 0.469780 0.183481
0.758569 0.470738 0.184440
0.780061 0.471696 0.185398
0.801552 0.472654 0.186356
0.823043 0.473613 0.187314
0.844535 0.474571 0.188273
0.866026 0.475529 0.189231
0.887518 0.476487 0.190189
0.909009 0.477446 0.191147
0.224507 0.470538 0.163707
0.245998 0.471497 0.164665
0.267490 0.472455 0.165623
0.288981 0.473413 0.166582
0.310473 0.474371 0.167540
0.331964 0.475330 0.168498
0.353456 0.476288 0.169456
0.374947 0.477246 0.170415
0.396438 0.478204 0.171373
0.417930 0.479163 0.172331
0.439421 0.480121 0.173289
0.460913 0.481079 0.174248
0.482404 0.482037 0.175206
0.503896 0.482996 0.176164
0.525387 0.483954 0.177122
0.546878 0.484912 0.178081
0.568370 0.485870 0.179039
0.589861 0.486829 0.179997
0.611353 0.487787 0.180955
0.632844 0.488745 0.181914
0.654336 0.489703 0.182872
0.675827 0.490662 0.183830
0.697318 0.491620 0.184788
0.718810 0.492578 0.185747
0.740301 0.493536 0.186705
0.761793 0.494495 0.187663
0.783284 0.495453 0.188621
0.804776 0.496411 0.189580
0.826267 0.497369 0.190538
0.847759 0.498328 0.191496
0.869250 0.499286 0.192454
0.890741 0.500244 0.193413
0.912233 0.501202 0.194371
0.227731 0.494295 0.166931
0.249222 0.495253 0.167889
0.270713 0.496212 0.168847
0.292205 0.497170 0.169805
0.313696 0.498128 0.170764
0.335188 0.499086 0.171722
0.356679 0.500045 0.172680
0.378171 0.501003 0.173638
0.399662 0.501961 0.174597
0.421153 0.502919 0.175555
0.442645 0.503878 0.176513
0.464136 0.504836 0.177471
0.485628 0.505794 0.178430
0.507119 0.506752 0.179388
0.528611 0.507711 0.180346
0.550102 0.508669 0.181304
0.571593 0.509627 0.182263
0.593085 0.510585 0.183221
0.614576 0.511544 0.184179
0.636068 0.512502 0.185137
0.657559 0.513460 0.186096
0.679051 0.514418 0.187054
0.700542 0.515377 0.188012
0.722034 0.516335 0.188970
0.743525 0.517293 0.189929
0.765016 0.518251 0.190887
0.786508 0.519210 0.191845
0.807999 0.520168 0.192803
0.829491 0.521126 0.193762
0.850982 0.522084 0.194720
0.872474 0.523043 0.195678
0.893965 0.524001 0.196636
0.915456 0.524959 0.197594
0.230954 0.518052 0.170154
0.252446 0.519010 0.171112
0.273937 0.519968 0.172071
0.295428 0.520927 0.173029
0.316920 0.521885 0.173987
0.338411 0.522843 0.174945
0.359903 0.523801 0.175904
0.381394 0.524760 0.176862
0.402886 0.525718 0.177820
0.424377 0.526676 0.178778
0.445868 0.527634 0.179737
0.467360 0.528593 0.180695
0.488851 0.529551 0.181653
0.510343 0.530509 0.182611
0.531834 0.531467 0.183570
0.553326 0.532426 0.184528
0.574817 0.533384 0.185486
0.596309 0.534342 0.186444
0.617800 0.535300 0.187403
0.639291 0.536259 0.188361
0.660783 0.537217 0.189319
0.682274 0.538175 0.190277
0.703766 0.539133 0.191236
0.725257 0.540092 0.192194
0.746749 0.541050 0.193152
0.768240 0.542008 0.194110
0.789731 0.542966 0.195069
0.811223 0.543925 0.196027
0.832714 0.544883 0.196985
0.854206 0.545841 0.197943
0.875697 0.546799 0.198902
0.897189 0.547758 0.199860
0.918680 0.548716 0.200818
0.234178 0.541809 0.173378
0.255669 0.542767 0.174336
0.277161 0.543725 0.175294
0.298652 0.544683 0.176253
0.320143 0.545642 0.177211
0.341635 0.546600 0.178169
0.363126 0.547558 0.179127
0.384618 0.548516 0.180086
0.406109 0.549475 0.181044
0.427601 0.550433 0.182002
0.449092 0.551391 0.182960
0.470584 0.552349 0.183918
0.492075 0.553308 0.184877
0.513566 0.554266 0.185835
0.535058 0.555224 0.186793
0.556549 0.556182 0.187751
0.578041 0.557141 0.188710
0.599532 0.558099 0.189668
0.621024 0.559057 0.190626
0.642515 0.560015 0.191584
0.664006 0.560974 0.192543
0.685498 0.561932 0.193501
0.706989 0.562890 0.194459
0.728481 0.563848 0.195417
0.749972 0.564807 0.196376
0.771464 0.565765 0.197334
0.792955 0.566723 0.198292
0.814446 0.567681 0.199250
0.835938 0.568640 0.200209
0.857429 0.569598 0.201167
0.878921 0.570556 0.202125
0.900412 0.571514 0.203083
0.921904 0.572473 0.204042
0.237401 0.565566 0.176601
0.258893 0.566524 0.177560
0.280384 0.567482 0.178518
0.301876 0.568440 0.179476
0.323367 0.569399 0.180434
0.344859 0.570357 0.181393
0.366350 0.571315 0.182351
0.387841 0.572273 0.183309
0.409333 0.573232 0.184267
0.430824 0.574190 0.185226
0.452316 0.575148 0.186184
0.473807 0.576106 0.187142
0.495299 0.577065 0.188100
0.516790 0.578023 0.189059
0.538281 0.578981 0.190017
0.559773 0.579939 0.190975
0.581264 0.580898 0.191933
0.602756 0.581856 0.192892
0.624247 0.582814 0.193850
0.645739 0.583772 0.194808
0.667230 0.584731 0.195766
0.688721 0.585689 0.196725
0.710213 0.586647 0.197683
0.731704 0.587605 0.198641
0.753196 0.588563 0.199599
0.774687 0.589522 0.200558
0.796179 0.590480 0.201516
0.817670 0.591438 0.202474
0.839162 0.592396 0.203432
0.860653 0.593355 0.204391
0.882144 0.594313 0.205349
0.903636 0.595271 0.206307
0.925127 0.596229 0.207265
0.240625 0.589322 0.179825
0.262116 0.590281 0.180783
0.283608 0.591239 0.181741
0.305099 0.592197 0.182700
0.326591 0.593155 0.183658
0.348082 0.594114 0.184616
0.369574 0.595072 0.185574
0.391065 0.596030 0.186533
0.412556 0.596988 0.187491
0.434048 0.597947 0.188449
0.455539 0.598905 0.189407
0.477031 0.599863 0.190366
0.498522 0.600821 0.191324
0.520014 0.601780 0.192282
0.541505 0.602738 0.193240
0.562996 0.603696 0.194199
0.584488 0.604654 0.195157
0.605979 0.605613 0.196115
0.627471 0.606571 0.197073
0.648962 0.607529 0.198032
0.670454 0.608487 0.198990
0.691945 0.609446 0.199948
0.713437 0.610404 0.200906
0.734928 0.611362 0.201865
0.756419 0.612320 0.202823
0.777911 0.613279 0.203781
0.799402 0.614237 0.204739
0.820894 0.615195 0.205698
0.842385 0.616153 0.206656
0.863877 0.617112 0.207614
0.885368 0.618070 0.208572
0.906859 0.619028 0.209531
0.928351 0.619986 0.210489
0.243849 0.613079 0.183049
0.265340 0.614037 0.184007
0.286831 0.614996 0.184965
0.308323 0.615954 0.185923
0.329814 0.616912 0.186882
0.351306 0.617870 0.187840
0.372797 0.618829 0.188798
0.394289 0.619787 0.189756
0.415780 0.620745 0.190715
0.437271 0.621703 0.191673
0.458763 0.622662 0.192631
0.480254 0.623620 0.193589
0.501746 0.624578 0.194548
0.523237 0.625536 0.195506
0.544729 0.626495 0.196464
0.566220 0.627453 0.197422
0.587712 0.628411 0.198381
0.609203 0.629369 0.199339
0.630694 0.630328 0.200297
0.652186 0.631286 0.201255
0.673677 0.632244 0.202214
0.695169 0.633202 0.203172
0.716660 0.634161 0.204130
0.738152 0.635119 0.205088
0.759643 0.636077 0.206047
0.781134 0.637035 0.207005
0.802626 0.637994 0.207963
0.824117 0.638952 0.208921
0.845609 0.639910 0.209880
0.867100 0.640868 0.210838
0.888592 0.641827 0.211796
0.910083 0.642785 0.212754
0.931574 0.643743 0.213713
0.247072 0.636836 0.186272
0.268564 0.637794 0.187230
0.290055 0.638752 0.188189
0.311547 0.639711 0.189147
0.333038 0.640669 0.190105
0.354529 0.641627 0.191063
0.376021 0.642585 0.192022
0.397512 0.643544 0.192980
0.419004 0.644502 0.193938
0.440495 0.645460 0.194896
0.461987 0.646418 0.195855
0.483478 0.647377 0.196813
0.504969 0.648335 0.197771
0.526461 0.649293 0.198729
0.547952 0.650251 0.199688
0.569444 0.651210 0.200646
0.590935 0.652168 0.201604
0.612427 0.653126 0.202562
0.633918 0.654084 0.203521
0.655409 0.655043 0.204479
0.676901 0.656001 0.205437
0.698392 0.656959 0.206395
0.719884 0.657917 0.207354
0.741375 0.658876 0.208312
0.762867 0.659834 0.209270
0.784358 0.660792 0.210228
0.805849 0.661750 0.211187
0.827341 0.662709 0.212145
0.848832 0.663667 0.213103
0.870324 0.664625 0.214061
0.891815 0.665583 0.215020
0.913307 0.666542 0.215978
0.934798 0.667500 0.216936
0.250296 0.660593 0.189496
0.271787 0.661551 0.190454
0.293279 0.662509 0.191412
0.314770 0.663467 0.192371
0.336262 0.664426 0.193329
0.357753 0.665384 0.194287
0.379244 0.666342 0.195245
0.400736 0.667300 0.196204
0.422227 0.668259 0.197162
0.443719 0.669217 0.198120
0.465210 0.670175 0.199078
0.486702 0.671133 0.200037
0.508193 0.672092 0.200995
0.529684 0.673050 0.201953
0.551176 0.674008 0.202911
0.572667 0.674966 0.203870
0.594159 0.675925 0.204828
0.615650 0.676883 0.205786
0.637142 0.677841 0.206744
0.658633 0.678799 0.207703
0.680124 0.679758 0.208661
0.701616 0.680716 0.209619
0.723107 0.681674 0.210577
0.744599 0.682632 0.211536
0.766090 0.683591 0.212494
0.787582 0.684549 0.213452
0.809073 0.685507 0.214410
0.830565 0.686465 0.215369
0.852056 0.687424 0.216327
0.873547 0.688382 0.217285
0.895039 0.689340 0.218243
0.916530 0.690298 0.219202
0.938022 0.691257 0.220160
0.253519 0.684350 0.192719
0.275011 0.685308 0.193678
0.296502 0.686266 0.194636
0.317994 0.687224 0.195594
0.339485 0.688182 0.196552
0.360977 0.689141 0.197511
0.382468 0.690099 0.198469
0.403959 0.691057 0.199427
0.425451 0.692015 0.200385
0.446942 0.692974 0.201344
0.468434 0.693932 0.202302
0.489925 0.694890 0.203260
0.511417 0.695848 0.204218
0.532908 0.696807 0.205177
0.554400 0.697765 0.206135
0.575891 0.698723 0.207093
0.597382 0.699681 0.208051
0.618874 0.700640 0.209010
0.640365 0.701598 0.209968
0.661857 0.702556 0.210926
0.683348 0.703514 0.211884
0.704840 0.704473 0.212843
0.726331 0.705431 0.213801
0.747822 0.706389 0.214759
0.769314 0.707347 0.215717
0.790805 0.708306 0.216676
0.812297 0.709264 0.217634
0.833788 0.710222 0.218592
0.855280 0.711180 0.219550
0.876771 0.712139 0.220509
0.898262 0.713097 0.221467
0.919754 0.714055 0.222425
0.941245 0.715013 0.223383
0.256743 0.708106 0.195943
0.278234 0.709065 0.196901
0.299726 0.710023 0.197860
0.321217 0.710981 0.198818
0.342709 0.711939 0.199776
0.364200 0.712898 0.200734
0.385692 0.713856 0.201693
0.407183 0.714814 0.202651
0.428675 0.715772 0.203609
0.450166 0.716731 0.204567
0.471657 0.717689 0.205526
0.493149 0.718647 0.206484
0.514640 0.719605 0.207442
0.536132 0.720564 0.208400
0.557623 0.721522 0.209359
0.579115 0.722480 0.210317
0.600606 0.723438 0.211275
0.622097 0.724397 0.212233
0.643589 0.725355 0.213192
0.665080 0.726313 0.214150
0.686572 0.727271 0.215108
0.708063 0.728230 0.216066
0.729555 0.729188 0.217025
0.751046 0.730146 0.217983
0.772537 0.731104 0.218941
0.794029 0.732063 0.219899
0.815520 0.733021 0.220857
0.837012 0.733979 0.221816
0.858503 0.734937 0.222774
0.879995 0.735896 0.223732
0.901486 0.736854 0.224690
0.922977 0.737812 0.225649
0.944469 0.738770 0.226607
0.259967 0.731863 0.199167
0.281458 0.732821 0.200125
0.302950 0.733780 0.201083
0.324441 0.734738 0.202041
0.345932 0.735696 0.203000
0.367424 0.736654 0.203958
0.388915 0.737613 0.204916
0.410407 0.738571 0.205874
0.431898 0.739529 0.206833
0.453390 0.740487 0.207791
0.474881 0.741446 0.208749
0.496372 0.742404 0.209707
0.517864 0.743362 0.210666
0.539355 0.744320 0.211624
0.560847 0.745279 0.212582
0.582338 0.746237 0.213540
0.603830 0.747195 0.214499
0.625321 0.748153 0.215457
0.646812 0.749112 0.216415
0.668304 0.750070 0.217373
0.689795 0.751028 0.218332
0.711287 0.751986 0.219290
0.732778 0.752945 0.220248
0.754270 0.753903 0.221206
0.775761 0.754861 0.222165
0.797252 0.755819 0.223123
0.818744 0.756778 0.224081
0.840235 0.757736 0.225039
0.861727 0.758694 0.225998
0.883218 0.759652 0.226956
0.904710 0.760611 0.227914
0.926201 0.761569 0.228872
0.947693 0.762527 0.229831
0.263190 0.755620 0.202390
0.284682 0.756578 0.203348
0.306173 0.757536 0.204307
0.327665 0.758495 0.205265
0.349156 0.759453 0.206223
0.370647 0.760411 0.207181
0.392139 0.761369 0.208140
0.413630 0.762328 0.209098
0.435122 0.763286 0.210056
0.456613 0.764244 0.211014
0.478105 0.765202 0.211973
0.499596 0.766161 0.212931
0.521087 0.767119 0.213889
0.542579 0.768077 0.214847
0.564070 0.769035 0.215806
0.585562 0.769994 0.216764
0.607053 0.770952 0.217722
0.628545 0.771910 0.218680
0.650036 0.772868 0.219639
0.671528 0.773827 0.220597
0.693019 0.774785 0.221555
0.714510 0.775743 0.222513
0.736002 0.776701 0.223472
0.757493 0.777660 0.224430
0.778985 0.778618 0.225388
0.800476 0.779576 0.226346
0.821968 0.780534 0.227305
0.843459 0.781493 0.228263
0.864950 0.782451 0.229221
0.886442 0.783409 0.230179
0.907933 0.784367 0.231138
0.929425 0.785326 0.232096
0.950916 0.786284 0.233054
0.266414 0.779377 0.205614
0.287905 0.780335 0.206572
0.309397 0.781293 0.207530
0.330888 0.782251 0.208489
0.352380 0.783210 0.209447
0.373871 0.784168 0.210405
0.395362 0.785126 0.211363
0.416854 0.786084 0.212322
0.438345 0.787043 0.213280
0.459837 0.788001 0.214238
0.481328 0.788959 0.215196
0.502820 0.789917 0.216155
0.524311 0.790876 0.217113
0.545803 0.791834 0.218071
0.567294 0.792792 0.219029
0.588785 0.793750 0.219988
0.610277 0.794709 0.220946
0.631768 0.795667 0.221904
0.653260 0.796625 0.222862
0.674751 0.797583 0.223821
0.696243 0.798542 0.224779
0.717734 0.799500 0.225737
0.739225 0.800458 0.226695
0.760717 0.801416 0.227654
0.782208 0.802375 0.228612
0.803700 0.803333 0.229570
0.825191 0.804291 0.230528
