fexer/Resources/LUTs/warm_fade.cube
TITLE "Warm Fade"
LUT_3D_SIZE 9
DOMAIN_MIN 0.0 0.0 0.0
DOMAIN_MAX 1.0 1.0 1.0
0.193008 0.165169 0.118331
0.276419 0.168151 0.123015
0.359829 0.171132 0.127700
0.443240 0.174113 0.132385
0.526650 0.177094 0.137070
0.612429 0.180865 0.140965
0.698394 0.184698 0.144798
0.784360 0.188531 0.148631
0.870326 0.192364 0.152464
0.197307 0.257331 0.134090
0.281460 0.260560 0.138527
0.367426 0.264393 0.142360
0.453392 0.268226 0.146193
0.539357 0.272059 0.150026
0.625323 0.275892 0.153859
0.711289 0.279725 0.157692
0.797255 0.283558 0.161525
0.883220 0.287391 0.165358
0.208389 0.351754 0.147589
0.294355 0.355587 0.151422
0.380320 0.359420 0.155255
0.466286 0.363253 0.159088
0.552252 0.367086 0.162921
0.638218 0.370919 0.166754
0.724183 0.374752 0.170587
0.810149 0.378585 0.174420
0.896115 0.382418 0.178253
0.221283 0.446782 0.160483
0.307249 0.450615 0.164316
0.393215 0.454448 0.168149
0.479181 0.458281 0.171982
0.565146 0.462114 0.175815
0.651112 0.465947 0.179648
0.737078 0.469780 0.183481
0.823043 0.473613 0.187314
0.909009 0.477446 0.191147
0.234178 0.541809 0.173378
0.320143 0.545642 0.177211
0.406109 0.549475 0.181044
0.492075 0.553308 0.184877
0.578041 0.557141 0.188710
0.664006 0.560974 0.192543
0.749972 0.564807 0.196376
0.835938 0.568640 0.200209
0.921904 0.572473 0.204042
0.247072 0.636836 0.186272
0.333038 0.640669 0.190105
0.419004 0.644502 0.193938
0.504969 0.648335 0.197771
0.590935 0.652168 0.201604
0.676901 0.656001 0.205437
0.762867 0.659834 0.209270
0.848832 0.663667 0.213103
0.934798 0.667500 0.216936
0.259967 0.731863 0.199167
0.345932 0.735696 0.203000
0.431898 0.739529 0.206833
0.517864 0.743362 0.210666
0.603830 0.747195 0.214499
0.689795 0.751028 0.218332
0.775761 0.754861 0.222165
0.861727 0.758694 0.225998
0.947693 0.762527 0.229831
0.272861 0.826890 0.212061
0.358827 0.830723 0.215894
0.444793 0.834556 0.219727
0.530758 0.838389 0.223560
0.616724 0.842222 0.227393
0.702690 0.846055 0.231226
0.788656 0.849888 0.235059
0.874621 0.853721 0.238892
0.960587 0.857554 0.242725
0.285756 0.921917 0.224956
0.371721 0.925750 0.228789
0.457687 0.929583 0.232622
0.543653 0.933416 0.236455
0.629618 0.937249 0.240287
0.715584 0.941082 0.244120
0.801550 0.944915 0.247953
0.887516 0.948748 0.251786
0.973481 0.952581 0.255619
0.193442 0.166182 0.202054
0.276853 0.169163 0.206739
0.360263 0.172144 0.211424
0.443674 0.175126 0.216109
0.527765 0.178334 0.220566
0.613730 0.182167 0.224399
0.699696 0.186000 0.228232
0.785662 0.189833 0.232065
0.871628 0.193666 0.235898
0.197741 0.258344 0.217814
0.282762 0.261862 0.221962
0.368728 0.265695 0.225795
0.454693 0.269528 0.229628
0.540659 0.273361 0.233461
0.626625 0.277194 0.237294
0.712591 0.281027 0.241127
0.798556 0.284860 0.244960
0.884522 0.288693 0.248793
0.209691 0.353056 0.231023
0.295656 0.356889 0.234856
0.381622 0.360722 0.238689
0.467588 0.364555 0.242522
0.553554 0.368388 0.246355
0.639519 0.372221 0.250188
0.725485 0.376054 0.254021
0.811451 0.379887 0.257854
0.897416 0.383720 0.261687
0.222585 0.448083 0.243918
0.308551 0.451916 0.247751
0.394516 0.455749 0.251584
0.480482 0.459582 0.255417
0.566448 0.463415 0.259250
0.652414 0.467248 0.263083
0.738379 0.471081 0.266916
0.824345 0.474914 0.270749
0.910311 0.478747 0.274582
0.235479 0.543110 0.256812
0.321445 0.546943 0.260645
0.407411 0.550776 0.264478
0.493377 0.554609 0.268311
0.579342 0.558442 0.272144
0.665308 0.562275 0.275977
0.751274 0.566108 0.279810
0.837240 0.569941 0.283643
0.923205 0.573774 0.287476
0.248374 0.638138 0.269707
0.334340 0.641971 0.273540
0.420305 0.645804 0.277373
0.506271 0.649637 0.281206
0.592237 0.653470 0.285039
0.678203 0.657303 0.288872
0.764168 0.661136 0.292705
0.850134 0.664969 0.296538
0.936100 0.668802 0.300371
0.261268 0.733165 0.282601
0.347234 0.736998 0.286434
0.433200 0.740831 0.290267
0.519166 0.744664 0.294100
0.605131 0.748497 0.297933
0.691097 0.752330 0.301766
0.777063 0.756163 0.305599
0.863029 0.759996 0.309432
0.948994 0.763829 0.313265
0.274163 0.828192 0.295496
0.360129 0.832025 0.299329
0.446094 0.835858 0.303162
0.532060 0.839691 0.306995
0.618026 0.843524 0.310828
0.703991 0.847357 0.314661
0.789957 0.851190 0.318493
0.875923 0.855023 0.322326
0.961889 0.858856 0.326159
0.287057 0.923219 0.308390
0.373023 0.927052 0.312223
0.458989 0.930885 0.316056
0.544954 0.934718 0.319889
0.630920 0.938551 0.323722
0.716886 0.942384 0.327555
0.802852 0.946217 0.331388
0.888817 0.950050 0.335221
0.974783 0.953883 0.339054
0.193876 0.167194 0.285778
0.277287 0.170176 0.290463
0.360697 0.173157 0.295147
0.444108 0.176138 0.299832
0.529066 0.179635 0.304001
0.615032 0.183468 0.307834
0.700998 0.187301 0.311667
0.786964 0.191134 0.315500
0.872929 0.194967 0.319333
0.198174 0.259356 0.301538
0.284064 0.263164 0.305396
0.370029 0.266997 0.309229
0.455995 0.270830 0.313062
0.541961 0.274663 0.316895
0.627927 0.278496 0.320728
0.713892 0.282329 0.324561
0.799858 0.286162 0.328394
0.885824 0.289995 0.332227
0.210992 0.354358 0.314458
0.296958 0.358191 0.318291
0.382924 0.362024 0.322124
0.468890 0.365857 0.325957
0.554855 0.369690 0.329790
0.640821 0.373523 0.333623
0.726787 0.377356 0.337456
0.812752 0.381189 0.341289
0.898718 0.385022 0.345122
0.223887 0.449385 0.327352
0.309852 0.453218 0.331185
0.395818 0.457051 0.335018
0.481784 0.460884 0.338851
0.567750 0.464717 0.342684
0.653715 0.468550 0.346517
0.739681 0.472383 0.350350
0.825647 0.476216 0.354183
0.911613 0.480049 0.358016
0.236781 0.544412 0.340247
0.322747 0.548245 0.344080
0.408713 0.552078 0.347913
0.494678 0.555911 0.351746
0.580644 0.559744 0.355579
0.666610 0.563577 0.359412
0.752576 0.567410 0.363245
0.838541 0.571243 0.367078
0.924507 0.575076 0.370911
0.249676 0.639439 0.353141
0.335641 0.643272 0.356974
0.421607 0.647105 0.360807
0.507573 0.650938 0.364640
0.593539 0.654771 0.368473
0.679504 0.658604 0.372306
0.765470 0.662437 0.376139
0.851436 0.666270 0.379972
0.937402 0.670103 0.383805
0.262570 0.734467 0.366036
0.348536 0.738299 0.369869
0.434502 0.742132 0.373702
0.520467 0.745965 0.377535
0.606433 0.749798 0.381368
0.692399 0.753631 0.385201
0.778364 0.757464 0.389034
0.864330 0.761297 0.392866
0.950296 0.765130 0.396699
0.275464 0.829494 0.378930
0.361430 0.833327 0.382763
0.447396 0.837160 0.386596
0.533362 0.840993 0.390429
0.619327 0.844826 0.394262
0.705293 0.848659 0.398095
0.791259 0.852492 0.401928
0.877225 0.856325 0.405761
0.963190 0.860158 0.409594
0.288359 0.924521 0.391824
0.374325 0.928354 0.395657
0.460290 0.932187 0.399490
0.546256 0.936020 0.403323
0.632222 0.939853 0.407156
0.718188 0.943686 0.410989
0.804153 0.947519 0.414822
0.890119 0.951352 0.418655
0.976085 0.955185 0.422488
0.194310 0.168207 0.369502
0.277721 0.171188 0.374186
0.361131 0.174169 0.378871
0.444541 0.177150 0.383556
0.530368 0.180937 0.387435
0.616334 0.184770 0.391268
0.702300 0.188603 0.395101
0.788265 0.192436 0.398934
0.874231 0.196269 0.402767
0.199400 0.260632 0.384998
0.285365 0.264465 0.388831
0.371331 0.268298 0.392664
0.457297 0.272131 0.396497
0.543263 0.275964 0.400330
0.629228 0.279797 0.404163
0.715194 0.283630 0.407996
0.801160 0.287463 0.411829
0.887125 0.291296 0.415662
0.212294 0.355659 0.397892
0.298260 0.359492 0.401725
0.384225 0.363325 0.405558
0.470191 0.367158 0.409391
0.556157 0.370991 0.413224
0.642123 0.374824 0.417057
0.728088 0.378657 0.420890
0.814054 0.382490 0.424723
0.900020 0.386323 0.428556
0.225188 0.450687 0.410787
0.311154 0.454520 0.414620
0.397120 0.458353 0.418453
0.483086 0.462186 0.422286
0.569051 0.466019 0.426119
0.655017 0.469852 0.429952
0.740983 0.473685 0.433785
0.826949 0.477518 0.437618
0.912914 0.481351 0.441451
0.238083 0.545714 0.423681
0.324049 0.549547 0.427514
0.410014 0.553380 0.431347
0.495980 0.557213 0.435180
0.581946 0.561046 0.439013
0.667912 0.564879 0.442846
0.753877 0.568712 0.446679
0.839843 0.572545 0.450512
0.925809 0.576378 0.454345
0.250977 0.640741 0.436576
0.336943 0.644574 0.440409
0.422909 0.648407 0.444242
0.508875 0.652240 0.448075
0.594840 0.656073 0.451908
0.680806 0.659906 0.455741
0.766772 0.663739 0.459574
0.852737 0.667572 0.463407
0.938703 0.671405 0.467239
0.263872 0.735768 0.449470
0.349837 0.739601 0.453303
0.435803 0.743434 0.457136
0.521769 0.747267 0.460969
0.607735 0.751100 0.464802
0.693700 0.754933 0.468635
0.779666 0.758766 0.472468
0.865632 0.762599 0.476301
0.951598 0.766432 0.480134
0.276766 0.830795 0.462364
0.362732 0.834628 0.466197
0.448698 0.838461 0.470030
0.534663 0.842294 0.473863
0.620629 0.846127 0.477696
0.706595 0.849960 0.481529
0.792561 0.853793 0.485362
0.878526 0.857626 0.489195
0.964492 0.861459 0.493028
0.289661 0.925823 0.475259
0.375626 0.929656 0.479092
0.461592 0.933489 0.482925
0.547558 0.937322 0.486758
0.633524 0.941155 0.490591
0.719489 0.944988 0.494424
0.805455 0.948821 0.498257
0.891421 0.952654 0.502090
0.977387 0.956487 0.505923
0.194744 0.169219 0.453225
0.278155 0.172200 0.457910
0.361565 0.175182 0.462595
0.445704 0.178406 0.467037
0.531670 0.182239 0.470870
0.617636 0.186072 0.474703
0.703601 0.189905 0.478536
0.789567 0.193738 0.482369
0.875533 0.197571 0.486202
0.200701 0.261934 0.468432
0.286667 0.265767 0.472265
0.372633 0.269600 0.476098
0.458598 0.273433 0.479931
0.544564 0.277266 0.483764
0.630530 0.281099 0.487597
0.716496 0.284932 0.491430
0.802461 0.288765 0.495263
0.888427 0.292598 0.499096
0.213596 0.356961 0.481327
0.299561 0.360794 0.485160
0.385527 0.364627 0.488993
0.471493 0.368460 0.492826
0.557459 0.372293 0.496659
0.643424 0.376126 0.500492
0.729390 0.379959 0.504325
0.815356 0.383792 0.508158
0.901322 0.387625 0.511991
0.226490 0.451988 0.494221
0.312456 0.455821 0.498054
0.398422 0.459654 0.501887
0.484387 0.463487 0.505720
0.570353 0.467320 0.509553
0.656319 0.471153 0.513386
0.742285 0.474986 0.517219
0.828250 0.478819 0.521052
0.914216 0.482652 0.524885
0.239385 0.547016 0.507116
0.325350 0.550849 0.510949
0.411316 0.554682 0.514782
0.497282 0.558515 0.518615
0.583248 0.562348 0.522448
0.669213 0.566181 0.526281
0.755179 0.570014 0.530114
0.841145 0.573847 0.533947
0.927110 0.577680 0.537780
0.252279 0.642043 0.520010
0.338245 0.645876 0.523843
0.424210 0.649709 0.527676
0.510176 0.653542 0.531509
0.596142 0.657375 0.535342
0.682108 0.661208 0.539175
0.768073 0.665041 0.543008
0.854039 0.668874 0.546841
0.940005 0.672707 0.550674
0.265173 0.737070 0.532904
0.351139 0.740903 0.536737
0.437105 0.744736 0.540570
0.523071 0.748569 0.544403
0.609036 0.752402 0.548236
0.695002 0.756235 0.552069
0.780968 0.760068 0.555902
0.866934 0.763901 0.559735
0.952899 0.767734 0.563568
0.278068 0.832097 0.545799
0.364034 0.835930 0.549632
0.449999 0.839763 0.553465
0.535965 0.843596 0.557298
0.621931 0.847429 0.561131
0.707897 0.851262 0.564964
0.793862 0.855095 0.568797
0.879828 0.858928 0.572630
0.965794 0.862761 0.576463
0.290962 0.927124 0.558693
0.376928 0.930957 0.562526
0.462894 0.934790 0.566359
0.548860 0.938623 0.570192
0.634825 0.942456 0.574025
0.720791 0.946289 0.577858
0.806757 0.950122 0.581691
0.892722 0.953955 0.585524
0.978688 0.957788 0.589357
0.195178 0.170232 0.536949
0.278588 0.173213 0.541634
0.361999 0.176194 0.546319
0.447006 0.179708 0.550471
0.532971 0.183540 0.554304
0.618937 0.187373 0.558137
0.704903 0.191206 0.561970
0.790869 0.195039 0.565803
0.876834 0.198872 0.569636
0.202003 0.263236 0.551867
0.287969 0.267069 0.555700
0.373934 0.270902 0.559533
0.459900 0.274735 0.563366
0.545866 0.278568 0.567199
0.631832 0.282401 0.571032
0.717797 0.286234 0.574865
0.803763 0.290067 0.578698
0.889729 0.293900 0.582531
0.214897 0.358263 0.564761
0.300863 0.362096 0.568594
0.386829 0.365929 0.572427
0.472795 0.369762 0.576260
0.558760 0.373595 0.580093
0.644726 0.377428 0.583926
0.730692 0.381261 0.587759
0.816658 0.385094 0.591592
0.902623 0.388927 0.595425
0.227792 0.453290 0.577656
0.313758 0.457123 0.581489
0.399723 0.460956 0.585322
0.485689 0.464789 0.589155
0.571655 0.468622 0.592988
0.657621 0.472455 0.596821
0.743586 0.476288 0.600654
0.829552 0.480121 0.604487
0.915518 0.483954 0.608320
0.240686 0.548317 0.590550
0.326652 0.552150 0.594383
0.412618 0.555983 0.598216
0.498583 0.559816 0.602049
0.584549 0.563649 0.605882
0.670515 0.567482 0.609715
0.756481 0.571315 0.613548
0.842446 0.575148 0.617381
0.928412 0.578981 0.621214
0.253581 0.643344 0.603444
0.339546 0.647177 0.607277
0.425512 0.651010 0.611110
0.511478 0.654843 0.614943
0.597444 0.658676 0.618776
0.683409 0.662509 0.622609
0.769375 0.666342 0.626442
0.855341 0.670175 0.630275
0.941307 0.674008 0.634108
0.266475 0.738372 0.616339
0.352441 0.742205 0.620172
0.438407 0.746038 0.624005
0.524372 0.749871 0.627838
0.610338 0.753704 0.631671
0.696304 0.757537 0.635504
0.782270 0.761370 0.639337
0.868235 0.765203 0.643170
0.954201 0.769036 0.647003
0.279370 0.833399 0.629233
0.365335 0.837232 0.633066
0.451301 0.841065 0.636899
0.537267 0.844898 0.640732
0.623233 0.848731 0.644565
0.709198 0.852564 0.648398
0.795164 0.856397 0.652231
0.881130 0.860230 0.656064
0.967095 0.864063 0.659897
0.292264 0.928426 0.642128
0.378230 0.932259 0.645961
0.464196 0.936092 0.649794
0.550161 0.939925 0.653627
0.636127 0.943758 0.657460
0.722093 0.947591 0.661293
0.808058 0.951424 0.665126
0.894024 0.955257 0.668959
0.979990 0.959090 0.672792
0.195612 0.171244 0.620673
0.279022 0.174225 0.625358
0.362433 0.177207 0.630042
0.448307 0.181009 0.633906
0.534273 0.184842 0.637739
0.620239 0.188675 0.641572
0.706205 0.192508 0.645405
0.792170 0.196341 0.649238
0.878136 0.200174 0.653071
0.203305 0.264537 0.635301
0.289270 0.268370 0.639134
0.375236 0.272203 0.642967
0.461202 0.276036 0.646800
0.547168 0.279869 0.650633
0.633133 0.283702 0.654466
0.719099 0.287535 0.658299
0.805065 0.291368 0.662132
0.891031 0.295201 0.665965
0.216199 0.359565 0.648196
0.302165 0.363398 0.652029
0.388131 0.367231 0.655862
0.474096 0.371064 0.659695
0.560062 0.374897 0.663528
0.646028 0.378730 0.667361
0.731994 0.382563 0.671194
0.817959 0.386396 0.675027
0.903925 0.390229 0.678860
0.229094 0.454592 0.661090
0.315059 0.458425 0.664923
0.401025 0.462258 0.668756
0.486991 0.466091 0.672589
0.572956 0.469924 0.676422
0.658922 0.473757 0.680255
0.744888 0.477590 0.684088
0.830854 0.481423 0.687921
0.916819 0.485256 0.691754
0.241988 0.549619 0.673984
0.327954 0.553452 0.677817
0.413919 0.557285 0.681650
0.499885 0.561118 0.685483
0.585851 0.564951 0.689316
0.671817 0.568784 0.693149
0.757782 0.572617 0.696982
0.843748 0.576450 0.700815
0.929714 0.580283 0.704648
0.254882 0.644646 0.686879
0.340848 0.648479 0.690712
0.426814 0.652312 0.694545
0.512780 0.656145 0.698378
0.598745 0.659978 0.702211
0.684711 0.663811 0.706044
0.770677 0.667644 0.709877
0.856643 0.671477 0.713710
0.942608 0.675310 0.717543
0.267777 0.739673 0.699773
0.353743 0.743506 0.703606
0.439708 0.747339 0.707439
0.525674 0.751172 0.711272
0.611640 0.755005 0.715105
0.697606 0.758838 0.718938
0.783571 0.762671 0.722771
0.869537 0.766504 0.726604
0.955503 0.770337 0.730437
0.280671 0.834701 0.712668
0.366637 0.838533 0.716501
0.452603 0.842366 0.720334
0.538569 0.846199 0.724167
0.624534 0.850032 0.728000
0.710500 0.853865 0.731833
0.796466 0.857698 0.735666
0.882431 0.861531 0.739499
0.968397 0.865364 0.743332
0.293566 0.929728 0.725562
0.379531 0.933561 0.729395
0.465497 0.937394 0.733228
0.551463 0.941227 0.737061
0.637429 0.945060 0.740894
0.723394 0.948893 0.744727
0.809360 0.952726 0.748560
0.895326 0.956559 0.752393
0.981292 0.960392 0.756226
0.196046 0.172257 0.704397
0.279456 0.175238 0.709081
0.363643 0.178478 0.713507
0.449609 0.182311 0.717340
0.535575 0.186144 0.721173
0.621541 0.189977 0.725006
0.707506 0.193810 0.728839
0.793472 0.197643 0.732672
0.879438 0.201476 0.736505
0.204606 0.265839 0.718736
0.290572 0.269672 0.722569
0.376538 0.273505 0.726402
0.462504 0.277338 0.730235
0.548469 0.281171 0.734068
0.634435 0.285004 0.737901
0.720401 0.288837 0.741734
0.806367 0.292670 0.745567
0.892332 0.296503 0.749400
0.217501 0.360866 0.731630
0.303467 0.364699 0.735463
0.389432 0.368532 0.739296
0.475398 0.372365 0.743129
0.561364 0.376198 0.746962
0.647329 0.380031 0.750795
0.733295 0.383864 0.754628
0.819261 0.387697 0.758461
0.905227 0.391530 0.762294
0.230395 0.455893 0.744524
0.316361 0.459726 0.748357
0.402327 0.463559 0.752190
0.488292 0.467392 0.756023
0.574258 0.471225 0.759856
0.660224 0.475058 0.763689
0.746190 0.478891 0.767522
0.832155 0.482724 0.771355
0.918121 0.486557 0.775188
0.243290 0.550921 0.757419
0.329255 0.554754 0.761252
0.415221 0.558587 0.765085
0.501187 0.562420 0.768918
0.587153 0.566253 0.772751
0.673118 0.570086 0.776584
0.759084 0.573919 0.780417
0.845050 0.577752 0.784250
0.931016 0.581585 0.788083
0.256184 0.645948 0.770313
0.342150 0.649781 0.774146
0.428116 0.653614 0.777979
0.514081 0.657447 0.781812
0.600047 0.661280 0.785645
0.686013 0.665113 0.789478
0.771979 0.668946 0.793311
0.857944 0.672779 0.797144
0.943910 0.676612 0.800977
0.269079 0.740975 0.783208
0.355044 0.744808 0.787041
0.441010 0.748641 0.790874
0.526976 0.752474 0.794707
0.612942 0.756307 0.798540
0.698907 0.760140 0.802373
0.784873 0.763973 0.806206
0.870839 0.767806 0.810039
0.956804 0.771639 0.813872
0.281973 0.836002 0.796102
0.367939 0.839835 0.799935
0.453904 0.843668 0.803768
0.539870 0.847501 0.807601
0.625836 0.851334 0.811434
0.711802 0.855167 0.815267
0.797767 0.859000 0.819100
0.883733 0.862833 0.822933
0.969699 0.866666 0.826766
0.294867 0.931029 0.808997
0.380833 0.934862 0.812830
0.466799 0.938695 0.816663
0.552765 0.942528 0.820496
0.638730 0.946361 0.824329
0.724696 0.950194 0.828162
0.810662 0.954027 0.831995
0.896628 0.957860 0.835828
0.982593 0.961693 0.839661
0.196480 0.173269 0.788120
0.279890 0.176250 0.792805
0.364945 0.179780 0.796942
0.450911 0.183613 0.800775
0.536877 0.187446 0.804608
0.622842 0.191279 0.808441
0.708808 0.195112 0.812274
0.794774 0.198945 0.816107
0.880740 0.202778 0.819940
0.205908 0.267141 0.802170
0.291874 0.270974 0.806003
0.377840 0.274807 0.809836
0.463805 0.278640 0.813669
0.549771 0.282473 0.817502
0.635737 0.286306 0.821335
0.721702 0.290139 0.825168
0.807668 0.293972 0.829001
0.893634 0.297805 0.832834
0.218803 0.362168 0.815064
0.304768 0.366001 0.818897
0.390734 0.369834 0.822730
0.476700 0.373667 0.826563
0.562665 0.377500 0.830396
0.648631 0.381333 0.834229
0.734597 0.385166 0.838062
0.820563 0.388999 0.841895
0.906528 0.392832 0.845728
0.231697 0.457195 0.827959
0.317663 0.461028 0.831792
0.403628 0.464861 0.835625
0.489594 0.468694 0.839458
0.575560 0.472527 0.843291
0.661526 0.476360 0.847124
0.747491 0.480193 0.850957
0.833457 0.484026 0.854790
0.919423 0.487859 0.858623
0.244591 0.552222 0.840853
0.330557 0.556055 0.844686
0.416523 0.559888 0.848519
0.502489 0.563721 0.852352
0.588454 0.567554 0.856185
0.674420 0.571387 0.860018
0.760386 0.575220 0.863851
0.846352 0.579053 0.867684
0.932317 0.582886 0.871517
0.257486 0.647250 0.853748
0.343452 0.651083 0.857581
0.429417 0.654916 0.861414
0.515383 0.658749 0.865247
0.601349 0.662582 0.869080
0.687315 0.666415 0.872913
0.773280 0.670248 0.876746
0.859246 0.674081 0.880579
0.945212 0.677914 0.884412
0.270380 0.742277 0.866642
0.356346 0.746110 0.870475
0.442312 0.749943 0.874308
0.528277 0.753776 0.878141
0.614243 0.757609 0.881974
0.700209 0.761442 0.885807
0.786175 0.765275 0.889640
0.872140 0.769108 0.893473
0.958106 0.772941 0.897306
0.283275 0.837304 0.879537
0.369240 0.841137 0.883370
0.455206 0.844970 0.887203
0.541172 0.848803 0.891036
0.627138 0.852636 0.894869
0.713103 0.856469 0.898702
0.799069 0.860302 0.902535
0.885035 0.864135 0.906368
0.971001 0.867968 0.910201
0.296169 0.932331 0.892431
0.382135 0.936164 0.896264
0.468101 0.939997 0.900097
0.554066 0.943830 0.903930
0.640032 0.947663 0.907763
0.725998 0.951496 0.911596
0.811964 0.955329 0.915429
0.897929 0.959162 0.919262
0.983895 0.962995 0.923095
