fexer/Resources/LUTs/warm_fade.cube
TITLE "Warm Fade"
LUT_3D_SIZE 5
DOMAIN_MIN 0.0 0.0 0.0
DOMAIN_MAX 1.0 1.0 1.0
0.193008 0.165169 0.118331
0.359829 0.171132 0.127700
0.526650 0.177094 0.137070
0.698394 0.184698 0.144798
0.870326 0.192364 0.152464
0.208389 0.351754 0.147589
0.380320 0.359420 0.155255
0.552252 0.367086 0.162921
0.724183 0.374752 0.170587
0.896115 0.382418 0.178253
0.234178 0.541809 0.173378
0.406109 0.549475 0.181044
0.578041 0.557141 0.188710
0.749972 0.564807 0.196376
0.921904 0.572473 0.204042
0.259967 0.731863 0.199167
0.431898 0.739529 0.206833
0.603830 0.747195 0.214499
0.775761 0.754861 0.222165
0.947693 0.762527 0.229831
0.285756 0.921917 0.224956
0.457687 0.929583 0.232622
0.629618 0.937249 0.240287
0.801550 0.944915 0.247953
0.973481 0.952581 0.255619
0.193876 0.167194 0.285778
0.360697 0.173157 0.295147
0.529066 0.179635 0.304001
0.700998 0.187301 0.311667
0.872929 0.194967 0.319333
0.210992 0.354358 0.314458
0.382924 0.362024 0.322124
0.554855 0.369690 0.329790
0.726787 0.377356 0.337456
0.898718 0.385022 0.345122
0.236781 0.544412 0.340247
0.408713 0.552078 0.347913
0.580644 0.559744 0.355579
0.752576 0.567410 0.363245
0.924507 0.575076 0.370911
0.262570 0.734467 0.366036
0.434502 0.742132 0.373702
0.606433 0.749798 0.381368
0.778364 0.757464 0.389034
0.950296 0.765130 0.396699
0.288359 0.924521 0.391824
0.460290 0.932187 0.399490
0.632222 0.939853 0.407156
0.804153 0.947519 0.414822
0.976085 0.955185 0.422488
0.194744 0.169219 0.453225
0.361565 0.175182 0.462595
0.531670 0.182239 0.470870
0.703601 0.189905 0.478536
0.875533 0.197571 0.486202
0.213596 0.356961 0.481327
0.385527 0.364627 0.488993
0.557459 0.372293 0.496659
0.729390 0.379959 0.504325
0.901322 0.387625 0.511991
0.239385 0.547016 0.507116
0.411316 0.554682 0.514782
0.583248 0.562348 0.522448
0.755179 0.570014 0.530114
0.927110 0.577680 0.537780
0.265173 0.737070 0.532904
0.437105 0.744736 0.540570
0.609036 0.752402 0.548236
0.780968 0.760068 0.555902
0.952899 0.767734 0.563568
0.290962 0.927124 0.558693
0.462894 0.934790 0.566359
0.634825 0.942456 0.574025
0.806757 0.950122 0.581691
0.978688 0.957788 0.589357
0.195612 0.171244 0.620673
0.362433 0.177207 0.630042
0.534273 0.184842 0.637739
0.706205 0.192508 0.645405
0.878136 0.200174 0.653071
0.216199 0.359565 0.648196
0.388131 0.367231 0.655862
0.560062 0.374897 0.663528
0.731994 0.382563 0.671194
0.903925 0.390229 0.678860
0.241988 0.549619 0.673984
0.413919 0.557285 0.681650
0.585851 0.564951 0.689316
0.757782 0.572617 0.696982
0.929714 0.580283 0.704648
0.267777 0.739673 0.699773
0.439708 0.747339 0.707439
0.611640 0.755005 0.715105
0.783571 0.762671 0.722771
0.955503 0.770337 0.730437
0.293566 0.929728 0.725562
0.465497 0.937394 0.733228
0.637429 0.945060 0.740894
0.809360 0.952726 0.748560
0.981292 0.960392 0.756226
0.196480 0.173269 0.788120
0.364945 0.179780 0.796942
0.536877 0.187446 0.804608
0.708808 0.195112 0.812274
0.880740 0.202778 0.819940
0.218803 0.362168 0.815064
0.390734 0.369834 0.822730
0.562665 0.377500 0.830396
0.734597 0.385166 0.838062
0.906528 0.392832 0.845728
0.244591 0.552222 0.840853
0.416523 0.559888 0.848519
0.588454 0.567554 0.856185
0.760386 0.575220 0.863851
0.932317 0.582886 0.871517
0.270380 0.742277 0.866642
0.442312 0.749943 0.874308
0.614243 0.757609 0.881974
0.786175 0.765275 0.889640
0.958106 0.772941 0.897306
0.296169 0.932331 0.892431
0.468101 0.939997 0.900097
0.640032 0.947663 0.907763
0.811964 0.955329 0.915429
0.983895 0.962995 0.923095
